maxgraf96/sEMG-myo-python/data/data_3.csv
EMG1,EMG2,EMG3,EMG4,EMG5,EMG6,EMG7,EMG8,FingerJoint1,FingerJoint2,FingerJoint3,FingerJoint4,FingerJoint5,FingerJoint6,FingerJoint7,FingerJoint8,wrist1,wrist2,wrist3
42,70,351,119,52,66,70,71,15.89614,22.63313,21.84467,20.10893,20.36437,17.3054,9.707526,16.83046,76.2039,-22.53992,-98.70587
43,69,317,119,55,63,62,77,16.01239,22.75069,21.92901,19.99991,20.50216,17.09534,9.974766,16.59837,75.64496,-21.42343,-97.86453
44,72,326,113,56,62,58,79,16.01239,22.75069,21.92901,19.99991,20.50216,17.09534,9.974766,16.59837,75.64496,-21.42343,-97.86453
40,72,317,110,55,81,65,77,16.01239,22.75069,21.92901,19.99991,20.50216,17.09534,9.974766,16.59837,75.64496,-21.42343,-97.86453
37,59,259,103,49,77,66,76,15.5327,22.60004,22.00307,19.42741,20.7584,16.47856,10.55109,16.44441,75.72166,-20.92874,-97.3028
35,59,244,87,47,79,66,71,15.5327,22.60004,22.00307,19.42741,20.7584,16.47856,10.55109,16.44441,75.72166,-20.92874,-97.3028
35,58,232,90,54,82,68,70,15.5327,22.60004,22.00307,19.42741,20.7584,16.47856,10.55109,16.44441,75.07091,-18.05148,-94.54971
36,56,211,95,56,86,74,82,15.62696,22.40154,22.02348,19.33434,20.80816,16.38897,10.64344,16.23064,75.07091,-18.05148,-94.54971
38,56,225,95,58,66,70,85,15.86612,22.60968,22.43739,19.53807,20.93763,16.34505,10.58886,16.15566,75.07091,-18.05148,-94.54971
36,58,272,83,61,64,68,87,15.86612,22.60968,22.43739,19.53807,20.93763,16.34505,10.58886,16.15566,75.07091,-18.05148,-94.54971
36,60,316,87,60,63,68,79,15.86612,22.60968,22.43739,19.53807,20.93763,16.34505,10.58886,16.15566,75.07091,-18.05148,-94.54971
31,58,305,77,53,61,61,77,18.91895,23.91104,23.53508,20.33196,21.73035,16.79556,11.08778,16.05265,75.05309,-11.68567,-89.01437
38,69,303,82,57,95,113,67,18.91895,23.91104,23.53508,20.33196,21.73035,16.79556,11.08778,16.05265,75.05309,-11.68567,-89.01437
39,71,299,84,58,101,118,77,19.76246,24.39321,24.34745,20.75451,22.44956,16.95959,11.64959,16.00803,75.05309,-11.68567,-89.01437
39,68,250,82,52,104,119,92,19.76246,24.39321,24.34745,20.75451,22.44956,16.95959,11.64959,16.00803,75.05309,-11.68567,-89.01437
40,84,224,85,54,111,124,96,20.2977,24.89165,25.19678,21.10643,23.56889,17.14712,12.7943,16.22596,73.39806,-6.408569,-85.40616
42,87,252,90,53,128,144,118,20.29506,24.80818,25.59714,20.76564,24.07805,16.90845,13.13374,16.22356,72.53329,-4.950012,-84.69061
39,86,325,94,45,98,109,111,20.29506,24.80818,25.59714,20.76564,24.07805,16.90845,13.13374,16.22356,72.53329,-4.950012,-84.69061
36,82,343,92,40,102,104,102,20.29506,24.80818,25.59714,20.76564,24.07805,16.90845,13.13374,16.22356,72.53329,-4.950012,-84.69061
37,82,334,95,44,101,103,87,20.29506,24.80818,25.59714,20.76564,24.07805,16.90845,13.13374,16.22356,72.53329,-4.950012,-84.69061
36,65,307,90,46,98,107,90,20.95409,24.542,25.96242,20.08577,24.34847,16.37396,12.96344,15.91374,72.51958,-4.131775,-84.74124
38,67,298,86,46,99,103,83,20.95409,24.542,25.96242,20.08577,24.34847,16.37396,12.96344,15.91374,72.51958,-4.131775,-84.74124
46,87,288,97,48,104,104,84,20.95409,24.542,25.96242,20.08577,24.34847,16.37396,12.96344,15.91374,72.51958,-4.131775,-84.74124
47,87,268,99,49,93,100,84,21.09339,23.87462,26.01361,19.5694,23.58357,16.26566,11.19549,16.10719,71.89206,0.3783778,-81.25571
50,90,313,99,44,91,99,85,19.11925,21.89331,25.30854,18.36523,22.91275,15.79248,10.3145,16.18034,71.63451,4.731978,-76.9108
50,90,318,97,45,86,87,94,19.11925,21.89331,25.30854,18.36523,22.91275,15.79248,10.3145,16.18034,71.63451,4.731978,-76.9108
50,93,351,99,53,56,57,86,18.69012,21.07634,24.71469,17.86359,22.78991,15.70088,10.79816,16.58846,71.52806,12.17585,-68.83942
41,86,433,85,51,51,46,94,18.69012,21.07634,24.71469,17.86359,22.78991,15.70088,10.79816,16.58846,71.52806,12.17585,-68.83942
44,94,448,88,53,50,45,93,18.69012,21.07634,24.71469,17.86359,22.78991,15.70088,10.79816,16.58846,71.52806,12.17585,-68.83942
40,95,423,85,55,48,38,95,16.82416,19.65918,23.98149,17.23093,21.89574,15.177,9.603639,16.94296,70.8776,17.72954,-62.69083
41,95,424,87,52,47,42,109,17.08504,19.3106,23.24693,17.03755,20.59689,15.26891,8.327138,17.00236,68.87962,33.19276,-45.97952
38,95,451,87,39,42,41,116,17.08504,19.3106,23.24693,17.03755,20.59689,15.26891,8.327138,17.00236,68.87962,33.19276,-45.97952
43,94,368,88,46,44,45,111,17.08504,19.3106,23.24693,17.03755,20.59689,15.26891,8.327138,17.00236,68.87962,33.19276,-45.97952
39,92,350,86,46,77,88,116,17.62055,19.27613,23.04669,17.02639,19.71157,15.42936,6.822237,17.37224,67.9266,38.57381,-39.70905
46,103,426,91,45,81,95,130,19.41755,19.78885,23.89083,17.1438,18.93255,15.82798,4.22533,18.05326,66.79779,40.995,-36.74347
48,128,457,98,45,82,93,108,19.41755,19.78885,23.89083,17.1438,18.93255,15.82798,4.22533,18.05326,66.79779,40.995,-36.74347
48,128,420,90,44,82,93,89,21.12274,20.2745,24.5,17.42679,18.01885,16.21182,1.600784,18.0361,67.02674,41.50161,-35.78647
54,142,444,84,40,79,92,115,21.12274,20.2745,24.5,17.42679,18.01885,16.21182,1.600784,18.0361,67.02674,41.50161,-35.78647
56,144,434,78,36,54,61,132,21.67378,20.21331,24.55344,17.35575,17.52544,16.66586,0.7046669,18.07047,67.78503,38.30265,-38.70746
54,147,451,89,37,51,53,118,21.67378,20.21331,24.55344,17.35575,17.52544,16.66586,0.7046669,18.07047,67.78503,38.30265,-38.70746
54,145,532,93,44,71,59,120,21.67378,20.21331,24.55344,17.35575,17.52544,16.66586,0.7046669,18.07047,67.78503,38.30265,-38.70746
54,146,537,99,48,76,61,118,21.68781,20.06108,24.60285,17.66776,17.70028,17.34368,1.076525,18.68789,68.81589,35.24611,-40.90762
49,136,515,96,46,74,57,89,21.68781,20.06108,24.60285,17.66776,17.70028,17.34368,1.076525,18.68789,68.81589,35.24611,-40.90762
49,137,527,102,50,77,60,69,21.87571,20.2063,24.59489,18.03708,17.82245,17.88607,1.595918,18.92483,71.37141,30.32811,-45.15295
54,126,503,91,48,77,61,84,21.87571,20.2063,24.59489,18.03708,17.82245,17.88607,1.595918,18.92483,71.37141,30.32811,-45.15295
58,131,461,98,49,76,60,91,21.79453,20.33965,24.3496,18.30707,17.85213,18.10084,2.246385,19.00007,74.38855,24.84658,-50.17847
59,132,480,97,48,72,58,92,23.33967,20.40375,24.71177,18.09154,18.18449,18.09015,3.266696,18.85122,77.13055,19.43203,-55.80957
55,128,472,96,48,75,58,95,23.33967,20.40375,24.71177,18.09154,18.18449,18.09015,3.266696,18.85122,77.13055,19.43203,-55.80957
55,142,494,97,49,87,64,123,23.33967,20.40375,24.71177,18.09154,18.18449,18.09015,3.266696,18.85122,78.93919,15.46349,-59.69659
51,154,488,100,51,92,67,121,24.4792,20.40052,24.78629,18.00745,18.43029,18.10602,4.52388,18.47416,78.93919,15.46349,-59.69659
46,137,487,80,43,81,67,115,25.11627,20.30904,24.80859,17.93711,18.60627,18.08729,5.62186,18.06338,80.67184,6.49304,-69.0791
48,135,484,76,41,123,90,129,25.11627,20.30904,24.80859,17.93711,18.60627,18.08729,5.62186,18.06338,80.67184,6.49304,-69.0791
51,150,504,79,43,124,90,142,25.11627,20.30904,24.80859,17.93711,18.60627,18.08729,5.62186,18.06338,80.67184,6.49304,-69.0791
60,141,526,85,40,178,170,124,25.95695,20.42085,25.13587,17.86377,18.74189,18.05586,6.15381,17.65931,81.6302,-3.64801,-79.74548
65,141,530,81,38,178,171,144,25.95695,20.42085,25.13587,17.86377,18.74189,18.05586,6.15381,17.65931,81.6302,-3.64801,-79.74548
66,145,483,85,39,179,172,143,26.79185,20.43392,25.39498,17.55812,18.75751,17.80726,6.547411,17.24409,82.21455,-19.25812,-95.47852
68,161,503,95,45,154,162,135,27.64055,20.3003,25.1336,17.19344,18.10976,17.67153,6.391283,16.66426,82.41488,-36.73267,-112.7926
67,156,578,94,42,156,166,122,27.64055,20.3003,25.1336,17.19344,18.10976,17.67153,6.391283,16.66426,82.41488,-36.73267,-112.7926
68,176,634,110,46,81,79,117,29.62135,20.68954,25.19731,17.1342,17.32868,17.73639,5.758284,16.33694,82.50642,-44.64026,-120.9698
64,176,619,108,46,79,81,111,29.62135,20.68954,25.19731,17.1342,17.32868,17.73639,5.758284,16.33694,82.50642,-44.64026,-120.9698
70,182,621,107,46,78,89,125,33.39063,21.76599,25.66477,17.4933,16.33595,18.2141,4.492724,16.32311,82.37802,-57.11472,-133.4543
68,172,581,97,42,80,92,121,40.74083,27.13634,26.39207,19.6627,15.52835,19.6329,3.44427,16.77185,81.12118,-70.64053,-147.1454
84,169,480,94,44,87,91,141,40.74083,27.13634,26.39207,19.6627,15.52835,19.6329,3.44427,16.77185,81.12118,-70.64053,-147.1454
82,169,428,79,45,92,104,154,40.74083,27.13634,26.39207,19.6627,15.52835,19.6329,3.44427,16.77185,79.0899,-80.1319,-157.7596
83,170,494,84,48,104,129,164,40.74083,27.13634,26.39207,19.6627,15.52835,19.6329,3.44427,16.77185,79.0899,-80.1319,-157.7596
82,164,489,83,47,106,128,162,40.74083,27.13634,26.39207,19.6627,15.52835,19.6329,3.44427,16.77185,79.0899,-80.1319,-157.7596
82,168,500,88,47,102,129,173,51.47095,55.59647,27.71046,24.58688,13.65813,21.80113,-0.09786987,17.18253,79.0899,-80.1319,-157.7596
70,164,571,95,46,88,132,213,51.47095,55.59647,27.71046,24.58688,13.65813,21.80113,-0.09786987,17.18253,79.0899,-80.1319,-157.7596
63,150,511,81,42,97,141,213,51.47095,55.59647,27.71046,24.58688,13.65813,21.80113,-0.09786987,17.18253,79.0899,-80.1319,-157.7596
67,141,438,75,37,80,119,199,49.0423,70.44026,26.78934,25.9829,12.8503,21.5686,-0.5169983,17.64249,73.82015,-86.79248,-166.7669
69,162,607,114,45,80,114,210,49.75007,82.79688,26.60875,26.40367,12.06212,21.04829,-1.675598,18.20427,72.12167,-88.79404,-169.2387
71,170,637,116,47,80,112,209,49.75007,82.79688,26.60875,26.40367,12.06212,21.04829,-1.675598,18.20427,72.12167,-88.79404,-169.2387
75,178,646,125,48,78,108,155,50.23909,86.22798,26.57659,26.02128,11.61299,20.63791,-2.259766,18.24311,70.65356,-90.62375,-171.6088
84,178,666,131,50,60,75,197,50.23909,86.22798,26.57659,26.02128,11.61299,20.63791,-2.259766,18.24311,70.65356,-90.62375,-171.6088
83,180,694,136,51,75,82,197,50.23909,86.22798,26.57659,26.02128,11.61299,20.63791,-2.259766,18.24311,70.65356,-90.62375,-171.6088
88,164,584,111,49,74,82,184,51.52767,89.19904,26.95788,25.63762,11.51013,20.08914,-2.749115,18.31828,69.548,-92.16714,-173.1682
94,160,588,115,51,76,77,262,53.7142,90.31174,27.74393,25.06615,11.60606,19.73722,-3.458771,18.27466,68.71909,-93.59399,-174.5769
89,172,639,115,55,84,89,275,53.7142,90.31174,27.74393,25.06615,11.60606,19.73722,-3.458771,18.27466,68.71909,-93.59399,-174.5769
85,167,644,113,56,115,121,249,53.7142,90.31174,27.74393,25.06615,11.60606,19.73722,-3.458771,18.27466,68.71909,-93.59399,-174.5769
83,163,610,108,55,113,120,255,57.986,92.05211,29.7288,24.683,12.50034,19.67807,-3.698273,18.44349,68.0582,-94.28067,-175.418
78,162,626,109,54,117,124,255,59.41367,93.73538,30.5979,24.11651,12.73059,19.34441,-4.131897,18.4418,68.0582,-94.28067,-175.418
74,162,584,103,57,120,128,181,59.41367,93.73538,30.5979,24.11651,12.73059,19.34441,-4.131897,18.4418,68.0582,-94.28067,-175.418
72,128,422,83,53,123,128,165,59.93991,94.18728,31.00759,23.69729,13.04338,19.31185,-4.479004,18.69473,66.23352,-95.37903,-176.343
73,124,367,75,51,95,102,161,59.93991,94.18728,31.00759,23.69729,13.04338,19.31185,-4.479004,18.69473,66.23352,-95.37903,-176.343
70,121,357,70,51,85,91,147,59.93991,94.18728,31.00759,23.69729,13.04338,19.31185,-4.479004,18.69473,66.23352,-95.37903,-176.343
74,117,302,61,48,78,85,166,59.619,94.17493,31.15137,23.44197,13.20113,19.27503,-4.618286,18.83938,65.78448,-96.55679,-177.486
71,105,323,50,41,72,79,147,52.57769,87.32448,28.9853,23.30501,12.66195,19.7553,-5.057037,19.09398,65.78448,-96.55679,-177.486
71,111,329,53,43,59,63,149,52.57769,87.32448,28.9853,23.30501,12.66195,19.7553,-5.057037,19.09398,65.78448,-96.55679,-177.486
68,115,353,53,39,49,50,136,47.97378,69.87624,27.5737,22.93249,11.82532,20.82708,-5.997009,19.31723,64.29475,-97.54788,-178.1597
79,121,399,54,39,63,76,159,47.97378,69.87624,27.5737,22.93249,11.82532,20.82708,-5.997009,19.31723,64.29475,-97.54788,-178.1597
72,132,406,77,43,68,80,157,43.44946,50.74419,26.77601,22.38066,11.20614,21.97326,-6.749023,20.56668,64.22652,-98.76285,-178.9145
72,138,381,77,46,72,85,230,43.44946,50.74419,26.77601,22.38066,11.20614,21.97326,-6.749023,20.56668,64.22652,-98.76285,-178.9145
88,150,501,90,47,76,87,260,42.00997,45.6059,26.23443,22.81271,10.60102,22.7206,-7.116974,21.31428,64.02468,-99.50531,-179.2528
86,148,513,95,50,102,103,263,42.00997,45.6059,26.23443,22.81271,10.60102,22.7206,-7.116974,21.31428,64.02468,-99.50531,-179.2528
77,142,492,103,55,96,88,261,42.00997,45.6059,26.23443,22.81271,10.60102,22.7206,-7.116974,21.31428,64.02468,-99.50531,-179.2528
76,139,525,98,57,99,87,251,38.40463,37.2767,25.10859,21.71923,9.942465,22.70508,-7.067596,21.58648,64.02468,-99.50531,-179.2528
95,174,661,137,67,152,132,238,33.99141,31.77886,24.26141,20.58887,9.761223,22.21542,-6.805634,21.46965,64.02468,-99.50531,-179.2528
100,201,715,156,72,167,144,223,33.99141,31.77886,24.26141,20.58887,9.761223,22.21542,-6.805634,21.46965,64.39388,-100.2684,-178.6799
102,203,705,154,73,158,138,241,31.66479,27.89534,23.71792,19.50667,9.681844,21.60965,-6.264252,21.02936,64.86044,-100.8119,-178.7342
117,212,692,149,70,158,139,239,31.66479,27.89534,23.71792,19.50667,9.681844,21.60965,-6.264252,21.02936,65.47265,-100.9348,-178.0158
119,216,692,146,73,162,143,237,29.7964,25.50023,23.14557,18.91201,9.597447,21.05245,-5.804749,20.50849,65.47265,-100.9348,-178.0158
106,193,704,129,65,111,104,193,29.7964,25.50023,23.14557,18.91201,9.597447,21.05245,-5.804749,20.50849,65.47265,-100.9348,-178.0158
92,155,609,99,57,91,100,188,27.96329,23.15557,22.64326,18.26233,9.55829,20.49974,-5.153717,20.11006,65.95955,-101.0371,-177.809
95,155,653,111,58,92,99,222,25.94102,20.98105,21.55282,17.38492,9.048379,19.70786,-4.973877,19.57162,66.09924,-101.9618,-178.3965
85,148,659,113,57,93,96,207,25.94102,20.98105,21.55282,17.38492,9.048379,19.70786,-4.973877,19.57162,66.09924,-101.9618,-178.3965
81,130,628,108,51,80,84,206,25.94102,20.98105,21.55282,17.38492,9.048379,19.70786,-4.973877,19.57162,66.09924,-101.9618,-178.3965
79,134,565,105,53,82,79,209,24.71172,19.35907,20.7185,16.68402,8.723856,19.18727,-4.636963,19.08302,66.35844,-101.6511,-178.0007
84,132,551,101,51,83,59,193,24.71172,19.35907,20.7185,16.68402,8.723856,19.18727,-4.636963,19.08302,66.35844,-101.6511,-178.0007
83,127,706,109,54,75,52,150,23.80085,18.07727,20.14741,16.18728,8.52406,18.64828,-4.247345,18.3571,66.8306,-100.9213,-176.5617
80,142,810,142,69,118,105,151,23.80085,18.07727,20.14741,16.18728,8.52406,18.64828,-4.247345,18.3571,67.23788,-100.0946,-175.3522
79,148,801,146,70,130,114,156,23.29918,17.11044,19.73456,15.92634,8.37315,18.09171,-3.828705,17.68337,67.23788,-100.0946,-175.3522
79,140,770,142,72,133,129,161,23.29918,17.11044,19.73456,15.92634,8.37315,18.09171,-3.828705,17.68337,67.23788,-100.0946,-175.3522
68,143,792,170,80,133,136,160,25.84836,18.21215,20.12164,16.55067,8.324134,18.37365,-3.676819,17.39273,67.51682,-99.08286,-174.2079
72,161,636,164,80,133,139,128,25.84836,18.21215,20.12164,16.55067,8.324134,18.37365,-3.676819,17.39273,67.51682,-99.08286,-174.2079
68,150,498,136,70,100,127,132,25.84836,18.21215,20.12164,16.55067,8.324134,18.37365,-3.676819,17.39273,67.51682,-99.08286,-174.2079
67,139,473,131,66,88,146,139,30.804,20.22631,20.96688,17.48118,8.342804,18.90534,-3.639587,17.41507,68.0752,-98.427,-173.7231
65,134,450,123,61,87,136,119,35.49333,23.13047,21.96049,19.03902,8.432032,19.66125,-3.936462,17.63839,68.55339,-98.28931,-173.7509
65,150,383,85,48,84,131,110,35.49333,23.13047,21.96049,19.03902,8.432032,19.66125,-3.936462,17.63839,68.55339,-98.28931,-173.7509
59,132,367,70,39,83,128,106,45.77157,36.17386,24.48705,23.4383,9.486788,22.27932,-3.849976,18.65081,68.52,-97.8461,-174.5843
56,125,409,78,41,79,115,109,45.77157,36.17386,24.48705,23.4383,9.486788,22.27932,-3.849976,18.65081,68.52,-97.8461,-174.5843
56,126,451,79,41,93,101,100,45.77157,36.17386,24.48705,23.4383,9.486788,22.27932,-3.849976,18.65081,68.52,-97.8461,-174.5843
69,120,455,89,53,113,111,115,47.40105,46.49824,24.65172,24.90969,9.064593,22.61225,-4.372833,18.5668,67.05368,-95.59653,-174.1205
67,89,440,87,56,111,112,128,51.25693,58.96179,25.23504,26.08005,8.975132,22.87638,-4.400513,18.68527,66.05084,-94.46661,-173.2627
70,106,501,100,57,112,110,146,51.25693,58.96179,25.23504,26.08005,8.975132,22.87638,-4.400513,18.68527,66.05084,-94.46661,-173.2627
68,103,486,93,54,112,103,147,52.37701,67.50078,25.62812,26.55308,8.728665,22.72669,-4.82486,18.85355,65.2001,-93.73428,-173.3023
69,104,495,92,57,90,82,154,52.37701,67.50078,25.62812,26.55308,8.728665,22.72669,-4.82486,18.85355,65.2001,-93.73428,-173.3023
53,110,459,81,52,90,92,155,52.74754,74.77003,25.96059,27.51917,8.939623,22.82556,-4.749908,19.15228,64.42567,-93.97858,-173.5847
53,127,505,109,59,95,96,154,52.74754,74.77003,25.96059,27.51917,8.939623,22.82556,-4.749908,19.15228,64.42567,-93.97858,-173.5847
51,107,432,103,62,98,99,184,53.15916,78.53809,26.47865,27.17697,9.335856,22.41041,-5.155304,19.08616,63.87848,-93.84634,-173.7443
52,108,426,102,63,110,103,214,53.15916,78.53809,26.47865,27.17697,9.335856,22.41041,-5.155304,19.08616,63.87848,-93.84634,-173.7443
50,123,434,105,60,109,102,206,53.15916,78.53809,26.47865,27.17697,9.335856,22.41041,-5.155304,19.08616,63.87848,-93.84634,-173.7443
54,126,462,111,60,92,85,199,54.34438,85.03348,27.76167,27.25764,10.16809,21.97896,-5.524963,18.89641,63.40653,-93.07217,-173.3858
55,115,455,80,51,86,77,198,54.60362,88.30029,28.55029,26.68808,10.87395,21.47276,-5.936005,18.7068,62.83377,-93.15485,-174.0098
54,118,474,83,47,124,85,170,54.60362,88.30029,28.55029,26.68808,10.87395,21.47276,-5.936005,18.7068,62.83377,-93.15485,-174.0098
53,120,459,86,48,132,98,127,54.96066,90.06702,29.05235,26.17951,11.16292,21.04956,-6.509369,18.45778,62.36114,-93.32681,-174.5514
60,106,410,83,50,133,101,135,54.96066,90.06702,29.05235,26.17951,11.16292,21.04956,-6.509369,18.45778,62.36114,-93.32681,-174.5514
66,104,379,72,44,128,95,149,55.9753,92.18661,29.56501,25.67501,11.40219,20.79466,-6.955566,18.41105,62.10685,-93.8399,-175.1497
65,116,380,88,46,126,105,152,55.9753,92.18661,29.56501,25.67501,11.40219,20.79466,-6.955566,18.41105,62.10685,-93.8399,-175.1497
62,126,434,93,53,92,101,134,57.10469,93.94091,30.32407,25.8664,11.98777,21.06452,-7.040314,18.95601,62.08313,-93.82974,-175.4707
66,123,415,91,53,74,87,140,57.10469,93.94091,30.32407,25.8664,11.98777,21.06452,-7.040314,18.95601,62.08313,-93.82974,-175.4707
65,126,463,92,56,96,98,165,57.95877,94.70657,30.90885,25.74904,12.33524,21.23294,-7.227539,19.37197,61.37773,-94.08588,-175.9993
56,123,456,93,59,94,103,170,57.95877,94.70657,30.90885,25.74904,12.33524,21.23294,-7.227539,19.37197,61.3651,-94.69409,-176.1685
64,112,489,82,57,94,90,168,58.69511,94.80589,31.49219,25.4993,12.61954,21.27828,-7.681915,19.8189,61.3651,-94.69409,-176.1685
68,119,473,96,57,91,89,190,58.69511,94.80589,31.49219,25.4993,12.61954,21.27828,-7.681915,19.8189,61.3651,-94.69409,-176.1685
65,127,501,107,59,125,126,214,59.58678,94.67248,31.95623,25.66477,12.82942,21.57989,-8.008667,20.48028,61.34686,-94.94608,-176.3812
63,123,478,106,55,121,120,188,59.58678,94.67248,31.95623,25.66477,12.82942,21.57989,-8.008667,20.48028,61.60053,-95.27206,-176.7079
63,123,493,107,51,124,123,203,60.39636,94.62797,32.35469,25.91563,12.91557,22.09867,-8.300232,21.44422,61.60053,-95.27206,-176.7079
52,122,410,105,50,140,131,196,60.39636,94.62797,32.35469,25.91563,12.91557,22.09867,-8.300232,21.44422,61.60053,-95.27206,-176.7079
47,105,329,80,43,144,131,177,61.34663,94.54186,32.80458,26.08677,12.99171,22.66462,-8.612244,22.3481,61.60053,-95.27206,-176.7079
47,102,326,67,41,115,98,156,61.34663,94.54186,32.80458,26.08677,12.99171,22.66462,-8.612244,22.3481,61.60053,-95.27206,-176.7079
43,109,353,75,42,105,95,170,61.8807,94.30669,32.9791,25.77383,13.03313,22.9296,-8.747437,22.8193,61.94489,-95.00659,-177.0875
42,105,362,72,41,101,84,134,61.8807,94.30669,32.9791,25.77383,13.03313,22.9296,-8.747437,22.8193,61.94489,-95.00659,-177.0875
43,102,379,70,43,79,70,133,61.82202,94.25046,33.14695,25.93958,13.30936,23.40355,-8.57428,23.30296,62.38512,-94.48343,-177.0734
41,116,466,73,43,69,62,154,61.82202,94.25046,33.14695,25.93958,13.30936,23.40355,-8.57428,23.30296,62.38512,-94.48343,-177.0734
38,109,446,72,44,65,62,139,61.49689,94.35561,33.01812,25.56982,13.35735,23.38388,-8.301575,23.59764,62.88013,-94.57703,-177.4224
37,105,393,59,43,97,87,143,61.49689,94.35561,33.01812,25.56982,13.35735,23.38388,-8.301575,23.59764,62.88013,-94.57703,-177.4224
37,103,372,61,43,101,90,160,61.42557,94.42403,32.80856,25.12403,13.22872,23.20826,-8.243958,23.73685,62.95042,-93.89374,-176.8646
34,107,453,65,39,102,91,165,61.42557,94.42403,32.80856,25.12403,13.22872,23.20826,-8.243958,23.73685,62.95042,-93.89374,-176.8646
55,103,436,89,50,103,96,155,60.75274,94.51586,32.54372,24.91488,13.20838,23.04897,-8.02002,23.80404,63.40941,-93.716,-176.791
69,113,442,96,62,108,110,175,60.75274,94.51586,32.54372,24.91488,13.20838,23.04897,-8.02002,23.80404,63.40941,-93.716,-176.791
71,111,444,97,63,89,99,170,60.75274,94.51586,32.54372,24.91488,13.20838,23.04897,-8.02002,23.80404,63.40941,-93.716,-176.791
75,118,491,102,65,90,98,156,57.13028,94.05958,31.2238,24.66353,12.82244,22.9011,-7.682434,23.70267,63.53003,-93.23712,-176.5511
74,120,461,100,66,102,100,156,49.66469,79.9549,28.93473,24.12414,12.50899,23.43586,-7.610779,23.41694,63.40004,-92.79285,-176.3214
65,116,466,95,58,105,100,187,49.66469,79.9549,28.93473,24.12414,12.50899,23.43586,-7.610779,23.41694,63.40004,-92.79285,-176.3214
74,118,498,93,48,129,119,180,43.97061,59.31329,27.96793,23.22433,12.2559,23.64563,-7.4888,23.03766,63.84537,-93.10699,-176.3392
74,115,536,97,51,210,180,177,43.97061,59.31329,27.96793,23.22433,12.2559,23.64563,-7.4888,23.03766,63.84537,-93.10699,-176.3392
84,135,624,112,54,216,187,178,40.45069,49.6248,27.18714,23.13344,11.9502,23.83882,-7.24173,22.95414,63.84537,-93.10699,-176.3392
87,136,620,117,58,212,190,177,40.45069,49.6248,27.18714,23.13344,11.9502,23.83882,-7.24173,22.95414,63.84537,-93.10699,-176.3392
90,130,601,102,58,242,217,151,34.16835,35.65083,25.90462,21.21122,11.57536,23.2541,-7.132324,22.87392,64.82444,-92.71246,-175.2932
79,125,580,100,53,228,199,139,34.16835,35.65083,25.90462,21.21122,11.57536,23.2541,-7.132324,22.87392,64.82444,-92.71246,-175.2932
81,132,597,102,52,155,143,265,30.07811,30.1673,25.32221,20.3073,11.9061,22.94415,-6.297089,22.34645,65.76315,-92.90744,-174.6315
82,132,593,110,51,150,136,283,30.07811,30.1673,25.32221,20.3073,11.9061,22.94415,-6.297089,22.34645,65.76315,-92.90744,-174.6315
81,125,592,106,46,152,133,286,26.78129,26.50251,24.33153,19.2191,11.67392,22.20118,-5.819763,21.81345,66.07224,-92.77301,-173.9422
77,127,565,110,48,97,81,302,26.78129,26.50251,24.33153,19.2191,11.67392,22.20118,-5.819763,21.81345,66.07224,-92.77301,-173.9422
79,138,635,116,49,96,79,345,21.87669,23.88024,22.66574,18.66752,11.38098,21.36696,-5.430695,21.30469,66.46513,-91.99158,-172.6879
79,159,669,121,51,90,71,263,21.87669,23.88024,22.66574,18.66752,11.38098,21.36696,-5.430695,21.30469,66.46513,-91.99158,-172.6879
68,142,549,96,45,80,67,271,21.34262,22.42795,21.84596,18.04226,10.8329,20.7015,-5.374878,20.60051,66.55854,-90.87155,-171.3542
74,139,539,93,46,93,85,280,21.34262,22.42795,21.84596,18.04226,10.8329,20.7015,-5.374878,20.60051,66.55854,-90.87155,-171.3542
74,171,714,113,50,119,126,269,19.79625,20.60216,21.20729,17.47225,10.51396,19.88676,-5.323425,20.05446,66.98811,-89.57193,-169.491
67,170,722,120,50,119,133,273,19.79625,20.60216,21.20729,17.47225,10.51396,19.88676,-5.323425,20.05446,66.98811,-89.57193,-169.491
77,156,723,115,47,120,135,272,19.08766,19.11216,20.95315,16.9243,10.41099,19.21335,-5.244537,19.47591,67.38046,-88.48502,-168.1537
77,159,788,122,54,128,136,272,19.08766,19.11216,20.95315,16.9243,10.41099,19.21335,-5.244537,19.47591,67.38046,-88.48502,-168.1537
74,164,776,124,61,117,128,266,18.4443,17.80823,20.46873,16.14751,10.13837,18.36774,-5.076935,18.73199,67.4875,-87.55884,-167.0403
92,137,663,119,69,93,93,303,18.4443,17.80823,20.46873,16.14751,10.13837,18.36774,-5.076935,18.73199,67.4875,-87.55884,-167.0403
93,131,652,118,68,92,78,261,18.20284,16.98202,20.11374,15.74661,9.781169,17.79947,-5.245819,18.18914,67.66927,-86.96704,-166.3117
87,133,711,132,77,90,76,256,18.20284,16.98202,20.11374,15.74661,9.781169,17.79947,-5.245819,18.18914,67.66927,-86.96704,-166.3117
94,144,660,133,74,84,75,223,17.37783,16.68271,19.10289,15.70238,9.162824,17.45164,-5.158966,17.83156,68.0956,-86.56934,-165.9083
100,165,742,152,72,79,60,221,17.37783,16.68271,19.10289,15.70238,9.162824,17.45164,-5.158966,17.83156,68.41217,-85.73062,-165.6026
87,182,776,165,68,74,54,139,17.37783,16.68271,19.10289,15.70238,9.162824,17.45164,-5.158966,17.83156,68.41217,-85.73062,-165.6026
96,182,738,162,69,81,64,146,17.37783,16.68271,19.10289,15.70238,9.162824,17.45164,-5.158966,17.83156,68.41217,-85.73062,-165.6026
94,170,638,147,59,83,69,151,18.2964,16.86975,18.15541,15.86876,8.348784,17.45331,-4.996918,17.56217,68.41217,-85.73062,-165.6026
88,161,681,149,59,84,67,149,18.2964,16.86975,18.15541,15.86876,8.348784,17.45331,-4.996918,17.56217,68.90367,-85.58392,-165.6281
79,141,586,131,53,83,68,138,19.04645,17.09736,17.72326,16.18994,7.863463,17.56755,-5.021454,17.47581,68.90367,-85.58392,-165.6281
71,106,540,95,39,79,64,132,19.04645,17.09736,17.72326,16.18994,7.863463,17.56755,-5.021454,17.47581,68.90367,-85.58392,-165.6281
60,94,556,90,39,66,62,88,20.28159,17.61178,17.45709,16.5003,7.149343,17.6483,-5.588867,17.43968,69.44257,-85.54071,-165.6942
62,117,602,113,45,69,68,110,20.28159,17.61178,17.45709,16.5003,7.149343,17.6483,-5.588867,17.43968,69.44257,-85.54071,-165.6942
58,117,548,107,48,66,70,103,24.04218,19.54447,18.29051,17.73017,6.911887,18.40478,-6.010773,17.59119,69.9789,-85.2475,-165.7049
62,111,547,103,48,59,78,104,24.04218,19.54447,18.29051,17.73017,6.911887,18.40478,-6.010773,17.59119,69.9789,-85.2475,-165.7049
64,117,529,115,59,64,81,107,29.75238,21.41723,19.79405,18.55126,6.980241,19.1285,-6.220825,17.96317,69.9789,-85.2475,-165.7049
64,120,484,111,59,60,76,146,29.75238,21.41723,19.79405,18.55126,6.980241,19.1285,-6.220825,17.96317,69.9789,-85.2475,-165.7049
59,100,387,85,56,83,87,182,35.28899,23.68219,21.22927,19.61802,7.268777,19.88853,-6.257629,18.26171,70.47191,-84.51849,-165.6942
59,97,370,84,54,85,101,191,35.28899,23.68219,21.22927,19.61802,7.268777,19.88853,-6.257629,18.26171,70.47191,-84.51849,-165.6942
60,115,400,90,55,86,94,197,41.60564,32.00102,22.80098,22.75208,7.808693,21.73377,-6.167145,18.80146,70.38636,-83.98837,-165.9283
62,126,441,90,54,86,94,198,41.60564,32.00102,22.80098,22.75208,7.808693,21.73377,-6.167145,18.80146,70.38636,-83.98837,-165.9283
59,123,471,91,57,88,92,187,43.0449,40.92941,23.16031,25.26861,7.884654,22.93385,-6.194672,19.36675,69.04615,-84.07669,-167.1684
73,126,456,95,54,63,71,148,43.0449,40.92941,23.16031,25.26861,7.884654,22.93385,-6.194672,19.36675,69.04615,-84.07669,-167.1684
73,120,441,89,55,55,52,150,46.09655,52.81239,24.22726,27.29749,8.423681,23.77901,-6.317963,19.3806,68.12202,-85.83792,-169.7571
70,116,503,94,58,57,54,145,46.09655,52.81239,24.22726,27.29749,8.423681,23.77901,-6.317963,19.3806,67.43321,-85.29233,-169.3236
69,105,504,85,49,50,54,169,49.31343,63.61392,24.83117,27.96138,8.500365,23.81621,-6.364777,19.24911,67.43321,-85.29233,-169.3236
79,111,542,111,47,55,57,165,49.31343,63.61392,24.83117,27.96138,8.500365,23.81621,-6.364777,19.24911,67.43321,-85.29233,-169.3236
64,115,553,112,45,59,70,163,50.66813,72.17362,25.63989,28.81487,8.902767,23.78008,-5.891113,19.44388,67.43321,-85.29233,-169.3236
67,115,574,116,44,82,86,174,51.11668,76.44943,25.79806,28.78591,9.057297,23.50284,-5.717407,19.63581,67.08764,-84.78052,-169.2271
64,110,519,113,39,81,85,173,51.11668,76.44943,25.79806,28.78591,9.057297,23.50284,-5.717407,19.63581,67.08764,-84.78052,-169.2271
67,113,473,116,44,85,86,157,51.11668,76.44943,25.79806,28.78591,9.057297,23.50284,-5.717407,19.63581,67.08764,-84.78052,-169.2271
60,146,516,113,55,84,91,169,52.65252,81.75694,26.38082,28.84462,9.148746,23.04856,-5.758057,19.4584,67.1081,-84.89816,-170.1523
60,141,504,111,57,79,84,157,53.31186,85.93938,26.80146,28.58318,9.619774,22.5221,-5.462341,19.21467,67.13594,-85.49359,-170.9906
57,144,492,110,62,61,70,148,53.31186,85.93938,26.80146,28.58318,9.619774,22.5221,-5.462341,19.21467,67.13594,-85.49359,-170.9906
56,137,479,103,60,59,74,198,53.31186,85.93938,26.80146,28.58318,9.619774,22.5221,-5.462341,19.21467,67.13594,-85.49359,-170.9906
49,132,488,95,57,58,83,199,53.31186,85.93938,26.80146,28.58318,9.619774,22.5221,-5.462341,19.21467,67.13594,-85.49359,-170.9906
66,92,373,66,45,54,80,187,54.87185,90.67229,28.49293,28.05739,11.05064,21.91654,-5.236206,18.84962,66.24967,-86.57922,-172.1823
65,99,388,65,45,53,91,202,54.87185,90.67229,28.49293,28.05739,11.05064,21.91654,-5.236206,18.84962,66.24967,-86.57922,-172.1823
68,109,492,77,47,49,95,231,54.87185,90.67229,28.49293,28.05739,11.05064,21.91654,-5.236206,18.84962,66.24967,-86.57922,-172.1823
70,116,536,85,48,51,92,205,54.87185,90.67229,28.49293,28.05739,11.05064,21.91654,-5.236206,18.84962,66.24967,-86.57922,-172.1823
74,119,531,85,48,46,79,211,56.54771,91.31382,30.31674,28.09726,12.67004,21.91492,-4.807465,18.75487,65.80846,-86.78015,-172.4444
54,115,534,83,49,107,110,203,56.88137,92.24675,31.03375,27.64341,13.59343,21.71102,-4.321564,18.78063,65.6478,-86.84305,-172.3803
58,110,542,83,46,110,106,191,57.02138,93.36795,31.38848,27.25541,13.91929,21.31506,-4.106262,18.77477,65.5597,-86.1749,-171.7205
57,102,455,68,37,109,103,146,57.02138,93.36795,31.38848,27.25541,13.91929,21.31506,-4.106262,18.77477,65.5597,-86.1749,-171.7205
54,102,405,62,39,110,105,130,57.02138,93.36795,31.38848,27.25541,13.91929,21.31506,-4.106262,18.77477,65.5597,-86.1749,-171.7205
46,101,494,70,41,113,112,116,58.16827,93.92649,32.05815,27.05347,14.47026,21.34389,-3.839813,18.88105,65.24374,-86.66214,-172.6374
58,97,470,76,41,60,79,132,58.16827,93.92649,32.05815,27.05347,14.47026,21.34389,-3.839813,18.88105,65.24374,-86.66214,-172.6374
60,103,457,75,43,56,72,147,58.60757,94.1371,32.46954,26.8424,14.7246,21.26371,-3.991882,19.02744,64.93159,-87.51025,-173.4249
56,107,462,74,43,57,66,139,58.60757,94.1371,32.46954,26.8424,14.7246,21.26371,-3.991882,19.02744,64.93159,-87.51025,-173.4249
56,98,442,68,42,53,63,136,58.60757,94.1371,32.46954,26.8424,14.7246,21.26371,-3.991882,19.02744,64.93159,-87.51025,-173.4249
57,96,313,59,43,66,68,155,59.20395,94.19973,32.80814,26.55098,14.74436,21.12869,-4.31424,19.11574,65.2336,-88.2594,-174.057
50,96,321,53,45,76,79,153,60.21738,94.17005,33.58426,26.63655,15.14139,21.20737,-4.45224,19.3617,65.2336,-88.2594,-174.057
48,93,323,58,46,76,80,162,60.24139,94.19637,33.58747,26.5813,15.14526,21.21511,-4.453613,19.42609,65.2336,-88.2594,-174.057
50,83,312,56,45,85,81,176,60.24139,94.19637,33.58747,26.5813,15.14526,21.21511,-4.453613,19.42609,65.2336,-88.2594,-174.057
56,92,301,58,43,120,103,185,60.24139,94.19637,33.58747,26.5813,15.14526,21.21511,-4.453613,19.42609,65.2336,-88.2594,-174.057
56,90,268,56,47,114,92,172,60.11245,94.41366,33.61107,26.05654,15.31368,21.1224,-4.073792,19.9469,65.02032,-89.19769,-175.3727
51,94,240,52,42,106,81,159,60.11245,94.41366,33.61107,26.05654,15.31368,21.1224,-4.073792,19.9469,65.02032,-89.19769,-175.3727
51,110,216,47,40,106,80,160,58.98321,94.57542,33.2031,25.98382,15.17422,21.19989,-3.859497,20.13174,64.30074,-90.65598,-176.8546
63,113,192,48,39,101,78,165,57.55756,94.83625,32.73207,25.90141,15.03168,21.15803,-3.914368,20.16571,64.16275,-91.08044,-177.0482
63,109,182,47,39,57,46,153,57.55756,94.83625,32.73207,25.90141,15.03168,21.15803,-3.914368,20.16571,64.16275,-91.08044,-177.0482
72,114,174,58,44,96,76,242,57.55756,94.83625,32.73207,25.90141,15.03168,21.15803,-3.914368,20.16571,64.16275,-91.08044,-177.0482
75,115,200,69,47,101,77,254,47.90802,86.79031,29.93527,26.28187,14.91126,22.00425,-3.823486,20.6474,63.77089,-91.42612,-176.8924
78,109,291,76,52,150,139,240,47.90802,86.79031,29.93527,26.28187,14.91126,22.00425,-3.823486,20.6474,63.77089,-91.42612,-176.8924
78,131,420,108,63,161,147,236,41.44596,71.5397,29.1571,26.7926,15.83198,23.18666,-3.123077,21.03404,63.56889,-91.89108,-176.9458
79,137,432,109,62,162,152,253,41.44596,71.5397,29.1571,26.7926,15.83198,23.18666,-3.123077,21.03404,63.56889,-91.89108,-176.9458
79,141,487,110,57,143,143,221,33.77422,47.30627,28.432,24.57799,16.07353,23.21262,-3.238007,21.82211,62.96675,-93.35455,-177.7793
94,151,503,108,60,156,150,249,33.77422,47.30627,28.432,24.57799,16.07353,23.21262,-3.238007,21.82211,62.96675,-93.35455,-177.7793
93,153,494,107,56,129,116,270,33.77422,47.30627,28.432,24.57799,16.07353,23.21262,-3.238007,21.82211,62.96675,-93.35455,-177.7793
90,133,429,80,48,120,110,281,33.77422,47.30627,28.432,24.57799,16.07353,23.21262,-3.238007,21.82211,62.96675,-93.35455,-177.7793
90,133,454,83,47,121,103,274,24.96362,27.22465,27.67533,20.62378,16.11862,22.07993,-3.478973,22.31203,63.72596,-94.4176,-177.1496
91,131,409,73,43,119,101,253,24.96362,27.22465,27.67533,20.62378,16.11862,22.07993,-3.478973,22.31203,64.60254,-95.28879,-175.6566
110,128,557,79,41,113,92,274,20.05256,24.65186,26.12268,20.28563,15.60345,21.56563,-3.94043,22.20886,64.60254,-95.28879,-175.6566
112,136,592,111,47,95,65,252,20.05256,24.65186,26.12268,20.28563,15.60345,21.56563,-3.94043,22.20886,64.60254,-95.28879,-175.6566
116,145,580,115,42,88,56,239,17.12802,22.56746,25.34736,20.1663,15.37387,21.20058,-4.481628,21.97942,64.60254,-95.28879,-175.6566
115,139,563,115,45,83,56,233,17.12802,22.56746,25.34736,20.1663,15.37387,21.20058,-4.481628,21.97942,64.60254,-95.28879,-175.6566
110,137,631,122,46,88,60,222,15.3943,21.10308,24.61558,19.83471,14.97333,20.69427,-4.696472,21.47103,64.65666,-95.55759,-174.8464
91,152,559,128,46,75,63,233,15.3943,21.10308,24.61558,19.83471,14.97333,20.69427,-4.696472,21.47103,64.65666,-95.55759,-174.8464
88,139,509,105,40,70,67,257,12.59592,19.73655,23.34946,19.8889,14.45181,20.21495,-4.63446,21.06931,64.65666,-95.55759,-174.8464
77,130,526,100,41,72,66,263,12.59592,19.73655,23.34946,19.8889,14.45181,20.21495,-4.63446,21.06931,64.65666,-95.55759,-174.8464
75,138,557,104,41,77,67,274,12.2004,19.02514,22.64822,19.86998,13.90733,19.93318,-4.587067,20.72667,64.43931,-94.97324,-173.6402
87,136,505,108,47,69,60,305,12.2004,19.02514,22.64822,19.86998,13.90733,19.93318,-4.587067,20.72667,64.43931,-94.97324,-173.6402
71,116,525,105,51,120,106,257,11.64996,18.3611,21.4228,19.25698,13.18608,19.62969,-4.485748,20.38255,64.50539,-95.6586,-174.2161
75,116,553,113,61,130,112,241,10.99679,17.83147,20.63286,19.11349,12.61671,19.28662,-4.442108,20.2147,64.70983,-94.94849,-173.5561
73,117,528,110,62,131,114,241,10.99679,17.83147,20.63286,19.11349,12.61671,19.28662,-4.442108,20.2147,64.70983,-94.94849,-173.5561
83,139,602,129,67,130,113,236,10.99679,17.83147,20.63286,19.11349,12.61671,19.28662,-4.442108,20.2147,64.70983,-94.94849,-173.5561
95,166,661,136,64,132,115,190,10.66221,17.41647,19.22154,18.42448,11.73262,18.72289,-3.897003,19.88539,65.02225,-94.24277,-172.8552
98,194,750,155,62,128,89,181,11.06646,17.18947,18.1983,17.91028,11.0781,18.29421,-3.400818,19.46653,65.02225,-94.24277,-172.8552
93,198,740,146,53,116,76,175,11.06646,17.18947,18.1983,17.91028,11.0781,18.29421,-3.400818,19.46653,65.02225,-94.24277,-172.8552
96,201,759,148,52,116,73,154,11.06646,17.18947,18.1983,17.91028,11.0781,18.29421,-3.400818,19.46653,65.02225,-94.24277,-172.8552
90,198,767,150,49,115,73,144,11.5024,17.01317,17.95044,17.78727,10.7293,17.92096,-3.263824,19.02471,65.40771,-93.87946,-172.6168
65,181,720,151,56,112,69,128,13.51933,17.68667,17.34804,17.75062,9.893984,17.8013,-3.126648,18.74116,65.5376,-93.78561,-172.1732
55,156,594,131,53,57,63,109,13.51933,17.68667,17.34804,17.75062,9.893984,17.8013,-3.126648,18.74116,65.5376,-93.78561,-172.1732
57,150,617,133,52,49,74,152,13.51933,17.68667,17.34804,17.75062,9.893984,17.8013,-3.126648,18.74116,65.5376,-93.78561,-172.1732
67,149,600,129,51,64,75,176,19.01964,19.71831,17.88212,18.02269,9.252707,18.13368,-3.150177,18.67315,66.05379,-93.57117,-171.7731
63,122,480,104,52,63,79,179,19.01964,19.71831,17.88212,18.02269,9.252707,18.13368,-3.150177,18.67315,66.05379,-93.57117,-171.7731
61,112,463,88,49,67,83,175,28.86638,22.33819,20.75399,18.90052,9.492516,18.85722,-3.477448,18.81114,66.92628,-93.30106,-171.4149
66,111,515,117,59,68,69,183,28.86638,22.33819,20.75399,18.90052,9.492516,18.85722,-3.477448,18.81114,66.92628,-93.30106,-171.4149
64,108,478,118,60,71,59,147,33.09501,24.36926,21.78883,20.00861,9.518375,19.60085,-3.567871,19.11389,67.59515,-91.43823,-170.625
62,102,474,122,61,55,61,174,35.79406,26.48152,22.64009,21.11382,9.605404,20.28616,-3.925781,19.4089,67.75372,-90.53107,-170.7254
68,110,481,129,62,58,68,176,35.79406,26.48152,22.64009,21.11382,9.605404,20.28616,-3.925781,19.4089,67.75372,-90.53107,-170.7254
68,107,452,127,59,57,67,178,35.79406,26.48152,22.64009,21.11382,9.605404,20.28616,-3.925781,19.4089,67.75372,-90.53107,-170.7254
65,89,304,90,51,56,74,183,39.22567,32.7254,23.11376,23.42709,9.524149,21.65055,-4.232849,20.06444,67.35716,-89.84119,-170.7573
67,86,285,82,53,57,73,179,39.22567,32.7254,23.11376,23.42709,9.524149,21.65055,-4.232849,20.06444,67.35716,-89.84119,-170.7573
60,124,492,121,57,56,69,134,41.48098,41.11749,23.27822,26.25756,9.20514,23.25428,-4.492767,20.94527,66.92672,-89.72382,-171.5138
62,138,497,122,57,55,65,157,41.86845,44.75771,23.02357,27.1869,9.029746,24.07316,-4.579346,21.26092,66.23179,-90.36917,-172.8577
59,141,501,118,54,49,68,177,41.86845,44.75771,23.02357,27.1869,9.029746,24.07316,-4.579346,21.26092,66.23179,-90.36917,-172.8577
66,153,522,124,60,52,63,188,41.86845,44.75771,23.02357,27.1869,9.029746,24.07316,-4.579346,21.26092,66.23179,-90.36917,-172.8577
67,159,542,132,63,52,63,186,43.79581,55.1669,23.52378,28.96076,9.252834,24.86293,-4.290833,21.4218,65.87279,-89.89899,-172.4828
89,170,495,147,80,66,68,184,43.79581,55.1669,23.52378,28.96076,9.252834,24.86293,-4.290833,21.4218,65.87279,-89.89899,-172.4828
90,164,495,149,78,73,61,211,44.92803,67.92831,23.80597,30.89277,9.447217,25.47056,-3.99057,21.62877,65.67849,-89.48715,-172.1728
91,161,497,149,78,79,58,221,44.92803,67.92831,23.80597,30.89277,9.447217,25.47056,-3.99057,21.62877,65.67849,-89.48715,-172.1728
87,155,484,151,73,77,52,212,44.66483,73.20736,23.88165,31.05185,9.542515,25.29799,-4.052185,21.68511,65.08511,-89.6778,-172.5537
89,149,444,150,72,81,76,225,44.66483,73.20736,23.88165,31.05185,9.542515,25.29799,-4.052185,21.68511,65.08511,-89.6778,-172.5537
71,125,456,132,58,75,74,223,46.09488,82.48985,24.41272,31.80807,9.80729,25.21043,-3.981445,21.70813,64.86387,-89.50793,-172.584
60,108,459,124,58,64,76,185,47.19568,87.74401,24.81834,31.48635,9.827736,24.37728,-4.239594,21.32956,64.66191,-89.93277,-173.2688
60,112,471,126,60,73,90,171,47.19568,87.74401,24.81834,31.48635,9.827736,24.37728,-4.239594,21.32956,64.66191,-89.93277,-173.2688
74,109,483,117,57,106,111,168,47.19568,87.74401,24.81834,31.48635,9.827736,24.37728,-4.239594,21.32956,64.19303,-89.96362,-173.4665
70,109,500,112,54,109,102,165,47.81522,90.26214,25.48991,31.05232,10.41442,23.88042,-4.099182,20.98894,64.19303,-89.96362,-173.4665
64,81,361,64,41,106,104,164,47.81522,90.26214,25.48991,31.05232,10.41442,23.88042,-4.099182,20.98894,64.19303,-89.96362,-173.4665
71,102,433,90,45,110,108,171,49.80139,92.2828,26.39722,30.21855,10.78325,23.02232,-4.256012,20.47846,63.93778,-89.992,-173.3941
75,108,502,104,50,103,97,201,49.80139,92.2828,26.39722,30.21855,10.78325,23.02232,-4.256012,20.47846,63.93778,-89.992,-173.3941
63,104,498,109,54,66,78,231,49.80139,92.2828,26.39722,30.21855,10.78325,23.02232,-4.256012,20.47846,63.93778,-89.992,-173.3941
62,103,509,109,54,77,89,257,49.80139,92.2828,26.39722,30.21855,10.78325,23.02232,-4.256012,20.47846,63.93778,-89.992,-173.3941
66,107,520,118,56,80,89,268,53.14455,95.22684,28.30773,29.36201,11.56932,22.25544,-5.169342,20.08307,63.86704,-90.04666,-173.3977
64,98,480,99,55,76,97,279,54.9915,95.51393,29.32014,29.05189,12.13566,22.25062,-5.275146,20.1992,63.54853,-90.44626,-173.6075
63,101,461,99,51,79,103,261,54.9915,95.51393,29.32014,29.05189,12.13566,22.25062,-5.275146,20.1992,63.54853,-90.44626,-173.6075
93,125,558,117,51,92,105,257,54.9915,95.51393,29.32014,29.05189,12.13566,22.25062,-5.275146,20.1992,63.54853,-90.44626,-173.6075
97,126,535,122,63,76,98,224,57.1198,95.50023,30.33088,28.81316,12.70817,22.3885,-5.389038,20.41315,63.30658,-90.58765,-173.7457
95,130,541,114,61,72,97,262,57.1198,95.50023,30.33088,28.81316,12.70817,22.3885,-5.389038,20.41315,63.30658,-90.58765,-173.7457
93,135,518,114,58,77,85,246,57.1198,95.50023,30.33088,28.81316,12.70817,22.3885,-5.389038,20.41315,63.30658,-90.58765,-173.7457
95,129,468,105,57,72,79,231,57.1198,95.50023,30.33088,28.81316,12.70817,22.3885,-5.389038,20.41315,63.30658,-90.58765,-173.7457
71,110,352,79,55,54,75,202,58.46939,95.63071,31.21899,28.63037,13.42604,22.91157,-5.209412,21.2325,63.37975,-90.95758,-173.9451
64,118,438,77,50,53,64,199,59.04888,95.63666,31.69699,28.79217,13.72652,23.386,-5.344208,21.78959,63.37975,-90.95758,-173.9451
64,125,471,87,52,69,69,129,59.04888,95.63666,31.69699,28.79217,13.72652,23.386,-5.344208,21.78959,63.37975,-90.95758,-173.9451
65,119,472,86,55,81,88,116,59.04888,95.63666,31.69699,28.79217,13.72652,23.386,-5.344208,21.78959,63.37975,-90.95758,-173.9451
72,122,467,82,58,110,110,130,59.39545,95.6694,32.08957,28.63364,14.03431,23.6578,-5.523743,22.30392,62.82964,-91.17355,-174.5943
63,122,457,79,58,115,112,120,59.39545,95.6694,32.08957,28.63364,14.03431,23.6578,-5.523743,22.30392,62.82964,-91.17355,-174.5943
64,118,427,91,55,118,113,145,59.75242,95.57093,32.40126,28.69845,14.19356,24.02243,-5.614716,22.76992,62.82964,-91.17355,-174.5943
63,101,373,90,58,114,119,177,59.75242,95.57093,32.40126,28.69845,14.19356,24.02243,-5.614716,22.76992,62.82964,-91.17355,-174.5943
76,96,371,86,53,104,103,175,59.55439,95.75864,32.28399,28.46815,14.17336,24.25685,-5.488556,23.18919,62.82964,-91.17355,-174.5943
63,95,369,91,50,95,82,179,59.55439,95.75864,32.28399,28.46815,14.17336,24.25685,-5.488556,23.18919,62.82964,-91.17355,-174.5943
65,96,404,94,53,90,85,187,59.12499,95.80883,32.01622,28.39992,14.01506,24.37522,-5.641388,23.36976,62.48015,-91.72537,-174.8652
71,124,448,127,63,87,82,170,59.12499,95.80883,32.01622,28.39992,14.01506,24.37522,-5.641388,23.36976,62.48015,-91.72537,-174.8652
68,130,433,126,60,82,64,147,58.90306,95.92039,31.99387,28.46774,13.88897,24.48319,-5.889038,23.50655,62.48015,-91.72537,-174.8652
62,127,423,125,61,119,88,201,58.57938,96.02924,31.86568,28.44888,13.88785,24.62861,-5.900208,23.75004,62.77,-92.44089,-175.6029
61,122,427,123,60,106,92,201,58.57938,96.02924,31.86568,28.44888,13.88785,24.62861,-5.900208,23.75004,62.77,-92.44089,-175.6029
61,132,408,128,60,107,87,200,58.57938,96.02924,31.86568,28.44888,13.88785,24.62861,-5.900208,23.75004,62.77,-92.44089,-175.6029
56,115,313,82,41,104,88,222,58.23595,96.28558,31.60264,28.60697,13.71943,24.74117,-6.227051,23.97565,62.74262,-92.23477,-175.1209
60,114,361,77,38,105,89,226,58.23595,96.28558,31.60264,28.60697,13.71943,24.74117,-6.227051,23.97565,62.74262,-92.23477,-175.1209
62,141,415,106,47,62,73,189,58.06091,96.44392,31.69991,28.74713,13.79146,24.90962,-6.28772,24.2688,62.75597,-92.91888,-175.7958
66,145,414,108,46,59,61,181,58.14834,96.45988,31.8817,28.73472,13.96381,25.07069,-6.212311,24.43604,62.78453,-92.87665,-175.7701
70,137,396,97,44,69,63,187,58.14834,96.45988,31.8817,28.73472,13.96381,25.07069,-6.212311,24.43604,62.78453,-92.87665,-175.7701
74,132,380,93,46,90,67,170,58.17072,96.47314,31.91978,28.74341,14.03084,25.08731,-6.137421,24.46423,62.92523,-92.87689,-175.64
77,129,328,94,51,91,71,191,58.23479,96.51112,32.02889,28.76829,14.22302,25.13491,-5.922577,24.54498,62.92523,-92.87689,-175.64
68,105,235,60,42,96,66,196,58.23479,96.51112,32.02889,28.76829,14.22302,25.13491,-5.922577,24.54498,62.92523,-92.87689,-175.64
66,102,204,56,44,97,65,198,58.61745,96.58336,32.23931,28.65397,14.38857,25.03848,-5.609894,24.54029,62.90991,-92.79468,-175.5115
69,99,212,57,46,89,57,213,58.61745,96.58336,32.23931,28.65397,14.38857,25.03848,-5.609894,24.54029,62.90991,-92.79468,-175.5115
67,94,187,54,47,68,50,207,58.53141,96.57654,32.34849,28.42314,14.54617,24.96244,-5.340576,24.47959,62.86309,-92.69952,-175.335
60,92,200,48,42,70,49,174,58.53141,96.57654,32.34849,28.42314,14.54617,24.96244,-5.340576,24.47959,62.86309,-92.69952,-175.335
66,87,209,48,42,108,70,262,57.38752,96.2272,31.89174,27.94457,14.44316,24.75169,-5.217896,24.28679,62.57393,-92.4389,-174.7558
74,107,314,64,47,105,72,286,51.1641,83.43547,30.36506,27.26742,14.39989,25.39314,-5.411713,24.44489,62.74501,-92.1369,-173.817
66,105,308,65,51,106,73,275,51.1641,83.43547,30.36506,27.26742,14.39989,25.39314,-5.411713,24.44489,62.74501,-92.1369,-173.817
81,110,342,75,55,108,80,275,51.1641,83.43547,30.36506,27.26742,14.39989,25.39314,-5.411713,24.44489,62.74501,-92.1369,-173.817
86,119,385,76,55,131,91,278,50.2713,74.13918,30.07085,26.33994,14.20668,25.35453,-5.383667,23.9283,63.32433,-92.06104,-173.2726
87,122,442,75,53,94,75,183,50.2713,74.13918,30.07085,26.33994,14.20668,25.35453,-5.383667,23.9283,63.32433,-92.06104,-173.2726
94,114,453,63,49,105,98,160,46.21582,62.29771,29.12707,25.008,13.95978,24.85796,-5.170288,23.45833,63.36192,-92.48676,-173.2701
99,126,494,71,48,103,97,184,41.70647,47.3795,28.15023,23.33345,13.45113,24.22516,-5.297577,23.11714,63.4827,-92.85049,-172.941
122,159,592,101,52,123,104,196,41.70647,47.3795,28.15023,23.33345,13.45113,24.22516,-5.297577,23.11714,63.4827,-92.85049,-172.941
123,158,591,108,53,107,94,248,41.70647,47.3795,28.15023,23.33345,13.45113,24.22516,-5.297577,23.11714,63.4827,-92.85049,-172.941
126,153,558,108,56,112,97,285,38.20493,39.86695,27.47729,22.86286,13.22777,23.90691,-4.778717,23.0722,63.90451,-93.56418,-172.7285
123,147,511,110,58,111,78,326,38.20493,39.86695,27.47729,22.86286,13.22777,23.90691,-4.778717,23.0722,63.90451,-93.56418,-172.7285
123,144,547,118,58,111,79,310,33.11129,31.57983,26.57162,21.35906,13.02698,23.24309,-4.369995,22.62343,63.90922,-94.72711,-173.1452
88,97,442,88,47,86,65,313,33.11129,31.57983,26.57162,21.35906,13.02698,23.24309,-4.369995,22.62343,63.90922,-94.72711,-173.1452
83,89,444,78,47,78,61,282,28.73363,26.88357,25.47735,20.19171,12.96964,22.51739,-3.29245,22.02465,64.40485,-95.27518,-172.6848
74,100,454,78,50,70,57,251,21.23393,21.76763,23.36598,18.62462,12.61364,20.93387,-3.082672,21.30445,65.1216,-95.63354,-172.2052
63,100,478,77,48,100,68,178,20.81767,21.25337,23.28522,18.5165,12.61535,20.76337,-3.035553,21.17489,65.1216,-95.63354,-172.2052
68,97,428,69,46,129,115,180,19.55577,19.69181,23.04225,18.19088,12.62051,20.24909,-2.893829,20.78448,65.36903,-96.35358,-172.2063
66,101,445,77,50,133,118,164,18.70851,18.64254,22.87987,17.97316,12.62396,19.90485,-2.799194,20.52334,65.32876,-96.51251,-172.2646
72,132,503,133,66,130,120,171,18.18534,17.59095,22.61492,17.52642,12.67407,19.38322,-2.320496,19.92628,65.22257,-96.92889,-172.4164
82,142,530,145,66,178,158,213,18.18534,17.59095,22.61492,17.52642,12.67407,19.38322,-2.320496,19.92628,65.22257,-96.92889,-172.4164
84,142,531,156,69,179,168,282,18.18534,17.59095,22.61492,17.52642,12.67407,19.38322,-2.320496,19.92628,65.22257,-96.92889,-172.4164
77,140,549,153,67,166,146,285,17.45443,16.37151,22.2912,17.04553,12.6251,18.67138,-1.965759,19.19376,65.15354,-96.44397,-171.7785
86,141,632,156,65,164,144,296,17.45443,16.37151,22.2912,17.04553,12.6251,18.67138,-1.965759,19.19376,65.15354,-96.44397,-171.7785
79,118,682,126,53,167,144,303,17.45443,16.37151,22.2912,17.04553,12.6251,18.67138,-1.965759,19.19376,65.15354,-96.44397,-171.7785
72,103,706,131,53,120,107,285,17.45443,16.37151,22.2912,17.04553,12.6251,18.67138,-1.965759,19.19376,65.15354,-96.44397,-171.7785
73,114,773,155,70,162,147,220,17.61412,14.97419,21.39811,16.29125,12.13818,17.70018,-1.188354,17.9364,65.34135,-95.9007,-171.3017
73,115,779,160,76,177,172,211,17.6326,14.56121,20.26929,15.72288,11.2701,17.11946,-1.222107,17.37667,66.17516,-94.26788,-170.0412
62,119,701,155,77,180,174,202,17.6326,14.56121,20.26929,15.72288,11.2701,17.11946,-1.222107,17.37667,66.17516,-94.26788,-170.0412
59,111,606,144,74,181,176,165,17.6326,14.56121,20.26929,15.72288,11.2701,17.11946,-1.222107,17.37667,66.17516,-94.26788,-170.0412
61,114,643,149,77,177,175,130,17.7482,14.20787,17.86527,14.23399,9.799513,16.6361,-1.494263,16.76077,66.96464,-93.3855,-169.6508
56,106,624,131,62,132,175,114,18.32292,13.87655,15.34409,13.16472,7.344447,16.00841,-2.725281,16.54433,69.64345,-91.27914,-168.4348
59,121,621,162,63,110,150,149,18.32292,13.87655,15.34409,13.16472,7.344447,16.00841,-2.725281,16.54433,69.64345,-91.27914,-168.4348
70,144,732,197,73,107,149,133,18.32292,13.87655,15.34409,13.16472,7.344447,16.00841,-2.725281,16.54433,69.64345,-91.27914,-168.4348
72,149,719,200,73,102,149,142,25.54895,17.11327,16.7805,15.41124,6.477844,17.30143,-4.316528,16.88521,73.49688,-85.38495,-163.311
66,144,647,186,66,103,151,143,25.54895,17.11327,16.7805,15.41124,6.477844,17.30143,-4.316528,16.88521,73.49688,-85.38495,-163.311
65,140,587,172,63,77,110,155,31.79969,19.49159,17.90495,16.46956,4.800128,18.09293,-8.203613,16.60734,75.22563,-80.29358,-158.7652
59,139,607,155,60,84,125,149,40.95846,26.14329,19.89121,18.72133,2.648998,19.68817,-14.75085,16.69949,77.31403,-72.40436,-151.8355
44,114,529,121,49,110,128,148,40.95846,26.14329,19.89121,18.72133,2.648998,19.68817,-14.75085,16.69949,77.31403,-72.40436,-151.8355
41,119,548,116,51,113,129,136,40.95846,26.14329,19.89121,18.72133,2.648998,19.68817,-14.75085,16.69949,78.6806,-63.61099,-144.1837
44,134,548,122,51,112,141,140,45.62018,38.17163,21.31048,24.46023,0.1829853,23.27075,-21.65167,16.97588,78.6806,-63.61099,-144.1837
53,141,605,144,70,148,162,136,45.62018,38.17163,21.31048,24.46023,0.1829853,23.27075,-21.65167,16.97588,78.6806,-63.61099,-144.1837
55,136,610,136,73,153,165,125,48.61354,49.44426,21.09292,26.59233,-0.31427,24.43106,-21.97333,16.57551,78.6806,-63.61099,-144.1837
59,143,772,139,77,137,164,124,53.56641,61.4473,21.11551,28.50196,-0.7485962,25.65926,-21.77502,17.12443,78.52592,-60.57889,-143.2135
60,137,765,140,81,167,182,129,53.56641,61.4473,21.11551,28.50196,-0.7485962,25.65926,-21.77502,17.12443,78.52592,-60.57889,-143.2135
62,127,816,151,94,179,191,122,53.56641,61.4473,21.11551,28.50196,-0.7485962,25.65926,-21.77502,17.12443,79.11132,-57.0415,-139.9911
60,141,817,142,85,186,191,121,54.83437,64.92926,20.85399,28.83813,-0.9656372,25.86741,-21.09219,17.11456,79.11132,-57.0415,-139.9911
58,140,782,139,78,177,181,110,54.83437,64.92926,20.85399,28.83813,-0.9656372,25.86741,-21.09219,17.11456,79.11132,-57.0415,-139.9911
61,143,617,143,78,176,180,116,54.83437,64.92926,20.85399,28.83813,-0.9656372,25.86741,-21.09219,17.11456,79.11132,-57.0415,-139.9911
64,153,635,160,76,149,162,112,54.83437,64.92926,20.85399,28.83813,-0.9656372,25.86741,-21.09219,17.11456,79.11132,-57.0415,-139.9911
66,166,590,160,60,164,156,123,57.68558,79.63815,22.09599,29.17856,3.12902,23.9871,-11.0954,15.55777,80.04279,-46.82324,-130.2575
61,145,537,147,51,131,118,114,58.31876,82.12483,23.06056,28.73187,4.448087,22.9903,-9.09491,14.91486,79.32864,-11.03555,-96.53665
66,138,529,143,55,126,114,112,58.31876,82.12483,23.06056,28.73187,4.448087,22.9903,-9.09491,14.91486,79.32864,-11.03555,-96.53665
62,125,584,131,48,142,137,106,58.9835,84.38268,23.70417,28.26566,5.074022,22.03003,-8.0755,14.45977,78.19821,-2.003601,-88.23889
59,112,559,113,48,138,139,106,58.9835,84.38268,23.70417,28.26566,5.074022,22.03003,-8.0755,14.45977,76.87002,2.417338,-84.31146
59,111,551,116,59,130,138,94,59.49423,85.52998,24.28562,28.16598,5.666355,21.55547,-7.160553,14.45447,76.87002,2.417338,-84.31146
58,109,538,118,62,130,151,88,59.49423,85.52998,24.28562,28.16598,5.666355,21.55547,-7.160553,14.45447,76.87002,2.417338,-84.31146
56,123,601,129,70,155,167,68,59.49423,85.52998,24.28562,28.16598,5.666355,21.55547,-7.160553,14.45447,76.87002,2.417338,-84.31146
54,120,538,122,70,152,155,58,60.22697,87.22154,25.0378,27.82788,6.087003,21.00291,-6.723419,14.64364,75.302,5.992384,-81.33774
52,116,529,130,74,164,156,53,61.45823,87.88302,25.86167,27.20818,6.505975,20.37334,-6.650116,14.32511,74.04301,8.142781,-79.65134
46,98,535,117,70,176,172,42,61.45823,87.88302,25.86167,27.20818,6.505975,20.37334,-6.650116,14.32511,74.04301,8.142781,-79.65134
44,99,526,116,71,176,164,46,61.45823,87.88302,25.86167,27.20818,6.505975,20.37334,-6.650116,14.32511,74.04301,8.142781,-79.65134
43,92,465,107,62,160,149,60,61.6337,87.93089,26.25138,26.60071,7.07015,20.33496,-6.256226,14.65656,72.54495,10.13977,-77.57468
44,86,412,114,65,158,152,63,61.55908,88.23726,26.45716,25.25047,7.580727,19.93085,-5.880127,15.08429,70.95408,11.47146,-76.29706
47,94,409,115,61,188,204,70,61.55908,88.23726,26.45716,25.25047,7.580727,19.93085,-5.880127,15.08429,70.95408,11.47146,-76.29706
44,89,359,116,61,176,196,68,61.55908,88.23726,26.45716,25.25047,7.580727,19.93085,-5.880127,15.08429,70.95408,11.47146,-76.29706
49,97,452,118,66,187,208,65,61.55908,88.23726,26.45716,25.25047,7.580727,19.93085,-5.880127,15.08429,70.95408,11.47146,-76.29706
52,103,538,136,72,185,212,52,54.19395,73.83218,25.43545,23.39779,9.335752,20.25901,-3.975983,14.97893,70.3211,13.26189,-73.9252
52,111,595,142,71,187,217,50,54.19395,73.83218,25.43545,23.39779,9.335752,20.25901,-3.975983,14.97893,70.3211,13.26189,-73.9252
52,113,631,135,72,202,212,44,54.19395,73.83218,25.43545,23.39779,9.335752,20.25901,-3.975983,14.97893,70.3211,13.26189,-73.9252
53,113,659,129,72,220,221,46,51.80734,61.61165,25.07552,22.17094,9.336127,19.93066,-4.339935,13.46598,68.35336,18.18802,-67.64801
60,117,619,148,78,264,287,70,51.80734,61.61165,25.07552,22.17094,9.336127,19.93066,-4.339935,13.46598,68.35336,18.18802,-67.64801
57,114,514,139,75,279,301,73,48.95705,55.13891,24.43873,21.45018,8.848728,19.18153,-5.241455,12.6181,66.82689,21.90189,-63.1922
70,144,470,174,84,287,307,78,46.77184,48.00181,23.94293,20.59231,8.360531,18.71056,-6.361359,11.84439,65.50238,24.04817,-60.85474
74,166,471,188,88,286,321,82,46.77184,48.00181,23.94293,20.59231,8.360531,18.71056,-6.361359,11.84439,65.50238,24.04817,-60.85474
73,169,460,199,88,320,352,81,46.77184,48.00181,23.94293,20.59231,8.360531,18.71056,-6.361359,11.84439,65.50238,24.04817,-60.85474
66,174,526,194,80,281,303,63,44.15673,40.15341,23.37684,19.6811,7.665183,18.52143,-7.510315,11.1542,64.00391,24.09882,-59.88153
66,174,641,188,76,275,303,57,44.16115,37.85719,23.05487,19.01595,6.682152,18.19381,-9.133575,10.64393,62.08781,22.55289,-59.13028
53,149,695,158,70,296,324,49,44.16115,37.85719,23.05487,19.01595,6.682152,18.19381,-9.133575,10.64393,62.08781,22.55289,-59.13028
49,130,686,155,68,286,324,46,44.16115,37.85719,23.05487,19.01595,6.682152,18.19381,-9.133575,10.64393,62.08781,22.55289,-59.13028
59,145,716,182,78,253,307,54,41.33351,33.07497,22.25412,17.63113,5.632531,17.38083,-10.63409,10.06207,59.8288,21.11751,-58.52512
58,130,679,179,76,260,310,51,39.44419,29.57959,22.92781,17.13351,5.646538,16.87958,-12.35172,9.491777,59.8288,21.11751,-58.52512
57,127,673,178,74,253,297,49,39.44419,29.57959,22.92781,17.13351,5.646538,16.87958,-12.35172,9.491777,59.8288,21.11751,-58.52512
55,121,649,169,70,217,273,49,38.79779,27.3556,23.13643,16.13133,5.80196,16.4954,-13.45074,9.408541,54.33346,20.1636,-55.35681
51,109,675,157,59,187,227,43,38.79779,27.3556,23.13643,16.13133,5.80196,16.4954,-13.45074,9.408541,54.33346,20.1636,-55.35681
39,90,673,105,40,149,185,28,38.79779,27.3556,23.13643,16.13133,5.80196,16.4954,-13.45074,9.408541,54.33346,20.1636,-55.35681
44,105,646,107,41,133,174,33,38.79779,27.3556,23.13643,16.13133,5.80196,16.4954,-13.45074,9.408541,54.33346,20.1636,-55.35681
45,102,591,111,41,156,185,36,38.79779,27.3556,23.13643,16.13133,5.80196,16.4954,-13.45074,9.408541,54.33346,20.1636,-55.35681
48,109,568,112,42,191,211,37,39.04893,25.19143,24.26806,14.93684,7.220402,15.92366,-13.80383,9.739244,50.71254,20.27284,-54.12018
50,113,570,115,44,197,220,41,40.28094,25.0665,23.88339,13.84121,6.621678,14.885,-14.47159,8.959837,43.50047,21.4995,-50.94443
52,118,582,139,47,190,217,42,40.28094,25.0665,23.88339,13.84121,6.621678,14.885,-14.47159,8.959837,43.50047,21.4995,-50.94443
47,108,739,144,55,189,206,39,40.28094,25.0665,23.88339,13.84121,6.621678,14.885,-14.47159,8.959837,43.50047,21.4995,-50.94443
45,117,717,146,56,171,203,38,40.25414,25.03703,23.78496,13.74935,6.579588,14.82144,-14.87903,8.700726,38.76978,23.71646,-46.93637
49,119,727,154,57,179,218,37,40.98507,25.36479,23.67237,13.68543,6.226579,14.57242,-15.26883,8.51783,35.99623,23.58167,-46.52762
46,114,695,152,54,178,207,32,40.98507,25.36479,23.67237,13.68543,6.226579,14.57242,-15.26883,8.51783,35.99623,23.58167,-46.52762
51,117,708,148,54,179,208,32,40.98507,25.36479,23.67237,13.68543,6.226579,14.57242,-15.26883,8.51783,35.99623,23.58167,-46.52762
49,115,690,160,51,178,212,33,41.90904,25.92238,23.51416,13.71363,6.044411,14.53052,-15.52277,8.556979,33.93497,24.33717,-45.05896
51,124,703,175,55,174,201,48,44.34362,27.34635,24.22092,14.15177,6.052125,14.5221,-15.69077,8.551886,32.27372,25.58315,-44.16379
48,126,707,176,59,124,140,48,44.34362,27.34635,24.22092,14.15177,6.052125,14.5221,-15.69077,8.551886,32.27372,25.58315,-44.16379
53,142,728,184,65,168,197,63,45.48801,27.84951,25.4534,14.49171,6.591936,14.48024,-15.91608,8.504573,30.46708,26.25019,-43.45667
55,147,684,188,78,210,218,71,45.48801,27.84951,25.4534,14.49171,6.591936,14.48024,-15.91608,8.504573,30.46708,26.25019,-43.45667
67,165,582,205,83,207,215,75,45.40729,27.5901,28.74627,16.50861,9.082518,14.96604,-15.50443,8.477848,29.47636,27.15082,-42.42184
64,153,577,195,79,205,218,69,45.40729,27.5901,28.74627,16.50861,9.082518,14.96604,-15.50443,8.477848,29.47636,27.15082,-42.42184
69,160,543,196,79,209,220,81,44.39874,27.66315,29.06647,17.57626,9.257767,15.36557,-15.49384,8.522425,29.47636,27.15082,-42.42184
65,151,600,194,76,189,197,72,44.39874,27.66315,29.06647,17.57626,9.257767,15.36557,-15.49384,8.522425,29.47636,27.15082,-42.42184
64,151,641,191,67,163,185,66,44.39874,27.66315,29.06647,17.57626,9.257767,15.36557,-15.49384,8.522425,29.47636,27.15082,-42.42184
60,148,611,193,66,210,213,66,43.64546,28.12732,32.94082,21.96931,11.96677,15.95279,-14.73636,8.787865,29.39157,28.03626,-41.29282
61,144,615,189,66,218,226,70,40.66595,29.72542,38.57693,32.47675,16.26311,17.1656,-14.41254,9.248365,29.36082,28.38826,-40.81461
55,129,593,189,62,219,231,87,40.66595,29.72542,38.57693,32.47675,16.26311,17.1656,-14.41254,9.248365,29.36082,28.38826,-40.81461
71,155,608,223,73,203,207,92,40.86749,31.01595,38.78683,33.91893,16.4429,18.0603,-13.95752,9.665448,29.48445,28.41724,-40.53278
70,143,561,212,67,231,274,96,40.86749,31.01595,38.78683,33.91893,16.4429,18.0603,-13.95752,9.665448,29.48445,28.41724,-40.53278
62,122,550,171,57,196,257,96,40.86749,31.01595,38.78683,33.91893,16.4429,18.0603,-13.95752,9.665448,29.48445,28.41724,-40.53278
63,126,555,166,58,198,252,94,40.96878,33.35431,45.62169,47.5878,20.83928,19.55518,-13.84299,10.38927,29.04727,27.80874,-40.44052
64,134,575,163,59,187,243,71,40.971,34.88639,53.48477,60.07265,26.22269,21.20214,-13.20895,11.14961,28.44226,28.32628,-39.70264
53,110,530,126,51,183,240,84,40.971,34.88639,53.48477,60.07265,26.22269,21.20214,-13.20895,11.14961,28.44226,28.32628,-39.70264
54,110,519,128,51,123,196,105,40.971,34.88639,53.48477,60.07265,26.22269,21.20214,-13.20895,11.14961,28.44226,28.32628,-39.70264
54,117,513,142,52,118,203,128,39.72491,36.06947,61.1478,77.0536,32.5335,25.85666,-10.62906,13.24057,27.99705,28.67269,-39.46573
54,120,561,145,51,102,200,130,39.72491,36.06947,61.1478,77.0536,32.5335,25.85666,-10.62906,13.24057,27.99705,28.67269,-39.46573
59,110,637,153,55,98,205,144,39.72491,36.06947,61.1478,77.0536,32.5335,25.85666,-10.62906,13.24057,27.99705,28.67269,-39.46573
57,106,620,148,52,94,214,145,38.34072,36.48278,64.028,81.47754,38.31163,29.77799,-3.041809,14.78662,27.45757,28.72446,-39.16626
58,114,660,151,55,92,204,181,38.34072,36.48278,64.028,81.47754,38.31163,29.77799,-3.041809,14.78662,27.45757,28.72446,-39.16626
57,111,665,143,56,89,196,165,37.70323,36.22325,65.84424,84.09178,39.32439,30.94958,-4.022736,14.99002,27.23953,29.2023,-39.10056
55,102,617,142,54,111,204,164,37.70323,36.22325,65.84424,84.09178,39.32439,30.94958,-4.022736,14.99002,27.23953,29.2023,-39.10056
58,123,602,194,61,132,208,158,38.27551,36.12304,66.9418,85.84295,39.2989,30.79216,-4.295288,14.82635,26.61163,29.09363,-39.522
68,143,586,252,76,135,221,154,38.27551,36.12304,66.9418,85.84295,39.2989,30.79216,-4.295288,14.82635,26.61163,29.09363,-39.522
67,142,537,255,75,133,185,88,40.97415,36.43174,67.36935,86.77707,38.22594,29.68608,-5.715363,14.64391,25.39384,28.67218,-40.12469
68,142,516,253,75,141,188,85,40.97415,36.43174,67.36935,86.77707,38.22594,29.68608,-5.715363,14.64391,25.20143,28.64664,-40.84698
74,163,537,274,79,131,179,83,40.97415,36.43174,67.36935,86.77707,38.22594,29.68608,-5.715363,14.64391,25.20143,28.64664,-40.84698
66,148,455,229,68,109,162,86,41.79885,36.81605,68.14857,87.4073,38.36183,29.71121,-6.004272,14.52088,25.20143,28.64664,-40.84698
56,126,440,151,52,103,122,73,43.61927,37.98656,68.128,87.80019,37.657,29.24225,-6.781952,14.62036,25.20143,28.64664,-40.84698
54,126,479,152,52,104,117,70,43.61927,37.98656,68.128,87.80019,37.657,29.24225,-6.781952,14.62036,25.20143,28.64664,-40.84698
55,134,478,174,52,109,112,69,46.0381,39.06757,68.08257,87.55862,36.63387,28.45633,-7.669556,14.42751,25.47341,28.00045,-42.06125
52,117,443,149,48,100,99,69,46.0381,39.06757,68.08257,87.55862,36.63387,28.45633,-7.669556,14.42751,25.47341,28.00045,-42.06125
73,148,469,176,65,153,158,55,47.26806,40.72152,67.38441,87.47227,35.16109,27.4597,-8.920044,14.02082,25.27046,27.57474,-42.96652
75,158,540,236,67,157,172,74,47.26806,40.72152,67.38441,87.47227,35.16109,27.4597,-8.920044,14.02082,25.27046,27.57474,-42.96652
79,158,521,245,68,163,177,75,54.79656,55.07028,53.92352,70.68271,22.99101,24.75052,-11.63828,12.89916,24.53448,27.23168,-43.82565
85,165,578,249,72,148,170,79,54.79656,55.07028,53.92352,70.68271,22.99101,24.75052,-11.63828,12.89916,24.53448,27.23168,-43.82565
87,172,728,267,77,167,185,83,54.79656,55.07028,53.92352,70.68271,22.99101,24.75052,-11.63828,12.89916,24.53448,27.23168,-43.82565
97,235,851,366,76,127,139,79,44.71566,37.0751,38.29231,36.56336,15.32961,21.26029,-14.19226,11.50579,24.20668,27.63151,-44.77081
117,296,853,436,98,139,138,70,44.71566,37.0751,38.29231,36.56336,15.32961,21.26029,-14.19226,11.50579,24.20668,27.63151,-44.77081
128,326,852,486,118,164,166,74,34.40133,24.88337,31.15182,22.45838,12.21682,20.11636,-15.65091,11.77212,23.31808,28.11311,-45.50201
125,324,855,483,119,194,198,71,32.74361,23.36697,24.37164,15.67857,7.627165,18.35299,-17.53928,11.97931,25.14197,28.36726,-44.98602
123,320,741,473,116,178,188,67,32.74361,23.36697,24.37164,15.67857,7.627165,18.35299,-17.53928,11.97931,25.14197,28.36726,-44.98602
112,282,679,413,118,176,186,67,29.64429,21.84817,20.96085,12.882,5.537388,16.93151,-18.65988,12.07507,25.42782,29.01421,-43.97223
99,228,755,317,104,187,219,62,29.64429,21.84817,20.96085,12.882,5.537388,16.93151,-18.65988,12.07507,25.42782,29.01421,-43.97223
84,187,751,225,79,162,200,55,27.45043,20.75513,19.37165,11.80484,4.569895,16.25603,-19.50235,12.1394,25.3263,29.42433,-43.86182
82,183,726,212,77,122,167,53,27.45043,20.75513,19.37165,11.80484,4.569895,16.25603,-19.50235,12.1394,25.3263,29.42433,-43.86182
100,241,770,243,85,119,161,56,27.45043,20.75513,19.37165,11.80484,4.569895,16.25603,-19.50235,12.1394,25.3263,29.42433,-43.86182
101,229,707,213,75,130,199,54,27.45043,20.75513,19.37165,11.80484,4.569895,16.25603,-19.50235,12.1394,25.3263,29.42433,-43.86182
99,232,674,249,85,95,158,49,24.50698,18.89558,18.81456,11.11336,4.236532,15.2979,-20.4267,11.92536,25.52822,29.07948,-43.83633
102,247,802,300,97,99,158,54,24.50698,18.89558,18.81456,11.11336,4.236532,15.2979,-20.4267,11.92536,25.52822,29.07948,-43.83633
104,252,820,325,97,98,156,53,23.89123,18.43045,19.05328,11.13317,4.552755,15.17198,-20.47223,11.96905,25.6391,29.30329,-43.20001
92,215,888,340,93,123,187,52,23.89123,18.43045,19.05328,11.13317,4.552755,15.17198,-20.47223,11.96905,25.6391,29.30329,-43.20001
82,203,869,341,90,127,168,48,23.38261,18.07873,20.02155,11.22376,5.490203,15.04667,-20.39468,12.07376,26.41061,29.20977,-43.00027
73,184,771,316,79,132,175,59,23.38261,18.07873,20.02155,11.22376,5.490203,15.04667,-20.39468,12.07376,26.41061,29.20977,-43.00027
70,169,681,274,68,142,206,67,23.97642,17.88796,25.84196,13.14122,9.914088,15.88462,-20.19278,12.10687,26.74184,29.00556,-42.99643
68,162,706,250,68,149,216,70,23.97642,17.88796,25.84196,13.14122,9.914088,15.88462,-20.19278,12.10687,26.74184,29.00556,-42.99643
60,136,579,203,64,128,187,69,23.97642,17.88796,25.84196,13.14122,9.914088,15.88462,-20.19278,12.10687,26.74184,29.00556,-42.99643
61,147,572,204,65,122,190,84,36.06767,24.10528,29.59758,15.62863,10.54913,17.07505,-20.58176,12.03937,27.68218,28.06838,-43.4353
76,180,604,225,76,114,179,84,37.97699,27.44938,31.12233,17.43526,11.67177,17.90358,-20.14185,12.31169,27.07505,27.20402,-44.58502
86,202,551,257,86,117,150,80,37.97699,27.44938,31.12233,17.43526,11.67177,17.90358,-20.14185,12.31169,27.07505,27.20402,-44.58502
92,224,582,264,88,121,138,99,37.97699,27.44938,31.12233,17.43526,11.67177,17.90358,-20.14185,12.31169,27.07505,27.20402,-44.58502
97,228,536,266,88,138,165,101,38.99908,28.42723,31.60754,18.59802,12.61276,18.9787,-18.64297,12.57882,27.58255,26.19559,-44.93655
97,230,576,269,91,138,152,93,38.99908,28.42723,31.60754,18.59802,12.61276,18.9787,-18.64297,12.57882,27.58255,26.19559,-44.93655
92,216,624,268,83,140,162,121,38.99908,28.42723,31.60754,18.59802,12.61276,18.9787,-18.64297,12.57882,27.58255,26.19559,-44.93655
87,208,686,280,82,128,152,126,56.64988,67.00761,30.18091,19.8439,9.911633,19.53109,-16.0412,13.7623,27.58255,26.19559,-44.93655
98,227,706,350,92,120,149,117,56.64988,67.00761,30.18091,19.8439,9.911633,19.53109,-16.0412,13.7623,27.58255,26.19559,-44.93655
99,238,761,363,99,126,151,120,56.64988,67.00761,30.18091,19.8439,9.911633,19.53109,-16.0412,13.7623,27.58255,26.19559,-44.93655
103,238,762,361,97,126,147,159,60.90508,75.10279,29.99444,18.55791,8.88728,17.89324,-15.60669,13.4815,27.83317,24.81975,-47.30554
98,231,770,351,96,122,135,136,62.16561,76.9993,30.31651,18.43872,8.866735,17.42386,-15.06052,13.46956,27.3582,24.60375,-47.88266
112,269,755,362,100,121,141,146,62.16561,76.9993,30.31651,18.43872,8.866735,17.42386,-15.06052,13.46956,27.3582,24.60375,-47.88266
103,246,670,313,96,120,144,141,63.04034,77.85362,30.34245,18.36942,8.616172,17.14162,-14.66245,13.52574,27.31163,24.03408,-48.3085
102,240,609,298,93,117,139,140,64.2265,78.73637,30.41793,18.15926,8.736439,16.97084,-14.03259,13.67089,27.13118,23.9932,-48.56848
105,254,669,338,101,105,147,124,64.2265,78.73637,30.41793,18.15926,8.736439,16.97084,-14.03259,13.67089,27.13118,23.9932,-48.56848
118,286,680,358,106,108,146,127,64.2265,78.73637,30.41793,18.15926,8.736439,16.97084,-14.03259,13.67089,27.13118,23.9932,-48.56848
145,339,741,447,129,118,148,121,65.6857,79.83408,30.6348,18.53122,8.855794,17.11228,-13.14285,13.93581,26.77886,23.65513,-48.798
141,333,770,434,122,134,168,130,65.6857,79.83408,30.6348,18.53122,8.855794,17.11228,-13.14285,13.93581,26.77886,23.65513,-48.798
141,330,834,431,119,120,151,129,65.6857,79.83408,30.6348,18.53122,8.855794,17.11228,-13.14285,13.93581,26.77886,23.65513,-48.798
135,316,777,399,113,121,136,98,67.05511,80.06982,31.3143,18.81604,9.133169,17.34971,-12.91367,14.18409,26.92864,23.06579,-49.2825
138,318,832,425,115,121,132,96,68.27876,80.76069,31.96249,18.95723,9.559964,17.64204,-12.86041,14.47082,26.92864,23.06579,-49.2825
87,202,825,279,72,108,124,79,68.27876,80.76069,31.96249,18.95723,9.559964,17.64204,-12.86041,14.47082,26.92864,23.06579,-49.2825
90,213,947,292,78,93,117,69,68.76122,80.94741,32.00513,18.37262,9.523106,17.59686,-13.43652,14.42074,26.92864,23.06579,-49.2825
90,208,889,289,77,110,135,82,68.76122,80.94741,32.00513,18.37262,9.523106,17.59686,-13.43652,14.42074,26.92864,23.06579,-49.2825
93,218,892,283,75,120,149,82,68.93086,81.18801,32.67034,18.45464,10.06285,18.00174,-13.40143,14.66881,27.95151,21.26748,-50.77719
72,163,838,192,55,125,154,87,68.93086,81.18801,32.67034,18.45464,10.06285,18.00174,-13.40143,14.66881,27.95151,21.26748,-50.77719
71,160,774,187,54,129,159,87,69.14824,81.52348,33.11131,18.43262,10.93046,18.44889,-13.06464,14.95386,27.99253,20.89588,-50.81534
63,135,587,146,46,171,195,81,69.14824,81.52348,33.11131,18.43262,10.93046,18.44889,-13.06464,14.95386,27.99253,20.89588,-50.81534
58,136,590,143,42,160,182,76,69.34461,81.70684,33.54641,18.59335,11.31722,18.69958,-12.93909,14.98016,28.35626,20.48609,-50.82358
50,109,580,138,41,164,188,89,69.34461,81.70684,33.54641,18.59335,11.31722,18.69958,-12.93909,14.98016,28.35626,20.48609,-50.82358
39,99,464,113,40,158,182,78,69.69147,81.79151,33.54499,18.40809,11.58171,19.04164,-12.89963,15.17675,28.48552,19.97116,-50.76819
55,136,412,154,56,164,186,80,69.69147,81.79151,33.54499,18.40809,11.58171,19.04164,-12.89963,15.17675,28.48552,19.97116,-50.76819
56,140,368,161,55,120,137,79,70.20218,81.92627,33.87154,18.30894,11.78746,19.24656,-12.90781,15.36297,29.07432,19.59402,-51.01279
54,135,351,160,57,129,137,67,70.20218,81.92627,33.87154,18.30894,11.78746,19.24656,-12.90781,15.36297,29.07432,19.59402,-51.01279
58,137,293,163,60,122,127,42,70.83971,82.11076,34.23109,18.28725,11.86072,19.24155,-12.91171,15.14986,29.07432,19.59402,-51.01279
57,138,325,163,59,124,132,40,70.13259,81.55714,33.93574,17.7604,11.47139,18.84548,-13.34097,14.83067,29.05479,20.34402,-48.85721
48,109,358,120,45,108,114,29,70.13259,81.55714,33.93574,17.7604,11.47139,18.84548,-13.34097,14.83067,29.05479,20.34402,-48.85721
61,145,503,166,59,95,106,35,70.13259,81.55714,33.93574,17.7604,11.47139,18.84548,-13.34097,14.83067,29.05479,20.34402,-48.85721
65,155,548,173,58,88,113,37,65.63556,74.54446,31.93151,16.84632,10.49268,18.74752,-14.19034,14.35092,28.65513,21.71258,-47.43185
61,155,577,172,56,85,107,39,65.63556,74.54446,31.93151,16.84632,10.49268,18.74752,-14.19034,14.35092,28.69979,23.86038,-45.26459
66,165,609,174,59,108,135,61,61.32628,59.85024,29.91898,15.31145,9.213345,18.72809,-15.2887,13.97029,28.69979,23.86038,-45.26459
62,161,640,187,64,122,160,60,61.32628,59.85024,29.91898,15.31145,9.213345,18.72809,-15.2887,13.97029,28.69979,23.86038,-45.26459
53,148,618,171,58,125,161,62,59.96009,55.31983,28.94655,14.6647,8.021549,18.09704,-16.11899,13.48513,28.63928,25.631,-44.14514
61,151,608,177,65,170,216,64,59.96009,55.31983,28.94655,14.6647,8.021549,18.09704,-16.11899,13.48513,28.63928,25.631,-44.14514
70,165,662,192,71,172,213,65,59.13752,50.58296,28.79237,13.97284,7.360685,17.42253,-16.91129,12.85734,28.61223,27.3147,-43.27261
69,162,646,210,71,164,199,47,59.13752,50.58296,28.79237,13.97284,7.360685,17.42253,-16.91129,12.85734,28.61223,27.3147,-43.27261
81,190,729,241,73,170,196,51,56.85868,43.38749,28.13593,13.0411,6.569368,16.69497,-17.73212,11.97754,28.74139,27.96391,-41.87436
75,168,676,223,65,171,194,43,56.85868,43.38749,28.13593,13.0411,6.569368,16.69497,-17.73212,11.97754,28.74139,27.96391,-41.87436
67,159,692,226,62,136,147,44,51.6442,35.13571,26.84897,11.8831,5.967813,15.71158,-18.19937,11.53198,28.54408,28.98393,-40.22244
58,151,701,213,57,192,198,42,51.6442,35.13571,26.84897,11.8831,5.967813,15.71158,-18.19937,11.53198,28.54408,28.98393,-40.22244
58,153,672,197,56,205,205,42,50.44321,32.98597,26.57371,11.181,5.917102,15.09824,-18.14789,11.12667,28.81916,29.46158,-39.52734
43,112,592,147,48,198,197,36,48.53203,30.67524,26.02505,10.74642,6.066196,14.68285,-17.7735,11.12414,28.75624,29.12078,-39.08392
48,117,678,148,56,202,204,41,48.53203,30.67524,26.02505,10.74642,6.066196,14.68285,-17.7735,11.12414,28.75624,29.12078,-39.08392
51,129,651,139,56,196,187,37,48.53203,30.67524,26.02505,10.74642,6.066196,14.68285,-17.7735,11.12414,28.75624,29.12078,-39.08392
69,154,722,171,66,149,144,69,48.19656,29.53606,25.75658,10.34492,6.058584,14.092,-17.61337,10.86959,28.93117,29.67681,-38.04886
70,158,741,177,73,186,203,72,48.19656,29.53606,25.75658,10.34492,6.058584,14.092,-17.61337,10.86959,28.93117,29.67681,-38.04886
69,158,703,172,73,186,204,73,48.49336,29.20195,25.74957,10.13575,6.129131,13.77343,-17.27802,10.69813,28.33195,29.87498,-37.60861
70,165,653,169,68,183,202,73,48.49336,29.20195,25.74957,10.13575,6.129131,13.77343,-17.27802,10.69813,28.33195,29.87498,-37.60861
69,158,680,196,74,179,201,74,48.06211,28.67072,25.28225,9.873718,5.967388,13.38287,-17.21609,10.48671,28.1993,29.60543,-37.4682
64,163,661,219,78,181,215,58,48.06211,28.67072,25.28225,9.873718,5.967388,13.38287,-17.21609,10.48671,28.1993,29.60543,-37.4682
61,153,729,215,70,129,161,52,47.76932,28.35099,25.12822,9.569966,6.020299,12.97879,-16.98895,10.22723,27.62173,30.02755,-37.349
61,159,767,213,71,131,172,50,47.76932,28.35099,25.12822,9.569966,6.020299,12.97879,-16.98895,10.22723,27.62173,30.02755,-37.349
60,149,740,210,70,130,174,49,47.90171,28.38552,24.91419,9.305079,5.861339,12.55742,-16.96667,9.922047,27.36292,30.00916,-37.42612
68,170,767,217,68,129,170,54,47.90171,28.38552,24.91419,9.305079,5.861339,12.55742,-16.96667,9.922047,27.36292,30.00916,-37.42612
57,141,703,177,53,113,140,42,47.87817,28.37262,24.87892,9.148181,5.882283,12.26011,-16.97064,9.667739,27.07636,29.9936,-37.74265
57,144,678,171,54,98,134,44,47.87817,28.37262,24.87892,9.148181,5.882283,12.26011,-16.97064,9.667739,27.07636,29.9936,-37.74265
56,138,645,176,50,85,111,59,47.84007,28.49648,25.18149,9.229149,6.202436,12.19639,-16.80194,9.723815,27.15137,29.8415,-38.28262
68,174,684,190,55,83,116,66,47.84007,28.49648,25.18149,9.229149,6.202436,12.19639,-16.80194,9.723815,27.15137,29.8415,-38.28262
60,165,690,161,51,85,118,64,48.75373,29.13389,25.48637,9.541244,6.334984,12.31605,-16.81598,9.697173,27.70118,29.76234,-38.793
68,180,648,173,56,91,128,78,48.75373,29.13389,25.48637,9.541244,6.334984,12.31605,-16.81598,9.697173,27.70118,29.76234,-38.793
68,175,588,170,54,97,116,78,48.75373,29.13389,25.48637,9.541244,6.334984,12.31605,-16.81598,9.697173,27.70118,29.76234,-38.793
85,198,693,209,68,119,143,93,56.71304,38.73407,26.77612,10.64566,6.599585,12.95335,-16.51196,9.488688,28.22029,29.76745,-38.79486
76,170,664,201,64,121,138,90,59.39825,54.03785,27.52795,12.47683,6.80964,13.5847,-15.84491,10.34289,28.94307,29.09155,-39.67297
83,185,707,235,68,118,144,97,59.39825,54.03785,27.52795,12.47683,6.80964,13.5847,-15.84491,10.34289,28.94307,29.09155,-39.67297
79,176,709,235,66,114,132,89,61.02777,65.62616,27.42152,13.40742,6.214742,13.54965,-15.69186,10.748,30.21936,27.28752,-40.22647
80,181,723,243,66,112,131,93,61.02777,65.62616,27.42152,13.40742,6.214742,13.54965,-15.69186,10.748,30.21936,27.28752,-40.22647
61,154,622,210,56,104,111,81,62.62249,72.62778,27.77516,14.16286,5.962944,13.23416,-15.20789,10.81625,30.21343,26.39821,-40.67896
61,154,662,214,57,104,128,89,62.95763,76.27333,27.74233,14.42883,5.895499,13.1245,-14.89731,10.98047,30.4679,25.80605,-41.12494
52,127,562,163,50,103,127,89,62.95763,76.27333,27.74233,14.42883,5.895499,13.1245,-14.89731,10.98047,30.4679,25.80605,-41.12494
52,116,569,164,49,99,130,88,62.95763,76.27333,27.74233,14.42883,5.895499,13.1245,-14.89731,10.98047,30.4679,25.80605,-41.12494
59,130,613,168,51,91,132,88,63.42808,78.61816,28.01056,14.97206,6.225372,13.27198,-14.06378,11.10214,30.30985,25.65132,-41.40613
61,129,582,165,49,141,173,105,63.42808,78.61816,28.01056,14.97206,6.225372,13.27198,-14.06378,11.10214,30.30985,25.65132,-41.40613
63,130,519,152,47,139,154,108,63.42808,78.61816,28.01056,14.97206,6.225372,13.27198,-14.06378,11.10214,30.30985,25.65132,-41.40613
62,127,494,170,52,143,159,106,63.42808,78.61816,28.01056,14.97206,6.225372,13.27198,-14.06378,11.10214,30.30985,25.65132,-41.40613
72,160,568,203,63,143,158,107,64.3637,80.43026,29.21181,15.95228,7.095095,13.65452,-13.5376,11.37816,30.69012,25.31198,-41.49988
67,145,537,200,60,145,159,107,64.3637,80.43026,29.21181,15.95228,7.095095,13.65452,-13.5376,11.37816,30.69012,25.31198,-41.49988
67,152,606,204,61,79,97,86,62.30703,81.49126,29.66542,17.10655,7.730619,14.1846,-12.90482,11.54622,32.17902,23.6209,-43.06879
66,154,618,206,63,104,132,88,62.30703,81.49126,29.66542,17.10655,7.730619,14.1846,-12.90482,11.54622,32.17902,23.6209,-43.06879
67,152,606,197,59,105,119,86,62.69641,82.44898,30.36201,17.79759,7.87891,14.30314,-13.10516,11.41619,32.56815,22.692,-43.79269
59,139,625,170,53,104,119,94,62.36301,82.75839,30.71137,18.26437,7.855667,14.13577,-13.491,11.21116,32.74641,21.81142,-44.1171
76,152,636,185,59,103,148,102,62.36301,82.75839,30.71137,18.26437,7.855667,14.13577,-13.491,11.21116,32.74641,21.81142,-44.1171
83,168,673,206,65,105,152,108,62.36301,82.75839,30.71137,18.26437,7.855667,14.13577,-13.491,11.21116,32.74641,21.81142,-44.1171
83,167,663,208,65,77,126,125,64.10825,83.53199,31.7341,18.61508,8.081561,13.93298,-13.58664,10.73823,32.38209,21.25433,-44.63452
92,191,755,242,75,84,139,164,64.10825,83.53199,31.7341,18.61508,8.081561,13.93298,-13.58664,10.73823,32.38209,21.25433,-44.63452
92,193,704,261,81,83,138,163,64.46588,84.13375,32.25087,18.85095,8.050633,13.56171,-13.88223,10.19098,32.27367,21.05999,-44.63971
82,191,702,253,78,80,101,162,64.46588,84.13375,32.25087,18.85095,8.050633,13.56171,-13.88223,10.19098,32.39619,20.65026,-45.08746
72,171,639,229,71,89,115,175,65.50053,84.66639,32.42896,18.41753,7.556574,12.85659,-14.69281,9.479638,32.39619,20.65026,-45.08746
73,168,690,229,72,90,116,156,65.50053,84.66639,32.42896,18.41753,7.556574,12.85659,-14.69281,9.479638,32.39619,20.65026,-45.08746
62,140,606,189,62,73,96,115,66.51353,85.1756,32.93454,17.74937,7.420962,11.94558,-15.45508,8.689976,32.73402,20.4493,-45.41687
55,112,572,129,43,137,166,107,66.51353,85.1756,32.93454,17.74937,7.420962,11.94558,-15.45508,8.689976,32.73402,20.4493,-45.41687
55,99,529,111,42,152,171,100,67.59734,85.35575,34.03004,17.79948,7.572042,11.24385,-16.09048,7.673745,33.02192,20.21353,-45.88028
59,106,548,109,41,148,161,74,67.59734,85.35575,34.03004,17.79948,7.572042,11.24385,-16.09048,7.673745,33.02192,20.21353,-45.88028
54,97,467,95,36,152,161,70,68.43491,85.65959,35.0743,17.73459,7.893215,10.58883,-16.29279,6.90343,32.68032,19.54341,-46.42651
51,91,442,98,40,165,177,68,68.43491,85.65959,35.0743,17.73459,7.893215,10.58883,-16.29279,6.90343,32.68032,19.54341,-46.42651
51,84,391,101,42,120,115,68,69.19799,85.92028,35.52228,17.4025,8.084339,9.917121,-16.55463,6.082162,32.33408,19.06052,-46.62122
47,84,382,99,43,103,107,66,69.19799,85.92028,35.52228,17.4025,8.084339,9.917121,-16.55463,6.082162,32.33408,19.06052,-46.62122
45,81,282,106,46,124,136,77,69.68716,85.63808,35.51733,16.85083,8.489007,9.641074,-15.85178,5.658926,32.68491,18.58255,-46.99561
44,84,270,106,47,118,131,77,69.68716,85.63808,35.51733,16.85083,8.489007,9.641074,-15.85178,5.658926,32.68491,18.58255,-46.99561
43,83,269,113,42,107,109,75,69.5582,85.10516,35.22466,16.2319,9.086497,9.667924,-14.78485,6.057538,32.68491,18.58255,-46.99561
41,102,390,114,45,115,118,76,69.5582,85.10516,35.22466,16.2319,9.086497,9.667924,-14.78485,6.057538,32.68491,18.58255,-46.99561
42,110,524,125,44,125,131,76,62.52611,64.13692,31.13898,12.40817,8.720032,10.95232,-14.56058,6.814017,34.36463,18.33478,-46.80872
68,185,641,191,75,194,184,73,62.52611,64.13692,31.13898,12.40817,8.720032,10.95232,-14.56058,6.814017,35.94789,18.36626,-46.91415
73,195,672,211,77,199,196,76,57.86746,56.42749,28.63276,10.61622,9.607331,11.8546,-12.39139,7.27497,35.94789,18.36626,-46.91415
78,207,730,216,80,198,201,76,56.23046,54.76361,27.5799,10.30648,9.940669,11.99776,-11.57895,7.541852,36.61264,18.67969,-46.16257
82,203,698,221,84,199,201,77,56.23046,54.76361,27.5799,10.30648,9.940669,11.99776,-11.57895,7.541852,36.61264,18.67969,-46.16257
83,199,597,220,83,192,193,75,56.23046,54.76361,27.5799,10.30648,9.940669,11.99776,-11.57895,7.541852,36.61264,18.67969,-46.16257
72,157,598,209,72,135,146,58,54.367,52.82905,27.19998,10.3933,10.68332,12.05944,-10.37234,7.824287,36.71872,18.99772,-45.47766
109,249,766,275,99,177,165,114,54.367,52.82905,27.19998,10.3933,10.68332,12.05944,-10.37234,7.824287,36.71872,18.99772,-45.47766
110,246,730,277,99,178,165,116,51.96957,48.13892,26.9745,10.28744,11.00079,11.96733,-10.01993,7.835874,37.03817,19.4047,-45.06247
107,247,758,273,95,173,161,116,51.96957,48.13892,26.9745,10.28744,11.00079,11.96733,-10.01993,7.835874,37.03817,19.4047,-45.06247
107,248,764,275,97,179,165,117,48.70933,39.32488,26.47297,9.708926,10.9333,11.75505,-10.2655,7.831246,37.51349,19.54577,-44.72021
109,258,754,269,90,163,148,117,48.70933,39.32488,26.47297,9.708926,10.9333,11.75505,-10.2655,7.831246,37.51349,19.54577,-44.72021
78,191,643,249,74,123,132,77,44.17685,29.19837,24.48725,8.567018,9.764481,11.3766,-10.63367,7.806113,37.49801,19.88238,-44.22067
83,218,709,287,83,123,126,86,42.39304,26.11741,24.14875,8.306737,9.292762,11.17664,-11.23502,7.755075,37.84555,20.31486,-44.2316
85,225,721,296,85,121,123,84,42.39304,26.11741,24.14875,8.306737,9.292762,11.17664,-11.23502,7.755075,37.84555,20.31486,-44.2316
89,241,786,300,84,126,132,88,42.39304,26.11741,24.14875,8.306737,9.292762,11.17664,-11.23502,7.755075,37.84555,20.31486,-44.2316
87,234,791,304,83,119,133,96,40.49118,24.13561,22.90044,8.089444,8.111411,10.96649,-12.11093,7.643384,38.52885,19.67623,-44.90256
115,271,854,323,85,109,114,137,40.49118,24.13561,22.90044,8.089444,8.111411,10.96649,-12.11093,7.643384,38.52885,19.67623,-44.90256
119,284,898,312,85,120,136,136,39.73518,22.69408,22.1252,7.890279,7.335371,10.70019,-12.73074,7.573999,38.90712,19.64229,-44.91742
120,283,891,315,84,138,169,141,39.73518,22.69408,22.1252,7.890279,7.335371,10.70019,-12.73074,7.573999,38.90712,19.64229,-44.91742
119,283,907,325,85,134,168,147,40.06379,21.38796,22.01083,7.599823,6.848344,10.53715,-13.67142,7.391002,39.24451,19.27075,-45.1813
116,273,869,307,83,132,171,138,40.06379,21.38796,22.01083,7.599823,6.848344,10.53715,-13.67142,7.391002,39.24451,19.27075,-45.1813
90,223,785,255,70,148,189,93,41.10571,21.03895,20.96205,7.066998,5.810686,10.20433,-14.38657,7.375407,39.0356,19.32899,-45.35666
79,191,755,247,66,164,199,100,41.10571,21.03895,20.96205,7.066998,5.810686,10.20433,-14.38657,7.375407,39.0356,19.32899,-45.35666
79,195,753,250,69,175,206,108,40.31676,20.0688,20.38951,6.637883,5.23576,9.777447,-14.85886,7.176755,38.40479,19.63123,-45.45148
95,231,790,277,78,177,211,134,40.31676,20.0688,20.38951,6.637883,5.23576,9.777447,-14.85886,7.176755,38.40479,19.63123,-45.45148
93,229,795,281,79,170,199,134,40.52789,19.64299,20.0527,6.331967,4.945033,9.521122,-15.09164,7.164745,37.61721,19.92053,-45.51572
91,226,854,268,75,154,185,134,40.52789,19.64299,20.0527,6.331967,4.945033,9.521122,-15.09164,7.164745,37.61721,19.92053,-45.51572
100,247,848,312,81,119,160,190,40.69469,19.36406,19.75308,6.019086,4.784672,9.246335,-15.09775,7.217882,37.21237,20.4106,-45.18634
100,252,878,307,81,111,150,188,40.87995,19.44407,19.45316,5.958353,4.456677,9.098628,-15.22916,7.164649,36.71654,20.7902,-45.46387
84,216,820,288,78,105,130,165,40.87995,19.44407,19.45316,5.958353,4.456677,9.098628,-15.22916,7.164649,36.71654,20.7902,-45.46387
88,225,792,288,77,113,138,168,40.87995,19.44407,19.45316,5.958353,4.456677,9.098628,-15.22916,7.164649,36.71654,20.7902,-45.46387
87,221,726,292,78,114,130,167,42.66863,20.50519,19.53915,5.995536,4.232116,8.960514,-15.51581,6.903608,36.49679,21.62994,-44.95993
83,205,802,259,72,125,137,109,42.66863,20.50519,19.53915,5.995536,4.232116,8.960514,-15.51581,6.903608,36.49679,21.62994,-44.95993
85,197,862,277,77,98,101,127,42.66863,20.50519,19.53915,5.995536,4.232116,8.960514,-15.51581,6.903608,36.49679,21.62994,-44.95993
84,190,854,253,71,95,105,143,42.66863,20.50519,19.53915,5.995536,4.232116,8.960514,-15.51581,6.903608,36.49679,21.62994,-44.95993
79,178,843,241,68,136,179,149,47.65615,27.06941,19.62569,6.511995,3.902704,9.14643,-15.45486,6.782202,36.08345,22.07166,-44.9761
76,175,841,250,71,184,225,161,47.65615,27.06941,19.62569,6.511995,3.902704,9.14643,-15.45486,6.782202,36.08345,22.07166,-44.9761
74,166,734,225,67,189,246,153,49.92724,31.2641,19.90233,6.744898,3.795286,8.969968,-15.29053,6.843855,35.39721,22.33466,-44.99988
85,205,722,272,74,190,258,142,49.92724,31.2641,19.90233,6.744898,3.795286,8.969968,-15.29053,6.843855,35.39721,22.33466,-44.99988
89,218,745,306,78,193,257,131,53.33549,38.97002,20.26937,7.378709,3.800486,9.054517,-14.82507,6.901638,35.39721,22.33466,-44.99988
100,225,766,318,81,172,238,141,54.66884,49.05761,20.12038,8.101716,3.36159,9.243254,-14.67639,7.211088,35.15776,22.31056,-45.6044
102,236,788,325,81,117,196,130,54.66884,49.05761,20.12038,8.101716,3.36159,9.243254,-14.67639,7.211088,35.15776,22.31056,-45.6044
105,259,804,346,90,102,169,134,54.66884,49.05761,20.12038,8.101716,3.36159,9.243254,-14.67639,7.211088,35.15776,22.31056,-45.6044
94,226,733,307,89,102,151,130,56.02875,55.921,20.28326,8.521159,3.092424,9.11797,-14.6987,7.390959,35.52028,21.85591,-46.08527
89,208,727,270,88,95,163,147,56.02875,55.921,20.28326,8.521159,3.092424,9.11797,-14.6987,7.390959,35.52028,21.85591,-46.08527
85,219,762,298,91,80,130,130,57.84268,62.21166,20.136,8.445068,2.654374,9.050069,-14.84818,7.597664,35.54415,21.33729,-46.53738
84,211,712,277,90,117,176,132,57.84268,62.21166,20.136,8.445068,2.654374,9.050069,-14.84818,7.597664,35.54415,21.33729,-46.53738
76,179,663,251,82,118,173,128,58.30291,65.54961,19.92127,8.293711,2.330796,9.040379,-15.18188,7.725804,36.01463,20.47372,-47.10391
77,209,648,261,75,117,178,131,59.26189,67.70222,20.17157,8.269217,2.48135,9.138745,-15.19943,7.868296,35.83476,20.08156,-47.1705
78,209,565,260,70,119,171,116,59.26189,67.70222,20.17157,8.269217,2.48135,9.138745,-15.19943,7.868296,35.83476,20.08156,-47.1705
73,195,619,222,63,120,163,116,59.26189,67.70222,20.17157,8.269217,2.48135,9.138745,-15.19943,7.868296,35.83476,20.08156,-47.1705
69,183,632,223,60,84,107,108,60.83755,69.72238,21.05309,8.510731,3.066418,9.407855,-15.24716,7.877425,36.03592,19.9742,-47.03445
83,222,765,303,76,91,125,110,60.83755,69.72238,21.05309,8.510731,3.066418,9.407855,-15.24716,7.877425,36.03592,19.9742,-47.03445
103,251,803,379,100,102,127,108,63.65552,72.24841,22.67113,8.771913,4.24844,9.773944,-14.93716,7.981289,36.03592,19.9742,-47.03445
105,254,863,385,102,106,121,101,63.65552,72.24841,22.67113,8.771913,4.24844,9.773944,-14.93716,7.981289,36.03592,19.9742,-47.03445
103,250,775,385,104,105,122,103,65.26089,72.59906,23.29003,8.708021,4.41145,9.929645,-14.82736,7.969953,36.4325,19.39329,-47.15198
109,266,819,404,109,156,175,104,65.26089,72.59906,23.29003,8.708021,4.41145,9.929645,-14.82736,7.969953,36.4325,19.39329,-47.15198
102,250,690,374,105,155,168,102,66.77879,73.64119,23.64016,8.601349,4.636613,10.13886,-14.54453,8.009848,36.83131,19.20529,-47.59033
83,188,638,278,80,142,158,93,68.05044,75.1516,24.55538,8.706434,4.94877,10.34812,-14.7121,8.118919,36.87997,19.29104,-48.16367
92,229,753,315,89,139,161,106,68.05044,75.1516,24.55538,8.706434,4.94877,10.34812,-14.7121,8.118919,36.87997,19.29104,-48.16367
108,268,831,388,107,142,165,110,68.05044,75.1516,24.55538,8.706434,4.94877,10.34812,-14.7121,8.118919,36.87997,19.29104,-48.16367
163,399,959,598,157,106,129,140,69.20868,76.93729,25.22741,8.674664,5.097194,10.47454,-14.99265,8.183545,37.02775,19.32053,-48.39413
166,410,1038,609,156,103,124,143,69.20868,76.93729,25.22741,8.674664,5.097194,10.47454,-14.99265,8.183545,37.02775,19.32053,-48.39413
169,425,1094,632,159,113,145,215,69.87354,77.32767,25.91808,8.646847,5.151092,10.48618,-15.39941,8.242767,36.57673,18.97028,-48.68573
168,414,996,635,158,109,141,212,69.87354,77.32767,25.91808,8.646847,5.151092,10.48618,-15.39941,8.242767,36.57673,18.97028,-48.68573
161,398,1006,605,150,103,133,211,70.09418,78.04247,26.41308,8.706356,5.178553,10.60059,-16.09222,8.380602,36.35608,19.09093,-48.69604
108,269,860,401,100,83,119,197,70.09418,78.04247,26.41308,8.706356,5.178553,10.60059,-16.09222,8.380602,36.35608,19.09093,-48.69604
114,284,857,434,106,100,125,201,70.22835,78.42747,27.0258,8.832091,5.189399,10.69829,-16.89685,8.318876,36.03977,18.83442,-49.3284
108,269,769,399,100,100,108,127,70.22835,78.42747,27.0258,8.832091,5.189399,10.69829,-16.89685,8.318876,36.03977,18.83442,-49.3284
98,260,816,371,97,106,107,122,70.11761,78.78622,27.25143,8.784275,5.307994,10.75847,-17.32709,8.245934,36.11652,18.36635,-50.02582
107,272,798,382,106,109,109,132,70.11761,78.78622,27.25143,8.784275,5.307994,10.75847,-17.32709,8.245934,36.11652,18.36635,-50.02582
98,257,818,380,97,106,111,140,70.11761,78.78622,27.25143,8.784275,5.307994,10.75847,-17.32709,8.245934,36.11652,18.36635,-50.02582
83,222,746,308,93,103,140,165,70.11761,78.78622,27.25143,8.784275,5.307994,10.75847,-17.32709,8.245934,36.11652,18.36635,-50.02582
83,228,815,310,93,102,139,163,70.06611,78.53116,27.36867,8.860519,5.008757,10.84825,-18.366,8.00993,36.75514,17.98436,-50.50146
88,232,767,317,93,98,139,168,70.44295,78.6326,28.1167,9.307976,5.27373,11.08755,-18.54303,8.114505,37.07178,18.05945,-51.51535
109,327,832,399,118,118,150,172,70.44295,78.6326,28.1167,9.307976,5.27373,11.08755,-18.54303,8.114505,37.07178,18.05945,-51.51535
144,378,849,470,140,141,168,183,70.44295,78.6326,28.1167,9.307976,5.27373,11.08755,-18.54303,8.114505,37.07178,18.05945,-51.51535
179,439,871,543,171,181,148,170,70.85033,78.63719,28.17885,9.2089,5.087546,11.01122,-18.65692,8.081871,37.44425,17.58778,-51.81625
190,461,856,577,181,184,153,171,70.85033,78.63719,28.17885,9.2089,5.087546,11.01122,-18.65692,8.081871,37.44425,17.58778,-51.81625
196,469,854,585,186,188,189,214,70.85033,78.63719,28.17885,9.2089,5.087546,11.01122,-18.65692,8.081871,37.44425,17.58778,-51.81625
204,447,839,571,179,185,194,234,70.43681,79.1805,27.92072,8.92206,5.538323,10.89064,-18.05936,7.873314,37.44425,17.58778,-51.81625
202,453,869,598,181,177,187,224,70.43681,79.1805,27.92072,8.92206,5.538323,10.89064,-18.05936,7.873314,37.44425,17.58778,-51.81625
173,394,847,533,150,127,183,215,70.43681,79.1805,27.92072,8.92206,5.538323,10.89064,-18.05936,7.873314,37.44425,17.58778,-51.81625
161,366,850,502,138,117,178,216,70.42239,79.51387,27.86254,8.618772,5.365961,10.75964,-18.2178,7.641129,37.76659,17.88219,-52.6785
172,401,916,565,148,118,165,206,70.42239,79.51387,27.86254,8.618772,5.365961,10.75964,-18.2178,7.641129,37.76659,17.88219,-52.6785
179,419,885,593,171,133,202,223,70.47379,79.87783,27.44646,8.283243,5.090096,10.53861,-18.45123,7.3583,38.08638,18.05245,-52.39612
163,392,825,534,162,123,193,220,70.46509,80.49306,27.41691,8.068424,5.09109,10.42323,-18.24509,7.413721,38.01453,18.30683,-52.54156
176,412,884,572,172,129,203,227,70.46509,80.49306,27.41691,8.068424,5.09109,10.42323,-18.24509,7.413721,38.01453,18.30683,-52.54156
188,431,867,608,179,134,208,224,70.52685,81.01398,27.59775,8.051613,5.421196,10.2922,-18.035,7.3437,38.01453,18.30683,-52.54156
187,429,868,606,184,154,212,199,70.52685,81.01398,27.59775,8.051613,5.421196,10.2922,-18.035,7.3437,38.01453,18.30683,-52.54156
159,373,887,563,152,142,187,192,70.28078,81.82182,27.58662,8.058399,5.774721,10.35972,-17.58746,7.355674,38.21098,18.20089,-52.76212
157,355,930,553,147,146,194,191,70.28078,81.82182,27.58662,8.058399,5.774721,10.35972,-17.58746,7.355674,38.56225,17.87597,-53.0174
141,329,984,503,131,146,176,190,70.28078,81.82182,27.58662,8.058399,5.774721,10.35972,-17.58746,7.355674,38.56225,17.87597,-53.0174
131,317,1063,489,127,161,193,217,69.9622,82.54469,27.26997,7.989416,6.001325,10.30589,-16.9744,7.313731,38.56225,17.87597,-53.0174
106,251,1049,396,92,144,177,212,69.7262,83.10365,27.00513,7.837242,5.947316,10.16045,-16.62396,7.335182,38.86097,17.78155,-53.61618
112,289,1050,411,102,135,171,196,69.7262,83.10365,27.00513,7.837242,5.947316,10.16045,-16.62396,7.335182,38.86097,17.78155,-53.61618
116,279,1042,383,92,128,167,298,69.7262,83.10365,27.00513,7.837242,5.947316,10.16045,-16.62396,7.335182,38.86097,17.78155,-53.61618
131,308,946,436,99,123,197,302,69.18842,83.51994,26.5388,7.716553,5.900667,9.975324,-16.08438,7.237848,38.70802,18.10807,-53.39099
135,311,925,467,103,97,208,283,68.24661,84.28585,25.48977,7.395869,5.451706,9.710656,-15.77032,7.109441,38.85092,18.62522,-52.99518
160,363,986,568,129,93,203,294,68.24661,84.28585,25.48977,7.395869,5.451706,9.710656,-15.77032,7.109441,38.85092,18.62522,-52.99518
189,389,1026,583,150,103,190,278,66.49991,85.34157,23.91995,7.129354,4.903767,9.437034,-14.87897,7.128463,38.78331,18.82667,-52.81281
197,403,986,600,160,116,208,179,66.49991,85.34157,23.91995,7.129354,4.903767,9.437034,-14.87897,7.128463,38.78331,18.82667,-52.81281
203,416,1033,615,169,138,304,208,66.19051,85.58702,23.45066,6.973104,4.619091,9.247808,-14.76776,7.112328,39.49006,18.26532,-53.26038
199,404,967,575,166,143,297,208,65.29507,86.29663,22.08869,6.522183,3.795303,8.70138,-14.44705,7.065901,39.49006,18.26532,-53.26038
190,384,913,524,157,139,299,195,65.08273,86.98744,21.29126,6.15089,3.263304,8.024183,-14.23019,6.896646,39.47462,18.21067,-53.3367
153,317,810,470,127,129,300,191,65.08273,86.98744,21.29126,6.15089,3.263304,8.024183,-14.23019,6.896646,39.47462,18.21067,-53.3367
142,338,886,495,129,129,306,184,65.08273,86.98744,21.29126,6.15089,3.263304,8.024183,-14.23019,6.896646,39.47462,18.21067,-53.3367
114,278,825,420,108,101,192,129,64.32894,87.34425,20.77579,6.036219,3.418105,7.657485,-13.32635,6.770046,39.23923,17.69941,-53.59918
111,275,829,411,102,91,167,133,64.32894,87.34425,20.77579,6.036219,3.418105,7.657485,-13.32635,6.770046,39.23923,17.69941,-53.59918
98,255,831,376,97,88,157,143,63.75935,87.98846,20.16435,5.842169,3.286164,7.233489,-12.73373,6.75441,39.27956,17.4524,-53.5607
104,267,892,380,101,88,148,147,63.19586,87.9438,19.71729,5.689071,3.062705,6.87991,-12.55969,6.51493,39.35606,17.43198,-53.10617
99,212,793,304,81,94,148,143,63.19586,87.9438,19.71729,5.689071,3.062705,6.87991,-12.55969,6.51493,39.35606,17.43198,-53.10617
101,214,751,296,83,90,138,139,63.19586,87.9438,19.71729,5.689071,3.062705,6.87991,-12.55969,6.51493,39.35606,17.43198,-53.10617
103,221,778,316,88,94,138,134,63.03844,88.03583,19.57562,5.594393,2.859848,6.694142,-12.7865,6.305136,39.24043,17.68741,-52.70966
101,217,781,300,81,91,137,110,62.73178,87.94351,19.34332,5.507982,2.786859,6.496253,-12.72525,6.130038,39.24043,17.68741,-52.70966
100,207,645,321,81,95,149,122,62.73178,87.94351,19.34332,5.507982,2.786859,6.496253,-12.72525,6.130038,39.24043,17.68741,-52.70966
90,204,622,322,83,84,113,136,62.61969,88.05716,19.16548,5.282415,2.663187,6.17238,-12.58478,5.96161,39.02695,18.029,-52.31458
91,204,622,326,85,81,103,135,62.61969,88.05716,19.16548,5.282415,2.663187,6.17238,-12.58478,5.96161,39.02695,18.029,-52.31458
81,185,499,294,80,74,99,132,62.32216,88.18539,19.09574,5.31095,2.97691,6.153573,-12.09079,6.054811,39.10876,17.88342,-52.37488
107,253,469,385,106,88,99,135,62.32216,88.18539,19.09574,5.31095,2.97691,6.153573,-12.09079,6.054811,39.10876,17.88342,-52.37488
104,249,651,369,107,94,88,131,62.21344,88.15395,19.07131,5.329666,3.054126,6.092904,-11.75308,6.038448,39.19968,18.00442,-52.26581
104,257,659,375,113,97,88,131,62.21344,88.15395,19.07131,5.329666,3.054126,6.092904,-11.75308,6.038448,39.19968,18.00442,-52.26581
103,258,651,378,116,113,99,130,62.21344,88.15395,19.07131,5.329666,3.054126,6.092904,-11.75308,6.038448,39.19968,18.00442,-52.26581
102,256,643,368,112,141,123,129,62.77628,88.19619,19.36711,5.314681,3.209665,6.072491,-11.54974,5.992704,39.19968,18.00442,-52.26581
67,158,553,246,85,135,124,123,62.77628,88.19619,19.36711,5.314681,3.209665,6.072491,-11.54974,5.992704,39.19968,18.00442,-52.26581
51,135,407,169,65,146,133,105,61.26306,86.54156,19.44894,5.766443,4.008671,6.754194,-10.74908,6.549281,39.89611,17.07512,-52.62723
53,129,425,149,57,240,223,58,57.8194,81.56394,18.71142,6.061071,4.297359,7.214468,-10.31039,6.965862,41.13876,15.01327,-53.00687
55,137,464,139,47,248,229,50,56.62674,79.83414,18.46056,6.160707,4.394914,7.370484,-10.16159,7.106965,41.66294,14.43192,-53.09247
72,173,529,195,63,254,243,55,55.41796,78.08446,18.20793,6.260682,4.492757,7.52724,-10.01196,7.248715,41.66294,14.43192,-53.09247
76,181,550,221,69,257,245,56,49.7723,57.5015,18.33887,6.443004,6.450428,8.80108,-8.507538,7.646704,43.87502,11.90166,-53.54489
76,183,550,228,73,259,248,56,49.7723,57.5015,18.33887,6.443004,6.450428,8.80108,-8.507538,7.646704,43.87502,11.90166,-53.54489
75,181,543,222,69,172,167,53,45.73416,40.89159,19.90475,6.932323,7.160541,9.320283,-9.417145,7.172791,43.44541,12.4139,-53.45044
75,179,578,228,70,172,157,55,45.73416,40.89159,19.90475,6.932323,7.160541,9.320283,-9.417145,7.172791,43.44541,12.4139,-53.45044
75,178,573,208,64,142,117,47,41.03102,33.93756,19.14328,7.915617,6.682732,10.3059,-9.955994,7.157,43.86114,12.7064,-53.47476
69,168,545,166,57,135,110,45,41.03102,33.93756,19.14328,7.915617,6.682732,10.3059,-9.955994,7.157,43.86114,12.7064,-53.47476
68,164,666,172,56,111,89,43,39.28529,30.99283,19.10597,8.512266,5.997935,10.73472,-11.4762,7.019189,44.26799,12.80017,-53.23206
68,160,692,177,56,130,99,42,34.26398,26.70408,19.83281,9.341782,6.528202,11.35419,-12.3663,7.256103,44.29924,13.06647,-52.9635
65,149,658,159,52,114,104,39,34.26398,26.70408,19.83281,9.341782,6.528202,11.35419,-12.3663,7.256103,44.29924,13.06647,-52.9635
61,144,715,164,51,126,119,41,34.26398,26.70408,19.83281,9.341782,6.528202,11.35419,-12.3663,7.256103,44.29924,13.06647,-52.9635
69,163,778,172,54,133,122,46,30.94654,25.31893,19.96961,10.20647,7.048598,12.17194,-13.09753,7.881992,44.50549,13.72039,-52.33936
79,175,694,191,59,132,122,49,30.20005,24.32504,20.066,10.60454,7.054835,12.65891,-13.70209,8.207121,44.66933,13.88698,-52.22357
77,174,667,201,59,112,114,50,30.20005,24.32504,20.066,10.60454,7.054835,12.65891,-13.70209,8.207121,44.66933,13.88698,-52.22357
86,194,690,241,70,103,109,55,30.20005,24.32504,20.066,10.60454,7.054835,12.65891,-13.70209,8.207121,44.66933,13.88698,-52.22357
89,191,686,244,74,99,112,53,30.13265,23.59574,19.79528,11.04919,6.603305,13.49062,-14.25046,8.642549,44.61129,13.87593,-52.26852
92,190,607,254,75,102,118,53,30.13265,23.59574,19.79528,11.04919,6.603305,13.49062,-14.25046,8.642549,44.61129,13.87593,-52.26852
85,176,581,249,81,100,116,50,30.84267,23.19006,19.43883,11.31091,5.857161,13.98802,-15.13138,8.784326,44.5809,14.12796,-52.04056
92,198,668,276,89,97,119,72,30.84267,23.19006,19.43883,11.31091,5.857161,13.98802,-15.13138,8.784326,44.5809,14.12796,-52.04056
93,197,698,263,88,102,117,71,35.60918,25.38478,19.46526,12.23437,5.050681,14.81923,-16.02539,8.890724,44.23491,14.83306,-51.8541
87,182,626,243,80,116,115,72,35.60918,25.38478,19.46526,12.23437,5.050681,14.81923,-16.02539,8.890724,44.23491,14.83306,-51.8541
82,169,668,224,77,107,132,97,38.85928,27.65301,18.86145,12.70288,4.223864,15.33877,-16.02975,9.12787,44.03927,14.6605,-52.15753
83,169,709,210,67,104,131,99,45.135,34.29013,19.51061,13.1099,4.510999,15.99596,-15.53223,9.451323,44.03927,14.6605,-52.15753
88,206,687,215,67,103,130,93,45.135,34.29013,19.51061,13.1099,4.510999,15.99596,-15.53223,9.451323,44.03927,14.6605,-52.15753
88,212,643,215,61,100,167,128,45.135,34.29013,19.51061,13.1099,4.510999,15.99596,-15.53223,9.451323,44.03927,14.6605,-52.15753
85,214,623,214,61,77,168,126,48.45531,51.24818,19.18739,13.8606,7.924848,16.12756,-6.048401,10.25933,44.08927,13.82869,-52.51703
85,214,625,219,62,100,178,127,48.45531,51.24818,19.18739,13.8606,7.924848,16.12756,-6.048401,10.25933,44.08927,13.82869,-52.51703
85,217,558,225,66,105,185,127,49.27536,60.19009,19.52491,14.43346,7.692978,15.60173,-6.638763,10.15849,43.95994,12.52973,-53.358
83,195,624,213,68,114,181,128,49.27536,60.19009,19.52491,14.43346,7.692978,15.60173,-6.638763,10.15849,43.95994,12.52973,-53.358
71,177,622,192,64,114,149,92,49.27536,60.19009,19.52491,14.43346,7.692978,15.60173,-6.638763,10.15849,43.95994,12.52973,-53.358
68,170,626,184,64,107,140,97,49.27536,60.19009,19.52491,14.43346,7.692978,15.60173,-6.638763,10.15849,43.95994,12.52973,-53.358
76,184,653,236,77,177,173,83,51.58168,67.72482,19.88764,14.47592,7.160758,14.98752,-7.410828,10.13063,43.25753,12.64351,-53.04086
75,182,640,244,80,188,174,105,51.58168,67.72482,19.88764,14.47592,7.160758,14.98752,-7.410828,10.13063,43.25753,12.64351,-53.04086
70,164,547,227,77,187,181,108,53.28701,70.50148,20.26079,14.54733,6.86432,15.05909,-8.29071,10.20267,43.25753,12.64351,-53.04086
