maxgraf96/sEMG-myo-python/data/data_2.csv
EMG1,EMG2,EMG3,EMG4,EMG5,EMG6,EMG7,EMG8,FingerJoint1,FingerJoint2,FingerJoint3,FingerJoint4,FingerJoint5,FingerJoint6,FingerJoint7,FingerJoint8,wrist1,wrist2,wrist3
473,323,321,185,140,146,339,189,19.86529,26.25024,52.34559,77.69064,62.61497,79.74678,58.59251,77.16593,32.41389,71.11782,-28.24402,
475,284,333,345,289,179,363,157,20.34449,26.03925,52.78067,78.00673,63.06844,80.0469,59.10112,77.6946,32.42213,72.3898,-25.77203,
478,306,331,435,376,225,465,179,20.58632,25.71369,53.20877,78.20337,63.55105,80.10633,59.79646,78.12276,32.28126,75.52528,-20.47696,
444,380,328,517,439,223,493,206,21.26968,25.87902,53.40038,78.36421,63.70035,80.02993,60.28466,78.04361,31.70551,78.34505,-16.20325,
357,369,280,530,444,231,515,203,21.37446,25.84763,53.52056,78.84005,64.07092,80.12381,61.24278,78.26122,31.43839,79.35236,-13.91284,
328,372,302,553,445,227,548,204,21.84986,26.11314,53.63742,79.13624,64.29588,80.16184,61.86562,78.32716,30.68792,78.49937,-15.052,
318,361,300,495,371,200,514,198,21.88279,26.28126,53.40498,79.38852,64.2218,80.09,62.28831,78.344,29.98717,77.72375,-15.95163,
209,285,274,432,293,156,375,152,21.9892,26.40091,53.55737,80.05435,64.65469,80.3128,63.12406,78.50426,29.81183,77.02507,-17.17334,
185,174,267,313,187,147,317,108,22.30346,26.6086,53.61806,80.48264,64.88078,80.60832,63.76375,78.68358,29.36357,75.6312,-19.73001,
204,179,244,279,171,125,249,96,23.58859,26.72778,53.88945,80.75257,65.35781,80.82788,64.85392,78.622,29.07052,74.79585,-21.14221,
201,182,230,227,175,126,148,70,23.79269,26.63979,53.99693,80.90767,65.7609,81.14255,65.68627,78.72575,29.07772,74.33586,-21.80145,
182,191,237,173,169,133,133,70,23.68906,26.32916,54.1096,81.04928,66.23329,81.5659,66.49975,78.89308,29.14088,72.55011,-23.78772,
187,188,261,171,148,121,134,70,22.99314,25.22829,54.0126,80.88306,66.83174,81.89374,67.42758,78.95878,28.53726,67.30067,-29.21991,
162,176,287,164,132,108,135,70,23.0796,25.28637,53.39151,80.14337,66.4136,81.41565,67.7204,78.00542,28.93774,61.9203,-33.97623,
136,169,328,178,136,112,138,83,23.58816,25.21105,52.93021,79.72671,65.8891,81.02122,67.62051,77.37451,29.06277,63.84166,-33.87643,
116,146,356,186,132,108,134,81,24.06734,25.16311,52.35061,79.28312,65.16016,80.49493,67.27789,76.64455,29.09605,63.80437,-35.25632,
108,124,360,205,146,114,122,75,24.20493,25.23171,51.73114,78.69733,64.48026,79.98547,67.24416,75.65843,29.3449,63.8175,-36.21359,
86,127,387,181,149,112,89,74,23.85381,25.1887,51.79803,78.56586,64.2703,79.80671,67.44784,75.14138,31.07101,61.15719,-37.88602,
84,141,498,202,142,107,103,110,23.46703,25.20681,51.81465,78.45119,64.13455,79.72962,67.1981,75.02735,32.1287,60.06307,-38.53143,
76,155,557,210,133,104,97,133,22.20345,25.45563,51.5335,78.18871,63.70995,79.41078,67.07277,74.75492,35.27229,58.23538,-38.77155,
68,160,680,230,116,95,96,170,21.20936,25.79294,50.81019,77.70032,62.32081,78.86917,65.49728,74.55968,37.21049,59.12653,-37.31183,
70,173,792,226,95,70,90,187,20.87729,25.92757,50.53998,77.51711,61.69778,78.65167,64.68095,74.54857,37.28054,59.46791,-36.42075,
83,191,934,254,107,76,116,205,19.3251,25.94321,44.42353,67.52965,50.23859,71.67542,46.32443,69.53242,37.19132,60.90452,-34.27563,
102,218,995,293,125,129,133,205,17.70921,25.7988,36.21922,53.04379,36.82477,61.39707,26.62245,62.47131,36.94084,62.66888,-33.42279,
106,226,1017,304,131,133,155,201,17.02214,25.66308,30.31568,48.15281,28.64411,55.71868,18.47014,58.68932,38.39091,64.11811,-32.62997,
111,228,979,306,135,150,215,249,16.57607,25.6418,24.4612,43.33749,21.86126,49.75176,13.07925,53.45371,42.51743,63.64463,-33.71866,
117,236,981,312,138,159,238,243,16.5045,26.01175,23.09435,43.94561,20.84538,49.04988,12.29965,51.90704,47.72012,61.60211,-36.70361,
115,220,1019,305,124,160,237,266,16.4205,25.941,22.66512,38.48929,19.71495,41.96117,9.937119,46.15239,49.93235,59.83563,-38.75436,
101,185,955,258,110,151,274,294,14.61366,25.00712,16.15015,32.34015,12.47929,33.7109,4.159089,39.01933,54.11686,62.02489,-36.69235,
106,177,908,254,111,159,284,311,13.75674,24.53919,14.01886,30.66003,10.17278,31.79242,2.206525,37.20206,51.7105,63.77191,-37.15646,
105,177,897,269,114,152,251,255,12.91175,23.89137,11.61054,28.42352,6.715655,29.14606,-1.124939,35.04926,51.14379,65.19464,-36.22992,
105,173,919,296,114,142,235,251,10.65722,22.38856,7.339776,24.3674,2.287254,25.9167,-4.455933,31.36429,52.43224,65.53942,-35.52936,
100,165,767,291,112,137,224,210,9.664636,21.74192,5.862798,23.64157,0.3128271,26.17071,-7.195892,30.88177,54.43544,64.49277,-36.23087,
112,162,707,278,103,103,155,147,8.381686,21.05234,3.693853,22.24047,-1.60199,25.59254,-9.244202,29.85765,56.88338,61.10475,-39.12665,
113,136,688,259,89,83,106,84,6.756556,19.37952,1.752911,19.43817,-2.61499,23.44529,-9.782318,27.92727,58.65093,57.07261,-42.95422,
120,122,666,219,75,63,89,80,4.981411,16.60718,0.149589,15.59803,-2.561157,19.82793,-8.876343,24.7922,62.88298,53.42924,-46.32507,
118,96,480,161,70,73,119,120,3.993994,15.66468,-0.369873,15.89726,-0.8683167,19.78882,-5.213593,25.08953,64.07814,48.98625,-50.52521,
116,87,377,134,73,77,132,137,2.508028,14.08174,1.647438,13.88994,5.971086,16.30958,4.646441,22.14313,65.96522,39.84132,-58.19339,
101,84,330,136,80,76,131,136,0.01535819,12.79902,7.196409,11.3929,17.94373,16.02683,19.03037,19.58184,70.6964,16.26339,-78.22241,
90,86,324,120,81,72,130,132,0.1251071,13.12607,9.975756,11.06592,25.8095,17.12632,26.49335,18.46662,70.97683,4.189897,-88.59912,
73,83,267,102,79,70,123,131,-0.9334412,12.99247,18.52682,13.53074,37.82486,20.40646,35.39487,20.08027,70.2746,-19.49066,-109.5224,
78,106,319,96,78,109,145,188,-1.11496,12.50538,30.23771,15.63855,46.8234,23.1672,35.35805,18.55756,66.92986,-45.52023,-132.88,
81,110,521,115,73,113,153,199,0.4494575,12.9523,33.18907,17.56613,45.99146,22.69723,34.62582,18.58628,65.22954,-55.80579,-141.3071,
72,118,599,131,61,130,158,206,4.038417,13.85424,37.08614,19.13605,46.1164,22.11967,34.39973,18.78952,67.62209,-54.27603,-139.0016,
75,126,635,168,83,140,163,212,21.53316,15.18384,42.56824,19.83436,41.43916,20.67737,24.04658,17.55775,70.24232,-48.50363,-132.8116,
98,204,824,270,100,147,168,216,28.96884,16.14072,42.14884,19.79848,38.60912,19.60445,21.00943,16.47202,69.69111,-54.73679,-139.4852,
91,213,895,319,101,121,127,143,31.90742,16.67727,36.99469,18.47394,33.61181,16.91641,19.63568,14.87158,70.53986,-54.59409,-140.2166,
107,274,987,379,115,116,144,114,35.39578,17.20834,36.89023,17.74565,32.5356,16.39245,19.38106,14.46403,70.90256,-55.10849,-141.1531,
112,292,1050,423,124,112,150,108,34.67632,17.6098,35.94221,17.15926,31.65793,16.70894,18.61445,14.91087,71.19421,-54.43939,-141.4362,
114,305,1086,440,116,103,155,96,35.48164,18.19541,35.76265,16.75779,31.22709,16.99661,18.12081,15.4266,72.82756,-49.0484,-137.9999,
147,320,1133,535,131,107,198,113,35.43165,18.80252,33.261,16.59829,28.61828,17.04199,17.11087,16.01569,75.70633,-32.63434,-123.9001,
189,333,1102,524,133,106,199,158,34.66243,18.88563,32.1113,16.51198,27.35903,16.87931,16.65504,16.00578,75.07794,-34.61069,-127.0965,
190,295,1003,511,130,108,179,158,32.26905,18.86871,27.87758,16.09186,23.13997,16.25253,15.28407,15.87521,74.00529,-34.72272,-130.1155,
188,274,902,473,130,92,168,155,29.93033,18.67738,24.6966,15.71899,21.13754,15.54786,14.91317,15.45185,72.66056,-32.00775,-130.0118,
190,263,841,449,126,91,161,166,27.18973,17.73224,23.8143,15.23603,21.01081,14.98608,14.74839,14.90663,71.92113,-29.81412,-128.6277,
154,186,559,260,96,97,104,149,16.52682,13.44887,16.50201,11.38489,18.65651,12.24708,14.93681,13.21535,70.7184,-31.24341,-130.5053,
109,362,479,219,91,101,129,109,12.87864,12.72583,16.34494,11.35852,21.43562,12.03219,20.58794,12.84022,68.92541,-34.9545,-134.7377,
98,372,292,133,80,103,130,103,9.094273,12.2301,15.1216,11.53158,25.16256,12.04483,34.81536,13.17691,66.97461,-37.99246,-137.0768,
104,539,254,112,60,106,130,112,5.032569,12.0642,13.61669,11.54076,28.09331,12.21209,42.57148,12.93801,65.15073,-40.31003,-138.8472,
101,550,235,94,58,112,148,128,1.05519,12.93006,18.79774,12.84283,36.03963,14.13826,41.29621,12.65998,60.79325,-45.32101,-142.7573,
101,579,242,80,57,111,178,137,-1.82843,13.84949,22.83293,15.02946,41.00986,15.87998,41.62372,13.04349,56.91276,-51.76236,-147.3611,
96,489,387,138,63,113,161,134,-1.989258,14.22579,25.18007,16.27151,42.65903,16.57348,41.68732,13.15467,56.28997,-52.96182,-148.0404,
115,510,468,187,70,114,160,165,-0.6499023,14.84198,26.75166,19.21496,40.94479,16.94165,39.5607,12.65697,57.14827,-53.14331,-147.4174,
112,351,655,207,77,159,201,170,1.507651,15.52132,32.16752,23.08533,42.763,18.01692,37.16943,12.40104,57.5696,-53.01007,-146.1999,
112,343,769,234,84,236,299,151,5.328973,15.47205,31.81928,22.88107,37.22029,16.55264,28.07654,11.73481,56.41713,-54.914,-146.8496,
125,337,912,335,103,255,304,152,21.69581,17.57924,33.81232,21.51788,33.49408,16.83837,19.19655,11.50349,55.49986,-56.06439,-148.1978,
128,337,1004,397,120,256,303,152,29.01821,18.35673,33.06531,20.54547,30.14346,17.08603,15.84737,11.26711,55.96027,-55.64215,-148.2544,
127,326,1119,408,123,255,301,120,32.51975,18.81686,32.10461,19.63673,27.34027,17.28815,14.17371,11.25675,57.01324,-54.151,-147.8992,
144,329,1061,417,125,282,345,103,31.97455,18.76924,29.11329,18.68807,21.979,17.13502,11.53626,11.33351,57.98447,-53.16376,-147.8356,
159,320,992,412,123,227,263,92,31.70758,18.98787,28.59929,18.63519,21.74867,17.24343,12.07753,11.50287,57.38395,-54.46851,-148.7805,
199,276,866,337,106,199,237,74,31.07194,18.92289,26.87419,17.7164,20.81033,17.10954,12.67902,11.66591,56.23539,-56.49469,-150.0474,
193,289,696,233,81,195,236,59,29.28014,18.67801,24.91861,17.05968,21.78548,17.27955,17.6959,12.29392,54.99582,-59.07367,-152.2664,
186,479,424,176,71,195,236,49,25.9424,18.29848,21.47434,15.99819,22.93532,16.9573,24.17961,12.37487,54.10549,-60.54175,-153.7982,
174,614,295,135,58,119,141,40,25.21104,18.16873,21.0588,15.97286,24.26547,16.73857,29.04967,12.28748,53.89884,-60.71423,-153.959,
161,829,225,113,56,142,202,34,22.16855,17.90391,19.60056,16.24632,26.07597,16.08237,36.17599,11.80093,52.15295,-60.20013,-153.5168,
90,881,193,109,59,141,203,35,18.80674,18.25644,24.35906,17.56257,34.2725,17.81404,40.83978,12.68573,50.56621,-59.85046,-153.4019,
88,889,196,107,54,140,200,51,18.26709,18.85481,29.94991,18.25989,43.66409,22.26576,41.7658,12.85061,49.16608,-60.75436,-154.5578,
79,789,278,101,49,136,198,112,17.97944,19.39362,38.87011,18.9799,57.04534,30.21368,43.7718,12.44663,47.28717,-62.42764,-155.8201,
82,681,478,109,59,142,202,216,18.88428,20.32469,44.06248,20.89324,58.31236,33.9597,38.77063,11.2821,44.98849,-64.73004,-157.7321,
99,409,681,251,84,138,179,234,19.04606,20.59974,46.45685,28.65687,54.82626,35.12452,34.89133,12.95402,44.33802,-65.42926,-158.6027,
121,325,916,346,109,153,182,245,21.27487,20.77391,43.61197,32.12109,44.56897,29.38334,22.74082,13.67324,43.91528,-65.19,-158.5145,
136,297,1059,424,122,175,195,251,26.32185,20.60804,42.28743,31.98839,39.91955,27.262,19.49498,14.30898,42.78994,-65.46005,-157.5488,
139,314,1141,446,124,205,232,237,30.58632,20.54632,40.58226,31.37679,36.03338,26.82764,18.49239,14.73167,42.71624,-64.86984,-157.1006,
144,340,1215,528,141,198,222,160,32.85228,21.0807,38.04625,28.64828,32.28818,26.19698,16.76687,15.23092,42.55312,-64.39203,-156.7314,
139,333,1223,501,130,210,236,138,31.31014,21.17913,29.34258,23.30871,23.08948,23.56569,14.24357,16.16812,43.1013,-64.0105,-156.0947,
124,290,1094,452,111,205,233,153,29.55931,21.07078,26.22894,21.38698,21.57635,22.37258,14.33873,16.50365,43.45383,-64.06036,-155.5326,
128,286,1064,447,114,239,252,139,26.12489,20.72705,19.57992,18.73175,19.97774,20.34747,19.66727,16.42427,44.7916,-63.02966,-153.8813,
138,301,1101,527,129,233,239,138,25.40005,20.91623,17.06805,18.27217,19.73459,19.59986,22.54464,16.00896,47.42938,-61.53687,-153.1836,
239,276,998,479,113,237,243,186,24.9164,21.06915,14.69148,17.94883,18.25797,18.75446,23.7045,15.3166,49.77443,-60.07681,-152.4073,
288,264,878,474,113,228,205,189,23.68455,20.98178,13.74977,17.50974,17.97964,17.77906,24.43535,14.46998,48.45312,-59.44528,-152.416,
319,260,846,464,112,230,211,169,20.02164,20.4786,10.90079,17.1055,18.49338,17.32201,28.07679,13.74892,48.34851,-58.59692,-151.5872,
404,225,706,403,97,179,180,175,19.45435,20.42046,10.26779,17.19054,18.84029,17.28112,29.69301,13.40512,48.74303,-57.69348,-150.6488,
417,188,447,260,75,159,153,169,15.57003,20.09526,8.647086,17.75521,19.4548,17.07631,33.56037,12.8646,48.39855,-57.29047,-150.0356,
376,191,316,181,68,192,161,114,11.9811,19.90188,6.471694,18.0802,20.22616,17.15192,37.15443,12.69475,47.50929,-58.04587,-150.3819,
416,213,253,114,56,177,165,111,10.81183,19.74871,6.524038,18.18821,20.96813,17.13557,38.24658,12.63811,47.07527,-58.61459,-150.7481,
406,217,212,121,57,171,155,108,10.03695,20.13697,10.42662,19.473,27.3404,19.74178,46.90699,13.38538,46.78846,-59.11148,-150.8609,
323,232,191,114,55,176,152,98,9.532588,20.65616,18.05509,22.6799,42.20606,26.14651,55.15659,15.3119,45.51908,-59.20181,-150.1027,
311,237,182,101,55,178,159,103,9.169178,20.90575,22.69417,23.77826,47.03509,28.20444,54.76703,16.27224,44.53009,-59.6445,-149.9952,
300,233,177,105,56,129,134,104,9.151279,21.03906,24.44238,24.48573,48.4823,29.09487,56.32467,16.96514,43.62213,-60.0351,-149.8717,
181,208,409,125,60,118,114,114,9.161973,21.72693,24.53253,29.78805,49.80998,36.92321,61.92067,22.92206,43.52814,-60.5174,-150.6822,
148,208,539,114,60,116,118,126,9.40822,22.24688,28.44331,33.32705,51.3933,37.40723,62.00623,23.45205,43.71307,-60.94672,-150.8956,
135,190,612,117,60,121,136,134,9.943862,22.66568,31.96568,36.75933,52.06952,37.63826,60.3317,23.43494,43.92552,-61.10187,-150.9084,
106,160,650,120,56,129,140,135,12.72842,23.85416,33.83553,39.16713,48.26339,38.03096,51.10373,22.17809,44.03316,-61.0571,-150.9733,
100,161,680,129,61,196,223,123,18.02806,25.74294,32.33908,39.50302,41.57934,38.35917,34.74315,20.2209,44.06491,-60.9144,-150.8967,
93,174,737,172,68,228,250,114,30.0034,29.22591,28.36199,39.82382,25.43708,35.96939,3.278522,18.62185,43.58728,-61.44193,-150.9071,
94,219,827,206,69,229,248,110,32.95847,29.58076,29.43114,40.05855,25.11815,38.34293,6.178637,20.24634,43.02515,-62.08813,-151.2313,
93,262,899,250,79,236,246,101,30.89631,29.5392,25.95264,38.27215,20.82215,36.66273,8.978898,20.67238,43.13705,-62.53772,-151.9074,
113,278,986,383,106,246,262,101,31.14059,29.67098,25.59401,36.25377,20.22688,34.6325,8.759789,20.2668,44.18533,-62.74741,-152.1156,
113,279,1013,395,103,211,199,138,31.46686,29.8449,24.10074,35.38877,17.52838,33.85037,7.608306,21.472,45.15258,-63.12531,-152.2582,
143,344,1045,513,133,182,166,141,32.58586,29.53705,22.97461,33.17178,16.36529,32.17132,7.385973,20.90068,45.58578,-63.22467,-152.0818,
216,338,969,515,134,185,170,135,32.48199,29.12608,20.39011,30.79567,13.56788,30.41224,7.006122,20.59775,45.72979,-63.31912,-151.9984,
236,316,875,511,131,162,151,134,29.63313,28.15198,15.73775,26.84193,13.57086,27.99737,12.79768,20.73152,46.12943,-63.09436,-151.8803,
259,303,755,429,111,144,139,127,26.25556,26.79299,13.00456,24.65271,13.70733,26.09986,15.79138,20.23777,45.79491,-62.64218,-151.8854,
280,300,695,418,111,179,179,91,21.1978,24.75105,9.956617,21.85987,13.21186,23.70751,17.86852,19.25946,46.16946,-62.4248,-152.6716,
275,216,465,234,65,174,180,94,13.78293,21.37687,8.817863,21.12871,16.61259,22.72084,27.29486,18.70661,45.61872,-63.00586,-153.4597,
329,193,331,201,59,170,182,111,11.80214,20.94397,10.53511,21.86684,21.0446,24.45848,35.92409,19.46306,45.38637,-64.23279,-154.349,
414,261,301,160,54,173,190,138,11.7033,21.37665,12.40946,23.04183,24.25107,26.09682,39.02207,20.16252,44.64953,-64.80475,-154.4409,
474,287,285,150,59,164,170,154,11.44974,22.1269,21.84191,27.14221,37.99161,32.69811,40.95659,22.43747,42.59616,-65.66235,-154.4826,
477,305,307,151,59,101,117,152,10.07054,22.35105,26.83912,29.23216,43.61586,35.2938,44.3321,23.38349,40.86731,-66.37881,-154.5367,
486,308,311,138,57,148,143,143,7.521684,22.76043,23.48239,31.33371,42.11927,41.45721,45.70846,28.34911,39.84127,-67.11942,-155.0976,
529,364,303,133,59,154,140,153,8.928405,23.53347,26.92787,31.90538,46.1456,42.24229,47.09536,27.89162,38.95314,-67.61841,-155.1076,
480,328,272,124,58,149,131,136,9.160145,24.93847,24.80225,40.94391,42.26285,56.6308,46.01401,44.77211,37.98577,-67.70468,-154.6573,
409,306,248,103,53,149,131,118,11.06899,28.5041,23.06231,47.57325,39.73087,68.0357,44.50846,58.17052,38.81019,-67.20795,-154.3723,
397,282,233,81,54,234,253,133,15.89092,39.3315,22.65699,54.64767,37.25181,73.91865,41.89202,65.46792,37.89412,-67.68051,-153.37,
386,280,289,106,53,227,245,187,28.77789,42.26447,27.25662,56.9913,39.27734,79.8298,41.54771,73.809,38.19572,-67.38705,-152.5962,
221,201,468,140,62,230,247,175,34.90547,44.51218,28.70792,57.98333,37.62911,76.42191,39.2676,73.6992,38.76015,-66.51367,-151.8928,
162,170,716,185,67,240,253,170,35.23961,46.15108,29.25793,58.10419,36.68153,75.71866,37.42557,73.98759,39.89388,-65.84772,-151.7133,
141,195,884,201,71,268,276,172,34.73978,47.63013,28.80463,57.69356,35.63267,74.79752,35.8086,73.69655,40.38552,-66.11343,-152.4601,
135,237,1023,310,88,224,199,164,34.16693,46.79748,27.69696,55.98801,33.22107,72.28378,32.33185,71.95819,42.09403,-66.28351,-153.5008,
115,318,1132,350,95,217,225,102,33.56191,46.05933,25.37207,52.99229,27.143,67.46894,24.12792,68.16485,46.48548,-63.16986,-151.8459,
135,396,1198,425,113,238,250,90,33.35879,43.89051,21.17722,48.90168,16.18557,59.56415,13.06765,62.05757,54.14495,-55.94653,-148.441,
150,466,1143,463,124,262,267,97,33.47661,43.22852,20.38122,47.53133,13.9911,56.05506,11.34694,59.95569,56.61541,-52.54041,-146.0863,
161,499,1098,520,133,253,247,143,34.47433,40.53442,19.67893,40.36692,13.25796,44.08816,9.729904,46.11901,60.03918,-46.92734,-141.5377,
176,568,1052,592,160,240,227,146,31.51487,32.93888,16.31792,32.71879,11.84556,33.70372,10.65043,32.86451,64.19058,-31.53976,-128.3068,
195,555,1066,627,166,242,231,144,30.65544,30.88593,15.21402,31.1247,11.11605,31.48154,10.49353,30.33427,64.69464,-28.08817,-125.4978,
191,514,949,589,156,224,206,154,25.2176,25.62799,11.50219,25.79021,10.34319,27.18464,11.23315,25.48157,65.73297,-19.49036,-118.4157,
212,458,966,583,151,188,175,150,18.26541,19.70809,6.719667,14.92727,8.723146,15.89433,11.75473,13.46041,65.88787,-4.94046,-105.7834,
247,419,933,538,143,160,177,106,13.8763,16.88314,4.122165,14.13292,8.856979,15.6723,12.85054,13.03744,65.24775,0.1440645,-100.7602,
235,285,844,401,102,146,182,91,10.2807,15.60673,2.800588,13.5528,11.03002,16.49589,15.41784,12.81444,64.89773,0.2485645,-99.7955,
222,211,636,300,82,119,126,83,5.107929,15.5031,1.34643,12.8798,15.69607,18.3424,22.46378,11.58388,64.52843,-8.908386,-106.7044,
251,172,601,277,75,91,111,56,3.327649,14.86485,2.053826,13.63325,18.96477,20.9463,28.73107,12.60441,64.08944,-13.29419,-109.9202,
234,150,408,191,64,162,241,52,-0.3335571,14.1524,2.297746,14.43408,24.02729,21.10988,38.8813,13.91847,63.70703,-17.02087,-112.0951,
190,118,252,175,64,175,249,49,-0.298584,14.37678,4.323748,15.4634,27.32239,22.42699,39.75391,14.06534,63.38187,-18.57556,-112.2893,
182,112,218,168,63,173,246,48,0.4905114,14.75812,7.546318,17.0669,30.26827,23.48727,38.76869,13.88116,63.22669,-18.22864,-110.9123,
172,105,313,160,73,184,259,57,1.566719,15.29825,12.35979,19.04328,33.22442,23.76587,37.70802,13.34261,63.68287,-13.72961,-106.3094,
109,97,422,151,80,201,278,55,2.055904,16.04793,21.27341,23.02139,37.95069,25.2444,37.26601,13.63204,64.17656,-10.99789,-103.5456,
98,132,548,203,99,248,348,87,6.352077,17.56196,26.37773,27.39753,36.93932,24.64201,35.65666,13.40318,65.29587,-4.467926,-97.32449,
90,146,657,210,95,250,359,102,21.72415,21.32121,34.63863,29.26587,33.59072,25.08625,20.05073,12.71815,66.509,8.514969,-84.91498,
96,179,890,273,103,255,367,123,43.21786,26.11282,38.07007,28.70712,27.62898,26.54735,-7.468567,12.66885,67.7104,9.966611,-83.56805,
110,268,1055,402,121,252,370,129,47.88591,27.42959,38.72057,28.58476,26.12827,27.06878,-12.69342,12.69439,67.65925,9.982789,-83.651,
109,304,1155,473,125,248,380,128,51.88316,29.62134,37.7202,27.97382,25.82986,26.87273,-3.425293,13.73344,66.74812,12.86208,-81.94385,
141,353,1278,553,137,181,267,126,51.35991,31.99749,36.75126,27.41653,23.86103,26.89503,-4.599609,15.06914,61.72899,31.00854,-67.00735,
193,398,1338,626,171,173,244,139,49.93521,32.21321,34.0449,26.46777,20.86905,26.20112,-5.382904,15.75742,60.40826,33.03582,-65.48645,
324,444,1225,697,182,169,233,138,47.32561,31.89376,29.46891,24.6636,15.40615,24.75612,-6.654938,16.39714,58.3918,36.23504,-62.43011,
356,411,1069,642,171,172,249,131,40.9548,31.08034,20.08018,20.62776,6.941496,21.9409,-8.61618,17.44584,57.14658,42.5705,-58.56119,
400,397,960,603,170,164,243,132,30.37228,23.67761,13.75278,17.35838,4.147522,19.19818,-7.445679,17.53527,56.92541,47.27525,-56.58353,
466,359,731,522,150,145,222,138,19.89838,19.81287,12.46287,17.58556,8.054035,18.63324,-1.40921,17.72402,58.00663,47.67616,-58.39899,
623,364,519,428,112,141,223,136,13.2348,18.43579,10.41182,17.87484,11.90561,18.38513,7.913481,17.78622,56.33349,49.3073,-57.92902,
626,292,465,243,81,141,222,133,7.872384,17.59465,7.615723,19.20193,15.63217,19.98062,22.05777,19.01808,56.54076,47.49404,-58.63016,
662,276,458,226,79,132,195,139,4.34497,17.08747,6.13389,20.86382,18.59067,21.9173,31.62889,20.98365,56.43277,46.77306,-58.91425,
643,260,423,194,84,153,235,140,-1.746887,16.04498,5.109349,19.44966,22.97944,21.46363,39.20894,20.20794,56.22647,45.9699,-58.87097,
599,232,394,165,87,140,235,119,-3.053406,14.98039,11.30872,20.39008,29.58319,23.16656,35.56868,19.6165,56.53363,42.62824,-60.02744,
416,184,547,165,87,132,229,107,-4.242157,14.58221,15.13803,22.75599,31.85306,23.52903,32.20909,19.14121,57.03271,42.85739,-58.9382,
322,260,668,203,96,170,260,130,-3.764832,14.50282,21.12578,27.10484,33.59098,24.29996,29.09871,18.50244,57.5666,44.90392,-56.87457,
185,267,728,206,92,169,273,175,-3.411163,14.6763,24.05957,30.103,34.17521,25.07407,28.69851,18.5575,57.04663,48.97427,-53.32285,
158,276,816,218,87,154,269,192,-0.4234924,14.99858,25.5245,30.33449,32.35952,24.90935,24.37717,17.96472,56.55624,52.06997,-50.23804,
118,280,844,239,87,156,281,196,10.04111,18.54749,31.02222,33.01022,31.77239,26.59018,18.14413,18.75345,53.53746,56.23837,-46.76764,
116,278,844,270,88,158,285,189,21.06904,21.54901,33.71365,31.88107,30.81594,26.90978,13.32242,19.42661,50.15907,56.58196,-46.11206,
125,304,974,366,95,121,274,171,32.23056,24.50855,35.03768,30.78998,29.51929,26.82513,10.06512,19.65161,47.36335,57.97383,-45.55383,
122,314,976,392,107,115,276,122,45.86243,29.28004,35.45988,29.92888,26.54989,26.45976,4.262337,19.14823,45.96588,57.39597,-46.95734,
122,322,1005,423,109,162,303,101,48.11443,30.89834,33.54861,28.64595,24.01251,25.6383,5.002424,19.5844,43.99402,58.36589,-46.76785,
128,357,1072,485,126,157,290,106,53.32229,32.86687,33.13245,28.17614,22.5006,25.46791,4.411115,19.56912,40.41005,60.57351,-45.59872,
150,402,1082,538,137,162,299,122,47.88945,29.12506,26.16658,22.93044,14.23963,22.65676,1.695747,18.78364,37.85447,62.51659,-45.02759,
148,408,931,535,147,175,289,144,39.94577,24.14033,17.2802,17.28449,6.926039,19.38878,-1.341492,18.56338,25.48051,73.33124,-39.56256,
173,415,1083,535,140,222,377,156,33.97467,21.07813,13.22844,15.09022,5.712367,17.70616,-1.511658,18.59996,22.68929,75.51765,-38.63693,
237,414,1131,509,139,239,438,164,27.45718,17.45334,9.701476,13.20662,4.858903,16.14957,-1.51767,18.653,22.45017,76.08782,-38.40277,
354,406,1085,465,128,242,454,159,20.00064,14.61819,5.832894,12.85778,4.561375,15.26523,1.818403,18.09847,24.18524,76.43989,-38.64124,
376,343,1052,406,121,240,450,148,16.00501,12.47646,4.477195,12.58846,4.066314,14.50323,2.12175,17.54205,23.86988,74.9831,-41.48712,
388,263,1046,321,99,228,451,121,11.70797,11.37443,2.888226,12.5135,4.041536,13.88435,3.059025,17.25127,24.47999,75.1263,-43.97507,
500,270,908,314,109,188,368,115,5.749273,11.0108,-0.09466553,12.75305,4.678145,13.38661,6.454105,17.19848,23.26536,76.21856,-44.90396,
532,259,691,306,112,115,223,115,3.656256,10.77696,-1.143585,13.28764,7.993228,13.82378,17.112,17.78741,22.78205,77.48991,-44.7254,
524,222,629,271,106,129,234,110,0.8982502,10.62965,-1.871735,13.43135,13.54228,15.61409,30.54355,18.93958,22.30994,78.22736,-44.00162,
517,208,580,239,99,126,227,115,-0.5014648,10.49302,-0.11026,13.73029,19.61182,18.15915,35.55835,20.24373,22.43703,76.8987,-44.71991,
509,204,558,219,106,133,220,112,-2.078613,10.4916,2.641405,14.68444,27.71706,23.79063,40.56554,21.75765,21.81838,75.74338,-45.63885,
396,171,511,187,111,128,214,98,-4.631653,11.22535,5.694928,17.32129,38.03064,37.52098,45.65925,24.90304,20.32589,75.85257,-46.29272,
326,203,576,193,113,128,190,77,-3.784271,11.98057,13.36237,21.10522,45.12188,38.9273,50.00314,27.23208,20.4903,73.97205,-46.94968,
210,222,695,199,116,110,109,76,-4.316345,12.26335,16.36584,23.3864,45.18212,38.28542,48.61401,27.713,20.98228,73.40958,-46.39578,
168,230,768,207,120,125,130,78,0.9643189,13.99644,24.98549,32.05368,41.61628,36.22943,41.35384,27.85508,21.4307,73.03969,-44.06638,
153,235,837,224,117,114,139,85,10.96879,17.67742,35.33479,41.13114,36.49922,35.18427,26.10132,26.4035,21.02151,74.80206,-37.2699,
135,226,857,217,103,111,142,89,32.28614,21.10642,40.68968,41.2238,30.46228,34.55825,1.068791,24.95473,20.58585,75.78396,-34.84137,
96,195,931,219,91,115,216,89,41.4416,22.59343,40.81748,39.25264,31.51926,35.72952,11.08334,26.92976,20.39804,77.11433,-34.53812,
90,184,1020,247,99,149,239,88,40.07183,23.50861,30.48781,33.29684,20.25446,31.66108,2.770104,26.47132,20.77332,79.41273,-35.20193,
133,307,1024,432,179,209,373,131,40.09631,23.79891,29.07173,32.33456,17.84458,30.9501,1.116277,26.38869,21.03013,79.8196,-35.29605,
134,309,1099,478,186,225,402,140,39.83332,24.14002,27.15024,30.75769,14.75164,29.66518,-0.8045044,26.3347,21.49257,80.62009,-35.371,
151,341,1129,554,200,246,468,151,39.20224,24.35881,23.29115,27.54516,10.25582,26.66417,-2.620514,25.56673,20.97276,81.70241,-35.90616,
170,374,1069,600,211,251,451,152,38.98407,24.39221,21.73396,26.36425,9.069455,25.77287,-3.043884,25.26871,20.56349,81.98952,-36.3443,
191,423,1003,705,228,244,453,163,31.92035,20.15544,11.7868,17.36237,3.055118,20.67796,-4.680481,23.45994,18.65325,82.99834,-37.55893,
249,458,1012,721,215,206,353,147,26.58047,16.27943,6.993524,13.29689,1.836218,17.88493,-3.347595,22.51994,17.24114,83.72306,-38.28821,
273,466,870,721,216,195,332,148,19.95792,13.14345,3.490419,12.22306,2.391569,16.34941,0.2701499,21.87764,17.63337,83.74394,-38.59338,
278,454,792,678,203,173,250,155,17.11846,12.27227,1.166066,12.44104,2.874757,15.69279,3.960109,20.5116,18.1027,81.26894,-40.98715,
272,427,759,637,192,156,235,153,10.73321,10.77174,-2.156647,12.58901,4.137204,14.71752,9.870931,20.44631,19.1523,79.99048,-42.39893,
258,406,656,507,172,152,214,140,9.001643,10.18336,-3.255829,12.70151,5.262023,14.35148,15.1202,20.60074,19.75569,78.92103,-43.41177,
179,273,528,341,139,136,201,117,5.322743,10.16903,-4.092224,13.14043,6.646821,14.72168,19.17785,20.72379,19.80859,78.55844,-44.02448,
136,246,531,263,135,146,225,103,1.869553,10.18546,-3.601013,13.70402,11.02189,16.40865,28.62586,21.56465,20.13618,78.04429,-44.34189,
98,212,528,210,141,192,385,81,-0.2638855,10.45552,4.196645,15.33142,29.0647,24.293,47.57095,23.16042,20.21255,75.84483,-45.2421,
81,202,515,198,147,218,456,99,-2.272034,11.00853,9.814164,17.3551,33.52164,27.5594,40.93037,23.31504,20.49067,74.45037,-45.97885,
66,121,518,179,142,220,484,100,-3.50528,11.38956,13.92985,21.14178,27.60069,25.40135,26.45564,21.26751,20.73211,73.78716,-45.55585,
61,151,552,128,112,215,491,99,-2.657654,11.46622,21.35394,24.79453,27.86544,25.89292,17.34916,21.2833,20.67954,74.17436,-45.34036,
65,198,629,119,99,213,481,97,-1.557922,11.13847,23.67384,25.31663,26.47096,25.31369,10.55568,21.409,20.56306,74.31828,-45.4848,
72,210,616,131,103,190,379,89,3.391396,10.87462,27.36637,25.15006,21.5331,23.76482,-9.274353,20.4633,19.93651,76.21497,-43.4577,
74,213,746,144,98,175,310,75,22.86536,14.17407,27.41402,23.73091,15.35977,24.76561,-13.77118,20.12873,19.71537,77.69042,-41.01846,
80,233,849,154,94,165,283,74,30.59328,15.52325,28.8819,24.74809,14.56428,26.226,-13.77032,20.4874,19.85326,78.76575,-39.50616,
99,262,922,215,108,163,282,78,34.95299,16.53009,29.49283,24.5078,13.69327,26.67232,-14.88812,20.29303,19.94951,79.75564,-38.09802,
111,293,906,342,126,155,269,81,39.97382,18.79122,29.57108,23.58407,12.26847,25.89796,-15.92459,19.26707,18.73415,81.48585,-35.90521,
175,428,986,530,177,168,347,100,45.7425,22.15984,28.90176,23.63297,11.19321,25.2871,-15.32321,18.48324,18.06228,81.99961,-35.71219,
180,442,1003,563,187,161,344,109,47.71524,23.87063,27.28141,22.73672,9.259007,24.12629,-15.59088,17.79717,17.62266,82.28391,-35.28186,
197,463,984,601,206,163,325,121,45.34501,24.24745,23.17993,19.69316,5.947023,21.91788,-15.81952,17.63876,15.13768,83.45609,-35.35312,
196,458,926,616,207,166,315,122,44.51949,24.79587,20.15623,16.96253,4.407082,20.50385,-15.58371,17.589,11.98694,84.60908,-35.54889,
221,422,911,565,197,164,308,121,40.82508,23.96207,13.16718,12.55241,1.581994,17.99125,-14.23926,17.68668,7.629729,86.25296,-35.80103,
175,285,858,399,143,122,161,101,31.07094,20.28214,6.436233,11.65713,1.442091,16.38194,-9.237671,17.90166,6.115382,87.8346,-36.75116,
177,278,762,363,128,143,235,88,21.21003,17.54704,1.5021,11.58704,1.482798,15.16124,-3.888641,17.66336,5.39432,88.82903,-36.64203,
164,228,699,301,94,171,270,107,15.69201,15.8115,-0.6196289,13.14734,2.948122,15.9617,5.454128,18.44416,7.247364,87.13857,-38.24225,
156,206,682,245,83,172,270,107,5.757048,14.11413,-0.5873108,15.57295,12.33044,20.08744,35.34897,24.90089,8.370115,85.60669,-39.31302,
103,217,621,218,78,168,274,107,2.617569,13.57147,-0.6733398,16.32141,16.31967,21.54359,44.35987,27.41914,8.438769,85.13648,-39.65451,
97,219,598,205,91,169,278,111,-2.662842,14.52272,1.734241,19.0823,26.8962,34.02462,44.19536,33.09272,9.319884,83.53322,-40.12952,
82,202,553,180,95,144,188,106,-2.866577,13.91732,3.273297,20.0069,27.59132,34.82974,39.33846,32.1104,11.83517,80.25546,-39.93805,
59,208,683,167,95,91,127,69,-3.64975,13.95697,5.636462,21.48619,29.23869,35.66652,38.69404,31.69886,13.07354,78.24744,-39.39761,
98,287,811,285,118,115,134,73,-4.146362,14.27168,12.25447,28.86409,29.53076,36.15423,30.52906,31.16626,12.74157,78.00101,-38.35092,
103,289,828,298,117,113,112,70,-2.765198,14.66949,23.64859,37.76524,28.16169,35.75461,19.14303,30.87615,10.63608,80.00129,-36.57138,
150,361,864,478,176,126,117,114,-0.3421631,14.79125,26.63147,38.50736,25.62616,34.84388,9.486933,31.18188,11.45942,79.95757,-33.40991,
228,534,966,650,256,181,153,187,5.57271,17.54342,27.67351,38.96751,23.11885,35.9852,2.606122,31.72062,11.66711,79.37901,-31.24643,
274,621,921,761,308,243,203,212,14.76676,21.44741,28.77132,38.64703,21.61094,36.75618,-0.05709839,31.77658,11.31052,80.4453,-31.05234,
282,625,885,759,312,239,205,220,23.45915,20.9282,27.43145,33.59908,18.61784,32.02271,-2.418121,27.41421,10.33655,81.45757,-31.12073,
353,718,991,908,383,276,236,251,34.03943,20.26698,24.71565,28.45125,12.89161,25.71111,-5.052917,21.65164,9.949942,83.10358,-29.90332,
358,725,986,927,384,330,281,241,37.68895,21.10644,21.76629,25.31932,9.08427,24.06133,-7.451599,21.00756,9.634336,84.82691,-29.46951,
323,628,971,867,350,316,307,193,36.88603,21.85936,18.63229,21.97002,6.782234,22.58408,-9.193481,20.69879,6.311708,86.50498,-32.29147,
310,630,925,822,318,289,291,189,35.86821,22.63573,13.72437,19.09792,3.437658,20.82198,-10.09366,20.88313,1.692929,89.24349,-34.93198,
292,598,941,797,305,288,296,191,35.12378,22.98363,10.61607,18.35789,1.432279,20.2542,-10.35504,20.75326,0.6450413,89.32491,-34.95932,
207,485,874,617,214,261,288,158,34.67473,23.3007,7.578074,17.56806,-0.6083679,19.61378,-10.75516,20.54449,-0.5028687,89.34557,-35.01251,
181,424,812,463,163,201,256,147,30.86199,22.58712,4.275428,15.78699,-1.301361,18.80885,-9.703491,20.40526,1.199988,87.26652,-34.63647,
163,395,723,358,121,191,211,144,23.49331,20.16852,1.630385,15.62924,0.5428271,18.69992,-4.650208,20.11087,2.651526,87.09313,-33.69266,
140,307,739,266,105,178,201,119,22.0961,19.771,1.836875,15.90111,1.403053,18.84088,-3.113312,20.13365,3.20017,87.07574,-33.22275,
155,306,691,267,115,207,203,97,13.12372,16.57514,1.49391,16.35089,5.182127,19.28,4.703188,20.85109,3.919211,86.03301,-32.68716,
151,293,601,272,124,222,201,102,1.833955,14.70147,1.192067,19.76123,10.66755,24.88803,17.40051,25.69177,4.348805,84.51917,-31.62729,
136,286,595,251,121,209,186,100,-4.243622,15.01262,4.404755,24.24618,17.54006,32.19204,20.25925,30.07739,4.544291,84.28898,-30.67593,
140,331,633,272,153,205,172,105,-4.808807,15.38193,9.07269,31.48415,21.52048,36.66963,17.70609,32.53206,6.674006,83.74947,-27.78223,
131,378,680,259,167,211,173,97,-1.872467,15.89273,13.71782,38.41439,20.23563,38.11355,13.38619,33.79707,5.934793,84.05147,-28.4967,
125,414,701,318,168,180,167,100,-0.7437439,16.23418,14.88081,39.06158,18.75116,38.34364,10.07618,33.20418,5.449765,83.78873,-28.24182,
132,434,774,375,181,220,161,87,1.958431,17.71539,16.49381,44.73039,17.40256,41.64574,7.4802,34.42699,4.464214,83.45238,-28.04626,
169,483,983,451,208,220,189,121,6.465705,20.39836,18.78817,48.61156,15.99562,44.17806,4.384814,35.35789,2.213552,82.94308,-28.3967,
199,508,1065,550,222,235,255,130,22.50656,21.94993,21.57992,38.68745,13.33757,35.91023,-2.697174,28.6002,2.608238,82.38317,-28.22174,
202,470,1057,557,218,240,260,133,33.24975,22.08206,20.16161,34.90023,11.48773,34.43634,-1.773895,28.09046,2.913831,82.69736,-29.4118,
255,477,1028,528,226,289,263,136,41.49549,23.99346,18.91308,32.28708,9.837378,33.01372,-3.261017,27.28986,2.738726,83.55563,-31.45828,
351,491,987,486,214,254,255,135,38.86317,24.00159,16.79368,28.11653,8.548943,30.96888,-4.581238,26.11078,3.004754,84.96448,-32.18185,
374,475,827,453,212,253,229,111,34.97017,23.61797,15.34221,25.82774,8.279348,29.81749,-4.48407,25.47881,2.567626,84.99934,-33.14642,
469,445,792,351,190,240,159,127,26.42527,22.60456,11.95762,22.985,9.260932,29.70152,-3.007813,25.35925,3.939096,85.61576,-33.62311,
682,440,761,354,185,234,143,237,23.21143,22.18938,10.33843,25.23885,9.652919,31.29484,0.5434387,28.04504,4.080689,85.91083,-33.95389,
738,401,702,329,168,161,111,256,21.46825,24.09992,9.366107,29.34467,9.645138,34.99836,3.26158,32.86756,4.046797,85.98421,-34.17252,
712,390,729,327,161,136,104,262,17.72265,42.5398,12.94049,48.76134,11.88052,52.64824,4.376134,49.08507,5.018794,85.64685,-34.77496,
733,355,754,348,150,128,105,270,15.33353,71.33134,20.0423,70.56906,17.21417,68.08759,8.203043,63.71234,6.157892,85.20911,-37.25037,
774,332,636,330,140,115,97,282,15.90018,76.7963,23.11908,77.21572,19.29875,74.79487,10.00835,68.63587,6.505191,85.07367,-38.00626,
651,267,556,295,130,80,80,208,18.5668,85.12924,30.48751,86.8275,27.73552,83.29738,21.08023,75.69178,7.361601,85.40344,-38.23135,
712,248,538,297,143,70,87,227,22.41563,100.7509,35.99089,97.45385,38.47209,92.70518,36.64557,83.96626,8.090288,84.95831,-38.8165,
784,212,610,303,145,76,89,259,27.60778,106.349,38.05542,103.3396,42.53678,96.97576,43.39343,87.01318,9.420547,82.70054,-39.87601,
971,198,543,227,122,68,90,316,30.42987,107.6846,39.67665,103.7088,44.81466,99.07649,44.75935,89.34191,10.58743,80.69467,-40.90906,
1015,215,517,194,113,62,96,354,32.77309,108.1614,48.60422,106.1519,59.42987,100.6536,61.26461,94.57407,14.08926,77.98709,-45.76071,
1115,267,532,209,104,70,415,395,39.5461,108.2328,56.1986,106.7229,67.87923,100.2123,69.49818,94.23319,18.07831,76.92551,-46.77063,
1117,294,544,266,89,86,421,440,42.52116,108.2392,59.30458,107.0013,71.62488,100.199,73.51159,93.98443,21.30017,74.22626,-48.01117,
1123,294,384,264,80,84,451,438,51.78349,108.2463,62.37334,107.1729,71.81324,98.99025,72.11713,93.40297,27.51148,69.31718,-50.49545,
995,336,321,255,80,85,466,405,54.24634,108.2475,63.02825,107.4373,71.93835,98.85927,72.3547,93.15274,31.161,65.91607,-51.93628,
913,365,320,251,77,89,466,369,56.93121,108.2479,63.94851,107.4471,72.60729,98.73821,72.99255,93.05376,34.56027,62.40037,-53.7149,
815,631,296,257,80,82,247,323,59.841,108.2481,65.18749,107.2408,73.6637,98.43195,73.63328,92.69012,45.42342,48.13611,-65.28662,
778,906,257,227,81,76,237,248,60.42584,108.2481,65.53101,107.1413,73.99299,98.36797,73.80897,92.60661,48.40559,43.34665,-67.98108,
715,1100,218,215,77,91,180,215,60.51971,108.2482,66.20547,106.3908,74.93215,98.24702,74.6996,92.32967,57.20638,24.13211,-81.66141,
660,1404,217,211,82,166,280,196,60.56538,108.2482,66.73042,106.0729,75.53899,98.18456,75.26795,92.17285,62.30529,8.540314,-93.65378,
601,1453,203,203,78,207,362,170,60.54306,108.2481,67.04573,105.8533,75.87681,98.18888,75.61531,92.08862,64.96771,-5.141479,-106.0251,
495,1409,185,162,77,209,358,162,60.82903,108.2481,67.66544,105.7936,76.51242,98.35426,76.07204,92.09948,66.00353,-25.13068,-124.5759,
342,1355,157,92,64,215,365,198,59.65314,108.2481,67.92057,105.5655,76.96807,98.71949,76.53476,92.08975,65.27866,-35.62427,-134.329,
289,1219,356,88,66,246,399,319,59.38335,108.2481,68.04735,105.536,77.11146,98.8122,76.64533,92.10329,63.38631,-41.02762,-139.193,
221,859,611,211,67,235,325,347,59.71597,108.2482,68.67323,105.4254,77.44913,99.14879,76.67319,92.07597,57.71394,-51.21033,-147.6634,
211,781,847,370,125,275,328,370,58.06235,108.2481,69.23049,104.69,77.93424,99.24273,76.40312,92.68921,50.34713,-59.28339,-153.6966,
205,681,991,396,128,284,329,381,56.89271,108.1101,69.0937,104.3781,77.86037,99.22005,76.16572,93.06464,50.2825,-58.44507,-153.3124,
216,496,1101,473,151,283,323,350,43.6031,97.73118,60.62875,101.9013,65.49902,96.86738,57.23625,92.63855,52.06375,-57.21603,-153.4239,
177,467,1097,496,159,260,275,260,23.49622,66.80712,33.88046,72.99741,34.77121,79.76242,28.894,81.90237,54.44316,-59.26453,-153.075,
167,443,1032,471,159,270,278,222,16.02363,50.25964,13.44329,46.19812,14.56691,66.32672,12.65666,73.85183,55.82784,-61.37271,-155.6155,
149,452,954,390,124,206,158,182,9.615582,41.0144,8.532338,28.55994,10.38973,45.71713,9.862968,56.8028,56.80434,-63.70947,-158.2483,
143,474,838,370,119,197,144,158,10.47114,31.90352,13.09241,20.09503,13.67457,20.01418,11.67469,25.77525,55.9914,-66.21414,-158.1351,
100,406,702,267,88,192,139,157,4.997716,25.68683,11.13583,17.20135,12.4085,15.01203,9.970113,18.81899,52.83536,-67.98203,-158.2689,
86,394,690,233,77,197,138,119,7.225856,24.42513,11.83787,18.76079,12.37023,18.1218,9.459085,20.37606,51.21899,-68.62747,-157.4668,
74,428,652,246,77,144,103,108,6.930616,23.93278,11.86935,18.36727,11.87579,17.46024,8.453814,19.89835,50.36539,-69.85727,-158.3029,
71,365,508,196,67,119,78,98,7.183786,23.33493,11.59812,17.0041,11.1832,15.65213,8.259624,18.40905,50.72956,-68.6416,-157.6958,
129,336,451,183,68,117,69,85,6.714062,22.00043,12.39463,16.92537,11.65272,16.04564,7.223816,18.55191,50.64044,-67.85443,-157.3732,
291,320,434,179,69,107,58,75,6.070871,21.10991,12.371,16.56612,11.75699,15.82961,7.080647,18.4669,49.77676,-68.02509,-157.6196,
444,327,336,166,63,72,62,107,5.877326,21.05236,12.7003,16.73393,11.89514,15.89518,6.691838,18.09432,49.01021,-67.94965,-157.9432,
482,305,243,93,63,64,74,123,7.484413,22.67006,15.95079,19.1323,15.50557,17.80581,9.446392,18.83985,49.03115,-66.64548,-157.7242,
548,317,190,85,67,72,94,141,10.49011,25.24713,19.28289,22.38985,19.18546,20.234,13.71661,20.21276,47.81803,-66.51794,-160.4306,
652,358,175,83,68,68,97,166,16.24677,33.49265,22.71788,29.97606,21.16096,26.62228,14.48311,24.66195,47.21395,-65.30661,-162.299,
709,386,218,123,69,72,107,205,21.4542,53.97573,28.59514,61.16803,24.00314,55.50172,13.01955,44.34678,46.27987,-64.06036,-163.7655,
672,419,341,154,73,72,104,197,25.65199,89.96747,26.91064,87.3046,23.53566,85.52216,15.21923,74.21542,44.28457,-64.08807,-167.8336,
780,433,352,156,68,78,108,257,31.34747,106.0127,26.85449,105.0981,22.96925,105.6257,14.34966,101.1066,42.81248,-64.55014,-170.1071,
788,451,359,158,65,67,92,257,33.28957,107.1225,31.72736,102.9246,27.83259,106.6949,15.66199,100.2352,42.35167,-64.65479,-170.8073,
788,418,361,157,62,131,114,247,37.61374,104.085,44.23217,100.964,42.35989,106.4273,21.43806,99.50769,42.11552,-64.37476,-168.3623,
789,470,329,132,71,208,180,240,50.02872,105.5372,56.34381,103.2407,55.72406,107.0873,34.4528,99.81205,41.4304,-64.37811,-167.0368,
793,472,197,99,75,218,188,249,54.3773,105.9642,60.13299,104.1989,59.2542,107.2363,38.71142,100.2686,41.92291,-62.91556,-165.8769,
809,460,159,104,75,220,181,221,57.48301,106.3569,62.17536,104.6382,61.0801,107.4957,41.02502,100.7021,42.24022,-61.88898,-165.5751,
790,464,146,98,75,221,186,217,57.01696,106.3399,61.57949,104.6082,60.80469,107.4463,41.94595,101.0545,42.44957,-60.80554,-165.4621,
762,507,137,101,75,193,175,227,58.26147,106.1943,63.55942,104.135,63.15555,107.6293,43.72112,101.0607,42.31332,-60.44583,-165.5049,
684,450,120,96,69,158,134,207,58.34834,105.6603,63.57544,103.7721,63.27179,107.5997,44.24052,101.1425,42.1469,-60.24109,-165.3401,
651,421,105,90,59,147,124,192,59.41602,105.5866,64.90295,103.5165,64.73858,107.5901,45.89573,101.4901,41.79333,-60.05914,-164.7451,
466,397,101,71,52,143,122,137,59.64679,105.3461,65.50797,103.2944,65.38114,107.5538,46.70402,101.6827,41.27781,-61.04153,-165.2506,
424,401,100,70,51,179,139,148,60.36761,105.3433,66.26331,103.1708,66.49564,107.4575,48.4677,101.918,40.7305,-61.68341,-165.4503,
300,349,103,62,51,214,171,183,60.78701,105.3439,66.87989,103.0415,67.31842,107.3559,49.67059,102.0911,40.45343,-61.87411,-165.6277,
236,359,127,67,63,315,286,234,61.22302,105.4391,67.14314,103.0619,68.17883,107.0329,52.14988,102.4833,40.08109,-61.74188,-165.4001,
195,338,468,124,65,333,305,257,61.39107,105.3609,67.31242,102.9233,68.48653,106.9327,52.8779,102.5544,40.29609,-61.74377,-165.5,
191,444,845,352,114,345,311,268,61.4188,105.2667,67.30904,102.7927,68.73504,106.7728,53.67982,102.5966,40.47873,-61.55371,-165.6106,
183,414,953,414,127,399,362,273,61.24461,105.1244,67.16084,102.6722,68.73425,106.6171,54.15411,102.6952,40.61777,-61.39273,-165.7238,
178,419,1014,427,132,435,376,266,57.48013,103.5258,62.92424,101.3237,64.01154,105.4358,50.53406,101.518,40.72135,-61.40573,-166.0005,
173,438,1132,436,128,356,290,240,37.65791,86.84354,45.95817,88.88419,47.76371,98.009,39.11397,96.83955,40.67868,-62.99387,-166.378,
162,456,1164,439,130,341,271,222,28.24548,73.77676,38.6411,80.96722,41.95135,93.97346,35.23465,94.41873,40.61707,-64.02798,-167.2339,
128,380,995,324,103,337,269,250,22.64502,60.23961,28.08021,56.72615,33.09462,76.09776,29.35962,81.96343,41.0454,-65.49084,-167.6961,
92,414,931,277,101,254,185,294,14.44199,48.73709,14.28039,39.30829,20.96821,58.28758,22.97282,68.05238,42.32819,-65.99957,-167.6219,
94,421,922,263,94,158,121,286,13.23595,38.52024,17.28651,35.91064,21.45261,40.37193,22.89018,46.97417,43.08213,-66.32224,-166.7092,
91,409,801,261,92,168,139,275,11.47551,34.21805,16.96011,33.74095,17.89293,32.77155,16.67375,36.80318,43.22253,-66.61755,-165.0722,
97,419,653,239,89,167,143,273,11.27911,29.20823,14.12344,25.93328,14.42081,25.29717,13.15046,27.00378,43.48805,-67.11154,-165.0512,
92,415,610,208,76,160,136,245,10.19474,26.95424,12.74368,22.74976,12.79368,22.06989,10.9748,23.67003,43.63398,-67.29401,-165.0959,
86,385,569,165,54,154,131,169,8.312001,24.3601,11.15209,19.97907,10.561,19.4153,7.46506,21.55379,42.29177,-67.95178,-165.2172,
109,366,486,156,52,134,125,134,6.264063,22.34501,10.64977,17.25876,11.28001,16.69735,7.799752,19.03437,41.42789,-68.26495,-164.9696,
200,325,448,134,47,97,81,106,6.156312,21.70624,11.23919,16.70188,11.31802,15.68829,7.121405,18.03973,41.37623,-67.92819,-164.6214,
241,332,382,131,48,85,69,103,5.775429,21.05084,11.733,16.44075,11.942,15.2846,7.273599,17.3719,40.98731,-67.57193,-163.839,
429,303,293,105,47,73,63,109,5.960796,20.91675,12.0873,16.49474,12.50184,15.35986,7.916634,17.20589,41.08605,-67.36328,-162.9977,
440,293,322,101,55,66,58,109,6.32517,21.02979,12.52717,16.78171,13.41763,15.72337,9.284634,17.1293,40.97431,-67.0607,-162.4987,
447,268,317,97,53,62,53,113,8.363156,23.07113,15.50952,19.31565,16.48991,17.77542,11.61501,17.88166,40.48305,-66.99396,-162.1688,
424,279,292,93,55,65,55,111,14.89871,39.39729,21.57575,41.82853,20.9839,36.47826,14.38687,30.07749,40.87053,-64.98633,-163.2166,
436,227,281,79,51,60,47,96,16.68061,47.50639,22.31302,53.16278,21.28398,47.46196,15.03193,37.25249,40.41588,-65.50525,-164.2146,
451,232,253,67,47,54,46,93,19.93061,70.19663,26.83542,69.83264,28.09168,65.39926,23.71207,49.74598,40.67044,-65.81354,-166.0323,
662,289,159,48,41,56,54,129,21.59671,77.40365,27.2485,74.33411,27.29543,69.70337,22.6718,56.75687,41.42025,-65.14993,-167.413,
805,315,106,53,45,62,65,156,23.48489,84.04101,27.70665,76.84159,27.27896,71.61753,22.5059,59.65195,41.5743,-64.66241,-167.9644,
868,319,107,53,44,59,65,167,26.78194,97.65688,27.72881,89.26836,25.95815,84.76344,21.02094,75.67812,41.84087,-63.00961,-168.5208,
884,333,109,56,43,61,68,179,31.63521,101.685,35.31961,95.64877,33.77678,96.82576,23.5988,89.18999,40.47398,-63.80933,-170.2007,
920,406,174,66,51,60,76,234,36.32784,103.8332,42.35672,98.41765,41.49586,101.2314,27.37603,94.53667,39.5284,-63.81949,-170.6894,
977,470,198,69,62,65,80,251,40.78689,104.5116,48.65397,100.114,48.36067,103.4937,32.09791,97.42731,38.69519,-63.80002,-171.1675,
913,473,205,78,60,62,74,241,48.51553,104.9147,57.07756,102.1052,57.07554,104.9611,39.10801,99.02133,39.27936,-62.65701,-169.549,
887,495,223,88,70,67,78,240,52.90134,105.8271,61.88612,103.2333,64.02311,105.0216,48.61473,99.76799,38.83338,-61.60565,-168.2085,
928,548,227,91,73,70,85,246,53.67056,106.1527,63.20785,103.3524,65.27415,105.0615,50.22926,100.412,37.25783,-59.97726,-165.7985,
942,517,188,98,68,72,85,203,54.71713,106.2916,64.18526,103.3551,66.45142,105.3203,51.82028,100.9559,37.48702,-58.91144,-164.7192,
746,441,161,99,58,64,76,159,56.32554,106.4039,65.44144,103.4115,67.6944,105.653,53.34082,101.531,36.55093,-57.95309,-163.0421,
690,442,156,96,64,63,75,148,57.53267,106.4547,66.39869,103.38,68.65699,105.8246,54.33138,101.942,35.96414,-57.52115,-162.0693,
670,480,132,94,54,68,72,148,57.83513,106.212,66.81104,103.2135,69.23026,105.8768,55.30967,102.1631,35.47916,-57.29373,-161.7643,
611,411,127,90,50,122,124,125,58.48092,106.1013,67.48032,102.9926,70.08741,105.8282,56.56371,102.4511,35.05634,-57.8418,-162.3229,
390,380,105,75,49,182,148,83,58.707,106.0739,67.73386,102.8845,70.44041,105.8408,57.16272,102.5508,34.76595,-57.82806,-162.7494,
367,359,94,68,47,210,176,117,59.20778,106.1252,68.27872,102.758,71.16771,105.8433,58.33662,102.791,34.54932,-58.35443,-163.0403,
340,386,105,64,43,213,181,125,59.15992,106.0607,68.31796,102.6812,71.24847,105.8262,58.48211,102.771,34.59697,-58.42203,-163.2697,
283,291,108,53,44,221,201,175,59.03396,106.0176,68.18479,102.6402,71.28712,105.757,58.88472,102.9116,34.71953,-58.27036,-163.6333,
155,321,381,109,47,213,178,207,58.94452,105.9958,68.25644,102.4914,71.52032,105.7602,59.54254,103.0592,34.66022,-58.38452,-163.8455,
154,463,754,385,109,232,201,278,58.63247,105.9419,68.11711,102.3943,71.49581,105.6916,59.82288,103.13,34.81861,-58.17682,-163.7604,
149,475,897,408,114,229,188,273,57.85782,105.6899,67.44505,102.1875,70.89637,105.5624,59.56699,103.0012,34.94463,-58.14932,-163.8036,
150,463,944,423,118,250,206,291,56.04806,104.9591,65.53505,101.7146,69.12267,105.3236,58.44238,102.4261,35.29906,-58.08911,-164.7313,
142,473,1000,441,128,295,231,271,39.83808,92.02376,53.28983,94.4989,56.89943,101.4883,48.33046,99.22315,36.09903,-58.33633,-165.3506,
161,508,1113,492,156,309,242,254,33.5241,84.38476,47.42507,90.31659,51.17505,99.33798,43.87721,97.97846,36.22335,-59.02377,-165.9811,
149,411,1118,376,127,269,209,206,21.10934,69.02073,31.01888,66.19704,38.19009,85.87463,34.6573,88.44415,37.11599,-60.56757,-166.8737,
159,471,1109,411,140,261,217,260,11.85075,51.94477,17.24214,38.02217,29.39916,69.62128,29.47071,77.21333,39.45863,-60.3089,-165.7844,
146,444,1147,409,136,247,204,261,12.43819,44.04389,17.45041,31.48663,25.36478,42.98324,25.06549,52.87345,41.35848,-60.30588,-165.226,
137,464,1180,411,136,187,157,268,13.42389,41.24301,20.28357,36.77518,20.8099,41.86767,13.06608,48.18101,42.3849,-60.65723,-164.1038,
116,419,1064,350,106,148,139,271,12.49629,33.26804,18.41834,31.86928,13.94772,33.02529,2.959365,37.16018,42.20992,-61.52066,-161.712,
100,390,864,304,106,136,135,252,11.56998,31.19924,15.33648,28.33867,10.88748,29.75121,2.468884,33.55551,41.57859,-62.04211,-161.1725,
76,306,755,225,82,117,105,188,10.1246,28.93686,13.26375,24.66217,10.37604,26.26505,3.587496,30.18299,40.71378,-63.10504,-161.7469,
77,308,639,204,81,101,86,151,9.319418,27.87854,13.19168,22.9046,11.02197,24.14565,3.938729,27.92005,40.05862,-63.2326,-161.4393,
175,301,487,158,69,83,76,110,7.975629,25.75775,10.15105,20.08223,8.288811,21.81128,2.677443,26.82837,39.5906,-63.4342,-161.0128,
232,272,368,134,66,68,55,90,8.176812,25.17495,10.70269,20.89971,8.882731,22.41742,3.248159,26.62325,39.0222,-64.00723,-160.1664,
295,275,326,121,58,64,46,78,8.146479,25.16173,11.31926,21.38763,9.941385,22.96851,4.459896,26.73249,38.81841,-64.15005,-160.0557,
320,274,376,128,62,59,42,72,8.850777,25.98726,13.1127,23.22076,12.37671,24.59629,7.057179,27.22558,39.03105,-64.77362,-159.8353,
425,279,395,137,72,100,95,122,11.19931,28.48518,16.65823,27.22765,16.48285,27.84417,11.16514,28.41501,39.53403,-64.82306,-159.8356,
429,242,381,132,67,104,102,125,15.72192,38.3199,22.91094,38.96769,22.53299,38.86723,13.85995,36.20488,41.44813,-62.2233,-158.963,
550,252,375,121,62,103,106,140,17.80739,45.01748,24.84211,45.42793,24.8778,44.99934,16.43362,39.3077,41.66972,-61.85181,-159.3781,
623,290,353,109,59,108,114,184,20.39038,66.08594,25.10852,65.57427,24.47226,65.05977,17.30719,56.49826,41.78514,-61.03806,-161.2251,
688,485,249,89,54,111,124,205,25.60503,95.35516,27.55198,90.11059,25.98273,88.3874,18.76123,78.67783,40.8553,-61.289,-163.5662,
724,551,268,91,47,81,102,205,27.99215,101.7491,29.26561,98.78599,27.11762,96.5821,19.3331,85.94167,40.70153,-61.16214,-163.5501,
837,572,322,100,49,78,102,235,31.98008,103.662,35.17678,98.37866,32.98581,100.6041,21.58121,92.89509,40.76004,-61.12494,-163.6728,
872,588,316,101,50,83,105,253,38.90313,102.9633,45.9917,98.74416,45.38764,103.5029,28.43664,97.17359,40.69611,-61.62906,-163.8106,
905,579,325,124,52,78,97,234,47.05475,104.3642,55.00865,101.5774,56.23838,105.4247,39.08421,99.44227,40.81684,-61.2063,-163.011,
894,464,307,122,54,74,90,226,49.09022,104.6935,57.01593,102.0865,58.01848,105.7436,40.55163,99.88441,40.77275,-60.98688,-162.6979,
830,414,243,116,50,71,82,212,55.01984,105.8353,62.92268,103.8314,63.28681,107.0756,44.41674,101.5884,39.66859,-61.039,-161.7067,
725,439,165,118,53,66,78,191,57.95082,106.4295,64.50629,103.6681,65.45448,107.5143,48.18883,102.7655,39.1509,-60.84708,-160.7524,
652,439,161,119,54,63,77,171,57.98016,106.5363,64.73444,103.6826,65.96418,107.8304,49.5155,103.2883,38.60787,-60.91058,-161.4385,
531,472,134,98,52,62,78,173,58.34057,106.4498,65.27044,103.5906,66.67196,107.996,50.61438,103.6885,38.62228,-61.14948,-161.8388,
492,469,133,101,47,62,73,175,58.90049,106.5554,65.95663,103.4859,67.51193,108.0059,51.94037,104.1247,38.55727,-60.99579,-162.0042,
507,482,124,91,52,65,84,174,59.45176,106.713,66.53629,103.4684,68.19147,108.0313,52.93962,104.4511,38.57031,-60.92865,-162.2139,
532,432,101,80,48,90,87,166,59.27337,106.5112,66.57001,103.4277,68.28506,108.0036,53.36972,104.5964,38.4214,-60.94653,-162.3052,
442,431,102,78,46,164,119,146,59.19436,106.6466,66.77167,103.3726,68.74452,107.8679,54.34829,104.518,38.50711,-61.12665,-162.7281,
409,387,101,76,46,176,122,126,59.16016,106.7102,66.87116,103.3494,69.13503,107.7046,55.49703,104.5908,38.58611,-61.34903,-163.2181,
362,365,93,72,48,179,123,115,59.02383,106.8366,66.94497,103.3366,69.5442,107.517,56.71362,104.6589,38.60494,-61.68652,-164.0216,
315,302,85,58,40,218,158,159,58.87022,106.9285,66.9526,103.3507,69.65127,107.4677,57.07917,104.6607,38.58355,-61.51773,-164.1166,
185,334,104,61,56,299,242,295,59.03372,106.9106,67.20937,103.2197,70.06287,107.2696,57.95465,104.6207,38.3493,-61.3988,-164.0536,
205,351,460,294,95,278,236,368,58.95648,106.8663,67.18398,103.1769,70.04465,107.1028,58.10368,104.5032,38.20298,-61.27512,-163.7004,
202,479,824,438,124,274,236,377,58.90965,106.8458,67.19935,103.1405,70.04945,106.9743,58.19031,104.4327,38.30029,-61.12146,-163.7591,
209,494,1031,480,128,280,257,402,57.9977,106.3766,66.40917,102.9232,69.18789,106.7035,57.4114,104.1184,38.42083,-61.02563,-163.4517,
215,523,1140,512,133,274,252,405,50.81134,102.7357,59.07748,99.47008,61.12996,104.3525,50.75504,101.7386,38.98269,-60.5491,-163.8201,
215,514,1226,535,138,210,185,325,37.62912,92.89087,44.17923,90.79848,43.77679,96.81591,37.18136,96.3306,39.67028,-60.5163,-164.3323,
167,523,1289,517,137,211,189,252,27.60625,80.57484,35.97828,80.24776,37.12951,88.67049,32.05434,90.52464,39.55729,-61.89008,-165.8428,
160,466,1162,437,120,211,192,289,20.07855,68.04354,28.39927,64.33411,32.65854,78.65633,29.20463,82.83072,40.16275,-62.71985,-166.3788,
138,476,1038,411,123,211,173,261,13.44912,51.87538,21.63397,43.186,26.36266,51.14631,24.47026,57.42803,42.7073,-62.50476,-164.7353,
141,477,1091,403,127,280,234,300,12.92703,46.12672,20.29793,40.06728,21.50967,42.23848,16.37766,45.33053,43.20522,-62.74493,-163.6965,
152,504,1043,422,131,266,233,309,12.51928,40.64175,18.96473,36.97119,16.60081,34.07388,7.785485,34.40288,43.06785,-62.76062,-162.1635,
143,472,926,342,107,258,224,312,8.455692,25.21417,11.048,22.14172,9.824369,23.07492,5.329801,25.72914,43.23718,-63.66953,-162.2511,
133,437,875,302,100,257,221,274,7.622722,23.76272,8.751605,19.25837,7.816225,20.79307,4.556342,24.01101,43.78225,-64.22531,-162.6139,
126,388,844,284,92,249,213,265,7.311716,22.89622,8.965646,16.64239,7.704841,17.14952,3.799259,21.66002,43.16267,-65.34637,-163.4163,
106,346,658,241,81,125,104,181,6.93204,21.8125,8.656927,15.96154,7.201096,16.49279,3.053028,21.34298,42.83274,-65.9357,-163.166,
94,300,609,175,65,106,73,144,6.533279,20.5783,8.261625,15.01672,6.589179,15.49524,2.227797,20.7242,42.46016,-66.38446,-162.651,
343,302,579,181,71,87,65,139,6.254837,19.67517,9.375055,14.31157,7.432739,14.51994,1.913679,19.22944,41.70844,-66.82251,-162.1552,
569,288,569,182,70,81,67,160,6.265727,18.85839,10.00725,13.76295,7.880305,13.94839,1.742794,18.42058,41.76525,-67.39542,-161.4557,
644,294,522,165,71,92,89,174,6.424722,18.74076,10.1914,13.73318,8.031092,14.07854,1.752406,18.38799,41.78884,-67.34702,-160.8906,
660,291,463,158,72,138,133,180,6.878437,18.29535,10.71553,13.55009,8.446042,14.29493,1.749074,18.1792,41.8381,-67.12616,-160.2431,
674,261,437,116,66,136,146,185,11.98606,24.62298,14.9043,19.87303,12.8268,19.84199,5.804932,20.97358,42.63505,-66.5972,-159.3301,
656,228,316,85,59,138,150,178,15.43926,33.49524,18.11571,31.11306,16.07708,29.36427,8.778551,27.77394,42.27097,-66.46442,-160.7141,
535,177,226,76,61,137,146,145,18.31903,50.8065,21.72099,51.20935,19.42422,47.73496,11.22374,38.21773,43.17443,-64.8157,-161.7762,
530,175,217,74,56,133,137,128,22.18303,75.45514,23.76768,70.70996,21.18648,68.32193,13.71968,57.04856,42.87556,-65.56378,-164.4899,
641,479,214,82,53,81,94,148,24.64124,89.17142,23.37534,80.06545,20.5319,78.99658,13.70588,68.78028,42.55699,-66.14008,-166.847,
782,618,177,80,56,71,82,204,25.267,97.35568,22.50915,90.15034,20.0537,90.12148,14.33802,82.0433,42.33399,-66.6618,-168.5509,
822,635,163,80,55,77,77,220,31.25484,103.0563,32.52983,98.35816,29.67275,100.3068,18.34319,92.79537,42.01732,-66.28406,-167.6462,
830,650,168,79,51,88,84,225,34.89177,103.2031,35.91508,97.79725,33.5237,100.901,20.88359,93.88171,41.9983,-66.1225,-167.5869,
898,677,156,81,53,80,81,245,40.38232,103.827,42.47647,98.55629,40.76365,103.0504,25.37223,96.39043,41.95347,-66.60327,-167.0623,
851,557,131,86,50,85,87,236,45.25678,104.8668,51.54519,101.3991,50.23687,106.9617,30.3366,100.2036,41.73114,-67.01651,-166.7053,
832,420,105,82,44,85,87,213,49.9601,106.3737,57.77438,104.7078,57.54022,107.9227,37.34761,101.6065,41.74475,-66.39468,-165.9605,
789,438,102,91,44,79,83,190,51.46332,106.3968,58.21298,104.2988,57.93253,107.9281,39.4745,102.1139,41.75998,-65.48779,-165.6563,
809,467,97,89,47,71,86,198,52.50097,106.3688,59.12507,104.2153,58.97755,108.1139,40.94525,102.6663,41.7858,-65.57489,-165.5405,
752,422,90,91,46,75,87,179,53.16811,106.3671,60.11532,104.1982,60.07624,108.3007,42.28143,103.2275,41.44881,-65.71317,-166.1354,
751,382,94,81,48,70,80,170,54.31812,106.3439,61.2966,104.1929,61.22407,108.4753,43.84381,103.9828,41.57402,-65.98114,-166.4757,
653,420,119,138,55,65,73,135,54.68538,106.4193,62.08353,104.123,62.36029,108.5696,45.18725,104.2793,41.41045,-66.06879,-166.617,
645,393,123,136,54,63,74,142,55.12573,106.5944,62.76136,104.084,63.24428,108.5709,46.16099,104.4253,41.21593,-66.08646,-167.0488,
644,390,121,137,51,60,72,155,55.2493,106.6569,63.3051,104.0507,64.13776,108.6044,47.61295,104.5827,40.99611,-66.54202,-167.5595,
618,432,121,143,50,55,67,160,55.71709,106.8055,63.95308,104.1295,64.94055,108.6264,48.82811,104.6597,40.87516,-67.13879,-167.8778,
597,432,118,139,48,56,69,161,55.80124,106.8833,64.34054,104.0536,65.66664,108.5385,50.18931,104.8845,40.63168,-67.49597,-167.7547,
569,378,99,94,48,116,102,158,56.07592,106.9543,64.5409,104.0423,65.85152,108.4384,50.59272,105.0276,40.14128,-67.41254,-167.3139,
518,359,92,90,48,161,127,150,56.45601,106.9693,65.01489,103.9177,66.92783,108.2108,53.05164,105.0492,39.81207,-67.12744,-167.0945,
408,303,85,82,47,183,142,133,56.71332,106.9932,65.36733,103.8336,67.68066,107.9843,54.71389,104.9733,39.61348,-67.17191,-167.2578,
296,256,82,65,46,199,163,172,56.90393,107.0474,65.6406,103.814,67.98801,107.8806,55.11606,104.973,39.21022,-67.61453,-167.8152,
242,223,218,68,53,226,174,203,57.302,107.2063,66.09071,103.7836,68.63383,107.6983,56.29798,104.899,38.68386,-68.16556,-168.5035,
206,260,673,167,65,222,169,251,57.57211,107.2905,66.24401,103.7585,68.83957,107.567,56.79925,104.7021,38.79194,-67.57758,-168.0927,
187,345,957,359,115,205,163,257,57.89817,107.3522,66.44791,103.6661,69.14315,107.358,57.47119,104.5507,38.64484,-66.80408,-167.1179,
188,356,1069,394,124,222,162,303,57.82952,107.186,66.26875,103.5325,68.8538,107.1645,57.2566,104.3763,38.34075,-66.5018,-166.5672,
184,355,1223,445,133,222,150,335,57.39504,106.7258,65.62907,103.2778,67.98982,106.8389,56.5327,104.0771,38.58334,-65.65784,-166.078,
148,369,1268,456,132,201,144,322,51.52029,104.011,54.52161,98.84087,54.4171,103.6427,46.13365,101.0678,39.00538,-65.37814,-166.3194,
140,343,1233,433,124,183,131,303,40.4101,98.17679,44.08236,91.61395,43.91504,98.23885,38.49683,97.89008,39.67012,-65.97949,-166.9876,
121,280,1132,300,81,179,134,307,22.2541,67.04054,31.99996,67.03923,35.23051,77.94611,32.0253,81.93863,40.0937,-68.26462,-168.5963,
110,268,1120,270,69,145,141,264,15.94142,56.68727,24.53242,51.85155,29.71945,65.10315,28.64481,68.79483,40.62506,-68.39291,-168.9109,
95,301,1033,205,60,129,141,198,9.050529,46.86981,15.33262,36.50501,23.29401,44.66455,26.16087,49.85052,42.25532,-68.93774,-169.4128,
108,350,1079,226,64,137,148,189,12.67632,38.14904,19.52707,31.88941,18.35894,30.30418,8.903015,29.45894,43.53928,-69.65613,-168.7234,
115,376,960,238,71,148,157,170,10.31431,30.25403,19.42575,26.55046,17.315,24.2779,6.427757,26.22579,43.58548,-69.9006,-167.7562,
109,369,880,239,73,140,144,155,7.550071,22.14613,15.37067,17.44099,13.98244,17.50264,5.385793,18.89609,43.31083,-70.3342,-166.5973,
111,370,831,250,77,127,117,129,8.323533,25.19459,16.64091,21.29983,15.63808,21.44469,7.108741,22.24047,43.67128,-70.52478,-166.0347,
172,341,776,240,72,124,105,93,6.449739,24.04532,15.25276,18.79615,14.89262,18.66734,7.169168,20.28556,43.64082,-70.57928,-165.7988,
174,263,629,201,65,103,84,88,5.098177,21.99882,14.97662,17.91858,14.87453,17.80949,7.172489,19.81821,43.17846,-70.88004,-165.3151,
322,245,586,176,59,79,65,76,4.264366,21.66677,14.64081,17.88459,15.25103,17.65729,7.612185,19.63478,42.76717,-71.01978,-164.8614,
366,219,531,167,56,68,59,68,4.216738,21.30364,14.60113,17.62241,15.20206,17.38947,7.746998,19.39279,42.68647,-71.02399,-164.6964,
431,195,415,119,45,65,64,85,4.263891,20.35271,14.99664,17.05161,15.87871,16.81348,8.642535,18.53481,42.00017,-70.76456,-163.5055,
476,175,401,104,44,65,64,99,5.594941,21.36153,16.46206,18.39225,17.05155,17.83386,9.110948,18.74183,41.52917,-70.76398,-163.2963,
530,179,366,98,48,80,99,108,7.832114,23.29221,18.87851,20.65235,19.12205,19.46901,9.963563,19.15078,41.39295,-70.36469,-163.3447,
495,154,333,95,51,88,107,111,10.86091,27.85249,20.67191,25.74792,20.4286,23.98869,11.12929,22.47835,41.25932,-70.01083,-163.3594,
571,169,322,91,49,99,111,126,16.54183,40.16983,24.18025,43.70906,22.92955,40.45934,13.33846,33.22673,40.1832,-69.82559,-164.6596,
562,188,313,87,49,95,108,123,17.16732,55.61061,23.10412,64.36543,22.27208,61.53313,15.36599,47.41917,39.42127,-70.01187,-166.1219,
558,183,188,68,45,87,108,114,22.70148,82.66405,24.38037,81.25181,22.80869,80.23071,15.87193,68.5259,39.37519,-70.2211,-167.612,
594,185,140,60,43,78,81,123,28.7356,104.0265,30.46418,97.93534,27.96313,96.9195,18.14836,86.60686,39.3965,-70.14069,-167.9886,
638,189,217,64,38,70,74,144,31.20012,106.7126,33.76737,99.90353,30.994,99.98986,19.46452,91.35203,39.07245,-70.05258,-167.9129,
588,219,212,64,39,66,71,140,32.74649,104.3635,38.12841,98.43414,36.92474,103.5743,22.67369,98.23006,39.0645,-69.71548,-167.7859,
623,380,231,67,42,68,74,157,38.03148,103.5939,43.50171,96.73115,44.46647,102.5177,31.75237,99.2685,38.80814,-69.73563,-167.5618,
666,438,256,72,45,70,82,196,44.61447,104.2023,51.20438,99.30044,53.00827,104.5166,39.76035,100.3117,37.70748,-69.59412,-167.2856,
627,442,257,91,40,64,81,190,48.23997,105.3475,56.72137,101.4886,60.89784,105.762,49.54692,101.6649,37.32602,-68.8371,-167.0579,
630,464,198,101,37,62,80,188,50.61378,106.415,59.87086,103.9324,62.50444,107.3348,48.54527,102.6921,37.06944,-67.7912,-166.2014,
661,463,195,107,37,57,79,197,50.97459,106.6649,60.48605,104.073,63.13113,107.3817,49.34459,102.8835,37.16436,-67.44147,-165.5812,
674,351,167,112,39,53,82,188,51.5273,107.06,60.92447,104.0711,63.67079,107.7449,50.47169,103.4571,36.78135,-66.5567,-164.3062,
702,318,122,111,37,60,88,167,52.45349,107.2805,62.12762,103.9462,65.24534,108.0348,52.18551,104.1825,36.59869,-66.0083,-163.7442,
716,330,107,108,44,59,84,169,52.86437,107.3465,62.33598,103.9411,65.50649,108.1851,52.85573,104.5316,36.88384,-65.26453,-163.4259,
759,407,110,119,52,63,86,190,53.46166,107.5692,62.82717,103.9547,66.18041,108.3764,53.94467,105.0015,37.16013,-65.3941,-163.4488,
759,437,107,115,52,60,90,187,53.58426,107.5012,63.0254,103.9916,66.44531,108.5175,54.6361,105.3555,37.21226,-65.23785,-163.3551,
776,470,104,110,51,62,90,201,53.91616,107.8621,63.42747,104.0149,66.91958,108.5496,55.42447,105.5324,36.9687,-65.12061,-163.3187,
714,479,122,117,52,59,79,190,53.82011,107.8484,63.34727,103.9403,66.97914,108.5044,55.80298,105.4313,36.83578,-65.19586,-163.5802,
732,490,132,111,48,58,81,188,54.21583,108.093,64.00659,103.9989,67.83139,108.4867,56.92738,105.5394,36.75039,-65.17419,-163.6349,
686,462,127,94,46,56,78,159,54.43663,108.1047,64.29477,103.9699,68.17056,108.4213,57.44494,105.4971,36.72399,-65.16205,-163.4975,
676,434,129,98,47,54,76,153,54.88989,108.1608,64.62935,103.914,68.55577,108.3564,58.17102,105.4078,36.65477,-65.17963,-163.4798,
606,388,129,100,47,53,68,123,54.98845,108.2015,64.67788,103.8436,68.7014,108.2598,58.59026,105.2978,36.45588,-65.30835,-163.6828,
580,369,112,93,43,52,70,129,55.34681,108.2229,64.9718,103.8022,69.19446,108.2175,59.51368,105.1918,36.27641,-65.40414,-163.48,
506,342,93,87,43,68,79,121,55.47613,108.2379,65.19955,103.7603,69.69489,108.1378,60.49615,105.0397,36.00881,-65.47095,-163.3849,
408,252,74,72,39,126,109,113,55.69791,108.2424,65.38009,103.6916,70.03342,108.0603,61.22101,104.9701,35.73005,-65.35544,-163.2281,
306,234,64,64,39,176,138,103,55.69724,108.2449,65.52,103.621,70.33322,107.9784,61.81907,104.8509,35.4679,-65.25049,-163.0806,
236,226,68,57,39,194,148,122,55.68378,108.2467,65.79758,103.5886,70.89196,107.8732,62.86346,104.679,35.30818,-65.8259,-164.3405,
185,193,236,54,42,229,181,224,55.43251,108.2475,65.90519,103.575,71.17387,107.694,63.45855,104.4628,35.11697,-66.01788,-164.583,
160,271,601,248,73,249,198,266,55.34353,108.2478,65.91932,103.5904,71.24952,107.6408,63.77219,104.2867,35.06205,-66.1218,-164.6537,
157,307,944,354,86,229,186,318,55.21238,108.2479,65.88517,103.6078,71.30743,107.5772,64.04604,104.132,35.00021,-66.21609,-164.7214,
150,327,1058,378,94,227,199,336,55.0192,108.2481,65.66962,103.6156,71.20906,107.3875,64.27171,103.9246,34.70588,-66.48541,-165.044,
150,355,1144,408,103,228,201,336,54.5371,108.1388,64.86588,103.4688,70.36744,107.135,63.71931,103.6608,34.71485,-66.53293,-164.9682,
178,383,1202,479,129,199,176,276,54.19235,108.0239,64.29248,103.335,69.71693,107.0321,63.14108,103.5419,34.78598,-66.47369,-164.8911,
165,340,1138,428,115,170,153,281,43.21774,98.92278,50.16241,93.20284,53.21067,98.45248,49.32627,96.53642,35.23002,-67.05557,-165.5323,
149,322,928,355,109,195,194,276,24.58157,75.17477,37.22401,71.33243,39.35421,77.35116,35.66212,80.7579,35.45929,-69.70459,-166.1578,
148,307,851,352,103,160,167,266,17.31224,62.95782,27.86835,65.50024,33.72408,75.73184,34.22777,80.07129,35.88194,-70.32321,-166.9386,
147,293,888,352,103,137,157,269,12.71194,53.43317,17.68215,45.02089,21.73388,56.03093,20.33261,59.1582,37.07382,-69.92844,-167.7872,
101,311,930,336,87,130,152,273,9.896319,44.04037,17.6877,40.89501,20.17812,48.41995,13.29834,49.72021,39.18867,-70.15695,-168.5927,
100,301,900,331,91,167,180,247,12.86565,40.25599,23.89693,39.1217,22.20457,40.44797,8.204597,36.9214,40.10501,-70.18427,-166.6885,
97,297,886,326,91,141,144,195,12.20065,35.42524,22.50023,35.42487,18.88095,32.21739,6.547397,32.44119,40.98113,-70.22791,-164.9536,
96,290,932,314,93,139,134,193,10.29548,32.21026,17.44944,31.24484,15.31362,30.09148,8.505711,33.52642,40.64326,-70.26105,-165.5386,
94,305,876,304,89,142,134,182,10.4901,30.59607,15.14328,27.4173,14.12647,27.66109,8.897701,30.46133,40.87343,-70.52203,-165.8674,
85,255,874,220,72,139,130,188,10.62784,28.01906,13.99658,24.97731,13.31638,25.51141,8.526787,27.8788,41.36775,-70.83075,-166.203,
81,255,840,208,66,122,104,202,10.03703,26.30597,14.0513,23.79028,13.25737,24.42847,8.044496,27.18888,41.4972,-70.69226,-166.2831,
81,237,816,205,62,117,100,255,9.478284,25.18507,13.82398,22.45056,13.22857,23.44983,7.886195,26.44771,41.12016,-70.60425,-165.6922,
81,245,725,208,64,116,101,286,8.720857,23.82304,13.09099,20.06533,12.78671,21.46255,7.48046,24.82776,40.84509,-70.60699,-165.5074,
89,269,757,247,73,119,103,289,8.357995,23.25167,13.3133,20.19889,13.25504,21.68175,7.883934,24.77697,40.50736,-70.74542,-165.6558,
104,270,649,280,82,198,210,308,8.004891,22.57984,13.47731,20.03922,13.64532,21.61883,8.23131,24.52645,40.18731,-70.92841,-165.9387,
107,274,656,300,87,187,209,290,7.432035,21.30936,12.81737,17.63506,13.8758,19.13258,8.797864,21.60741,39.285,-71.13684,-165.4457,
109,280,759,309,89,186,205,240,7.319112,20.65821,12.75257,17.24306,13.84821,18.63461,8.896297,20.96302,39.04475,-70.84692,-165.6055,
112,296,927,323,91,200,217,193,7.296716,20.48384,12.81583,16.91695,13.97999,18.11626,9.008471,20.4121,38.87767,-70.73947,-165.5495,
117,265,902,340,93,208,231,235,7.202857,19.89266,12.97986,15.94737,14.36652,16.66219,9.347345,18.83744,38.28185,-70.57578,-165.4562,
104,253,970,315,83,144,162,227,6.4316,19.15495,12.29251,15.46119,14.03037,16.24965,9.241755,18.25551,38.1068,-70.50989,-166.1388,
105,256,1014,314,80,165,177,242,5.997337,18.71509,12.10859,15.0441,14.0792,15.60781,9.269123,17.47985,38.21453,-70.53302,-166.4329,
119,253,974,323,81,174,182,245,5.41326,18.16438,11.63392,14.40981,14.03562,14.76326,9.280215,16.42539,38.14206,-70.62616,-167.1534,
277,254,827,302,77,160,170,247,5.093396,17.65259,10.9175,13.85074,13.95612,14.22592,9.517279,15.53791,37.9818,-70.23367,-167.7957,
319,227,759,222,58,146,152,199,4.900628,17.31912,10.39367,13.43009,14.04111,13.92941,9.774937,15.04383,37.86113,-69.90149,-167.6918,
337,222,606,206,59,143,143,159,4.695153,16.97232,9.86481,12.99425,14.13865,13.60753,10.04083,14.52414,37.80715,-69.89496,-167.487,
396,200,497,170,55,117,118,121,3.922156,16.65429,9.529506,12.89516,18.84387,13.36652,25.94149,14.57193,37.53255,-70.02264,-167.8048,
504,234,511,161,53,108,117,112,3.082029,16.58912,9.374147,13.05341,20.06898,13.3392,28.70224,14.19715,37.38332,-70.16724,-168.2001,
457,221,465,158,48,103,109,120,2.524153,16.48922,9.51758,13.75453,21.92546,13.17901,31.18156,13.17121,35.4704,-70.97098,-168.3594,
539,232,415,150,50,110,114,120,2.776401,16.44789,9.799179,14.26977,22.48479,13.04737,31.60828,12.52627,35.17286,-71.216,-169.167,
659,251,388,144,48,115,111,133,2.582648,17.31732,16.03336,17.44666,33.66512,17.67073,40.28257,15.83667,34.94483,-71.24365,-170.0669,
685,255,369,140,46,118,121,139,2.140584,18.50838,22.17017,23.68885,44.76515,29.7706,53.48061,23.95967,34.75808,-70.7843,-170.7139,
684,232,170,106,41,105,111,131,1.733922,19.5442,24.47978,28.27949,49.89552,42.88912,57.35379,34.87134,34.86457,-69.86768,-171.0084,
700,224,148,91,43,112,111,116,1.782311,19.85158,23.40183,28.75682,49.50259,46.87231,57.59171,39.35689,35.14549,-69.87549,-171.0983,
644,217,148,85,45,105,107,154,1.932271,20.82653,20.71185,30.26717,49.72595,58.07418,59.74616,51.78464,35.66083,-69.41788,-170.6452,
531,215,139,83,45,91,93,146,3.140931,21.8041,27.8441,37.84296,54.87092,69.90862,59.20599,64.14772,36.62266,-69.17535,-169.9859,
490,268,128,81,48,76,70,154,5.138558,25.55449,36.1657,51.87679,59.0697,76.6287,60.26369,68.19688,37.65112,-69.04559,-169.3779,
484,272,123,69,49,83,76,174,9.792375,42.39827,39.61991,66.3801,58.25223,80.99175,59.58939,73.26295,37.69299,-69.10193,-168.5981,
577,307,109,56,46,74,75,193,19.65583,79.58503,45.87571,84.02422,60.14156,88.4018,59.73927,81.30368,37.87539,-68.25986,-167.9557,
602,431,103,51,46,90,101,179,25.69266,99.59384,49.67884,95.26766,61.8287,94.62923,60.22575,87.34001,37.55253,-68.047,-167.7481,
620,439,93,51,50,95,105,192,42.15637,105.4133,52.92672,96.74248,61.38269,93.26856,61.14398,89.15282,37.45224,-67.31564,-167.173,
664,454,104,54,53,97,111,203,48.56664,105.5112,58.02877,95.66041,65.77921,97.29252,63.05386,93.85843,36.83724,-65.6098,-166.4548,
664,467,105,51,54,89,105,184,53.256,105.0793,62.6886,98.00787,69.96437,100.1552,65.55411,96.47501,36.08082,-64.08527,-165.0644,
655,505,114,52,55,87,107,181,53.70149,105.4536,63.37029,99.05793,70.46521,100.9888,65.91038,97.20723,35.45787,-62.30927,-163.8566,
646,429,127,55,52,68,81,169,54.79254,106.3779,64.34917,100.4155,71.07606,102.0805,66.27397,98.25452,34.8409,-60.379,-162.5941,
663,464,128,77,51,63,79,173,57.4655,107.0894,66.27568,101.4287,72.61739,102.9116,67.49102,98.73942,32.6995,-59.32526,-160.6335,
685,452,127,99,52,60,74,156,58.49591,107.1868,66.99384,101.7542,73.37897,103.4171,68.08485,99.03506,32.13194,-59.14096,-160.0898,
656,466,134,108,57,71,82,174,58.8068,106.9289,67.14733,101.606,73.82788,103.9224,68.57254,99.38105,31.26994,-58.7016,-159.5018,
607,423,125,108,56,74,88,199,59.26696,106.8681,67.47639,101.6106,74.2901,104.3186,68.97459,99.69374,30.76446,-58.62317,-158.8789,
621,425,115,112,58,75,92,213,60.09343,107.2323,67.62312,101.93,74.3156,104.5111,69.21945,99.90025,30.13339,-57.79825,-158.2359,
607,398,115,100,56,72,88,204,60.70147,107.2755,67.72743,101.9978,74.32841,104.659,69.31189,100.0763,28.70363,-58.09137,-158.0408,
543,408,105,78,53,75,90,210,61.16322,107.2654,67.85445,101.9662,74.40721,104.7574,69.41482,100.2323,28.20175,-58.10751,-157.8404,
515,395,95,66,54,92,101,226,61.49293,107.2483,67.952,101.9286,74.49646,104.8324,69.51105,100.42,28.00526,-57.98755,-157.6875,
461,383,100,67,57,195,250,308,61.72787,107.2381,68.017,101.956,74.55723,104.9063,69.60239,100.603,27.82238,-57.97528,-157.3791,
393,372,101,56,58,267,330,386,62.22642,107.191,68.16136,101.9682,74.68432,105.0648,69.84851,100.9272,26.95607,-58.33142,-157.0828,
329,347,142,52,55,272,335,414,62.38078,107.1662,68.21365,101.9251,74.72572,105.106,69.95161,100.9722,26.83793,-58.32544,-157.1217,
244,342,301,60,58,278,342,414,62.47624,107.3372,68.14841,101.9871,74.67702,105.1002,70.235,101.0446,26.12242,-57.82587,-156.5634,
211,355,550,159,64,289,351,422,62.50928,107.3028,68.13172,102.0294,74.63992,105.0998,70.27322,101.135,26.00889,-57.74707,-156.2923,
195,350,826,291,84,271,276,389,62.50452,107.1901,67.99206,102.0206,74.51786,105.065,70.25256,101.2209,26.14621,-57.89566,-156.135,
172,366,981,321,90,223,188,326,62.49159,107.073,67.8392,102.0065,74.38616,105.0252,70.22488,101.3025,26.6126,-58.13303,-155.9991,
175,426,1190,399,108,219,178,298,59.62718,105.6979,64.0422,100.5074,70.47281,104.1509,67.21321,100.2626,26.44217,-58.55881,-156.2901,
177,404,1227,453,124,220,170,304,48.5621,99.23657,52.97222,93.56213,55.8587,95.18437,53.97207,94.47224,26.27304,-58.96179,-156.5962,
154,392,1169,449,124,200,147,307,29.77043,78.8364,39.19254,79.16269,39.33751,77.59595,37.82123,81.5255,26.86216,-59.58603,-157.2351,
142,383,1066,394,116,175,153,322,25.76575,57.52644,23.29793,49.5531,16.03611,54.50734,4.62787,55.89133,28.6654,-59.29166,-157.5463,
141,374,980,391,116,166,146,311,26.99461,52.71632,17.68414,38.94371,7.397614,46.77928,-7.7724,46.48116,31.03576,-58.07645,-156.5586,
128,321,764,322,105,172,149,303,15.99431,51.0287,12.10915,42.63839,7.285711,50.38406,-1.149597,53.29367,32.71395,-58.46524,-155.0828,
122,317,682,251,86,163,147,289,15.34187,43.02534,13.27954,39.76986,7.600904,45.32847,-1.53775,48.82557,34.31945,-59.21704,-153.3414,
114,301,728,227,78,181,154,259,14.75535,29.76745,15.00284,25.79492,7.582732,26.71897,-3.119446,31.1343,34.50319,-60.73126,-155.0802,
108,331,828,262,88,155,126,164,14.50173,21.53695,16.00082,15.1558,7.21799,13.24402,-4.846161,18.37264,35.26472,-61.71863,-155.5523,
97,325,838,260,89,166,150,190,13.7623,22.92946,14.60939,18.23312,7.127722,18.33576,-2.969269,22.56546,36.57599,-62.17569,-155.596,
102,342,869,303,98,172,170,199,13.86445,24.24459,13.61893,18.80248,6.984164,19.35991,-2.402618,22.55025,38.53748,-61.60126,-155.1476,
102,451,900,342,108,248,224,234,11.35815,20.09056,10.99796,14.06316,4.892002,15.45239,-3.415253,19.81191,40.97678,-60.30817,-154.0095,
115,485,935,359,115,263,250,230,10.73061,20.67962,11.14856,15.72898,5.298433,17.14269,-3.760651,20.76337,47.33155,-55.23068,-150.6833,
121,518,859,335,104,283,265,247,11.0197,20.55578,11.32618,15.91418,5.292366,17.32593,-4.031525,20.6529,51.31112,-50.36194,-147.8829,
120,560,827,322,106,280,260,227,10.91798,20.22149,11.25714,16.02104,5.468302,17.48957,-3.976044,20.21499,58.25561,-39.07935,-140.3133,
112,541,828,275,91,278,249,214,11.80864,20.23389,11.20696,16.06844,4.918274,17.71025,-5.634705,19.28674,66.77049,-6.450317,-112.9144,
110,445,836,236,79,216,204,170,11.88461,19.67776,10.3792,15.5252,4.068291,17.59705,-7.344543,18.7085,67.03706,23.64213,-86.0564,
96,405,729,213,70,179,160,159,11.99195,19.2603,9.219375,14.86989,3.06331,17.23305,-8.706512,18.38863,60.36286,50.34439,-62.59531,
202,326,698,196,76,161,135,127,12.5128,19.29052,8.441434,15.18237,2.397595,17.14115,-8.746948,18.4547,48.97684,66.45859,-48.78665,
227,203,690,189,72,155,119,94,12.24819,18.66958,8.173094,15.36532,2.13396,17.09292,-8.842957,18.67499,44.51343,70.37124,-45.38065,
272,174,592,190,87,163,116,97,11.40359,18.23488,7.510147,16.27668,1.440641,17.34746,-9.071869,18.95903,39.51218,74.97011,-41.62918,
389,216,614,177,95,162,112,122,10.37026,18.49501,7.681468,18.10697,1.382434,18.20159,-9.093048,19.27649,36.32605,76.78622,-39.5546,
423,209,627,193,108,193,114,140,10.97184,19.79822,9.799321,20.99022,3.235841,20.50642,-8.022583,20.62887,30.48454,78.33891,-38.27429,
471,214,532,181,104,182,117,153,14.44498,25.09412,13.24205,30.91591,6.785302,29.55183,-4.765503,25.89292,20.96773,82.33604,-37.44281,
483,214,479,173,104,175,105,149,17.32474,30.38777,15.46309,39.56459,9.238492,38.54558,-2.502625,31.33085,16.0038,84.3158,-37.6608,
529,226,468,177,101,185,140,158,19.11827,36.59595,17.12919,47.27425,10.10276,46.71441,-2.232605,38.58113,11.19836,86.41906,-37.59067,
470,196,343,186,94,193,139,139,26.72007,52.80778,20.36765,56.86092,14.02606,54.41475,3.645508,44.99169,7.971158,86.02115,-37.93686,
582,194,418,160,84,191,140,143,30.23208,61.56847,23.97272,65.41061,16.36372,61.55739,4.93114,50.05457,5.9063,85.77168,-38.26547,
704,201,461,161,84,192,145,193,31.26729,66.74924,26.6788,72.25146,18.14326,67.34375,5.677893,54.13913,2.846014,86.60206,-38.26874,
706,208,491,172,89,217,153,200,33.04864,84.15523,30.97273,87.54621,22.31467,80.69874,8.957454,66.32088,1.77457,86.78355,-38.44003,
676,193,498,169,94,215,136,205,35.31154,100.9402,35.16352,95.6639,30.9352,92.38997,20.40479,80.88279,1.956131,85.22648,-38.80658,
767,196,466,139,97,214,153,247,36.62446,100.6395,35.30269,95.62576,32.33488,93.09577,23.45889,85.2252,1.541193,84.02863,-39.62756,
761,204,374,162,97,194,157,256,37.19467,101.013,35.09613,96.22019,32.53164,94.03625,24.32777,87.12634,0.9019603,83.65201,-39.81491,
678,198,397,185,98,222,158,243,41.0133,102.497,38.67773,97.68906,37.39496,97.04955,28.96947,90.23462,-0.6008911,82.46363,-40.82318,
761,197,366,193,94,200,211,279,50.9303,106.4289,53.87403,102.4298,58.18264,99.04848,53.09299,94.62297,-0.9258118,81.56744,-42.56592,
777,220,349,190,87,183,202,304,53.34079,107.1243,56.86596,102.8628,62.26641,98.9376,58.25585,95.2973,-1.548431,81.50397,-43.20447,
802,237,364,195,90,189,204,368,59.11981,108.0193,63.26475,103.7237,70.92682,98.39016,69.81229,96.82166,-3.524109,81.3778,-44.97144,
756,280,330,207,93,185,205,385,62.11417,108.1963,64.13759,103.7226,70.87193,98.52885,69.88535,96.93399,-3.850006,81.34947,-45.56558,
843,322,299,264,101,165,206,405,62.33069,108.2278,64.45995,103.702,71.10139,98.66843,70.13074,97.06191,-4.372742,81.2939,-46.03653,
818,379,303,254,98,164,159,413,63.02283,108.2398,65.37842,103.5732,71.9893,98.63406,70.87453,97.06435,-4.33136,80.92139,-46.26974,
894,396,325,262,100,165,168,421,63.92037,108.2458,66.72648,103.4324,73.35206,98.55077,72.1305,97.07182,-3.548645,80.19386,-46.53442,
850,387,313,267,93,149,154,353,64.35046,108.2471,67.47173,103.3823,74.24565,98.42947,73.13641,96.92621,-3.526031,79.64514,-45.86292,
836,414,310,264,89,217,150,323,64.87329,108.2478,68.3044,103.239,75.25654,98.1506,74.33079,96.66198,-3.828247,79.46679,-45.32684,
731,388,223,202,83,214,139,292,65.33473,108.248,68.99312,103.1308,75.9929,97.89129,75.14874,96.24439,-4.535645,79.4599,-44.63498,
687,332,200,207,89,236,210,254,65.33556,108.2481,69.42492,102.9856,76.56862,97.70651,75.80104,95.93121,-4.715851,79.42833,-44.15637,
552,305,171,194,78,231,235,194,65.57281,108.2481,70.24488,102.8045,77.48238,97.4398,76.76029,95.4792,-4.875885,79.50437,-43.20163,
445,285,237,178,75,233,260,179,65.68824,108.2481,70.63538,102.6924,77.91901,97.22067,77.27888,95.12147,-5.182617,79.29702,-42.4166,
409,171,284,133,72,183,260,208,65.67864,108.2482,70.80643,102.5858,78.18028,97.03318,77.7133,94.81505,-5.493774,79.80011,-42.80811,
291,178,376,143,84,179,277,203,65.76349,108.2481,71.0144,102.4229,78.42357,96.76376,78.16072,94.47649,-6.425079,80.4885,-43.24695,
237,253,556,314,113,166,234,254,65.90649,108.2481,71.20009,102.2613,78.67152,96.49403,78.58932,94.17753,-7.02829,80.69341,-43.59341,
214,287,798,393,134,166,265,284,66.02831,108.2481,71.28455,102.2351,78.78264,96.44477,78.74641,94.12328,-7.013184,80.57594,-43.88788,
203,300,867,424,152,173,261,294,65.71836,108.2482,71.00814,102.0527,78.62261,96.20235,78.79186,93.86829,-7.350067,80.77158,-44.03378,
184,321,938,441,158,177,262,275,64.6265,108.2482,70.02173,101.7867,77.92106,95.98054,78.40372,93.65038,-7.10553,81.21099,-44.88019,
211,417,1030,635,201,192,264,293,62.04281,107.7097,66.42955,101.1534,74.41444,96.01552,75.51468,93.54845,-6.270813,81.30419,-45.09494,
282,521,1089,737,256,200,285,317,58.81338,107.0096,61.78388,100.4752,70.07423,96.07172,72.69153,93.45097,-5.103027,81.06792,-45.14639,
295,512,1009,746,262,244,356,320,30.18976,77.3652,38.66286,82.87323,43.29864,79.81851,44.7776,77.75994,-2.691406,83.89965,-42.36911,
310,567,1142,782,280,277,428,337,21.80783,53.89767,31.40966,64.45415,30.44901,62.0211,23.76375,62.20565,-0.5457458,84.48083,-40.11478,
312,567,1161,799,286,283,434,344,21.3105,44.18343,24.73893,46.65754,21.62476,49.96775,12.36885,53.21788,0.1864713,85.63896,-38.26566,
287,499,1128,658,257,280,430,316,15.26126,35.08362,13.56167,32.12125,10.8302,37.1612,1.625306,42.42403,2.313488,85.85124,-37.93884,
193,365,1033,481,187,261,411,239,9.758481,29.75151,6.832445,25.18656,3.993721,29.55513,-5.990234,34.6212,3.691991,86.20457,-38.11398,
221,399,1011,431,175,227,318,207,6.341939,25.96644,1.778046,20.33091,1.139712,22.73845,-5.689545,27.61077,4.3828,87.39574,-39.42365,
316,350,800,352,136,171,194,154,6.402681,24.16129,0.02361755,16.44345,-1.103058,17.9272,-7.501099,23.21246,5.24458,87.54794,-39.72415,
387,339,759,297,133,145,176,140,5.006204,23.1227,1.240356,17.89351,0.3438891,19.51815,-7.089081,24.3769,6.06868,87.41779,-39.47244,
484,327,655,275,127,115,159,149,4.269556,22.05012,1.537162,18.6313,0.6534418,20.54214,-6.908203,25.2092,7.001601,86.9626,-38.96005,
578,309,648,259,124,107,149,153,3.907328,21.97244,2.018314,19.42929,1.918507,21.39556,-5.197113,26.11057,7.418487,86.66384,-38.58154,
631,296,587,248,123,112,121,167,3.920233,22.07847,2.401012,19.98269,2.728532,21.95626,-3.994568,26.70348,7.151423,86.83591,-38.51239,
735,250,575,215,116,116,110,204,5.676711,24.14807,4.539988,23.90817,5.421577,25.84812,-0.4359436,29.32528,6.512829,87.15451,-38.22397,
826,249,450,198,101,131,124,292,10.70002,30.80954,9.027672,34.3128,12.16615,39.01531,9.979577,38.21875,4.994177,87.26364,-38.40475,
878,249,432,203,96,129,114,293,12.37714,35.44702,10.58254,42.43147,13.1365,46.34622,11.41014,42.84388,4.055326,87.39196,-38.97302,
940,300,356,188,92,130,115,318,15.60436,53.46252,12.72224,63.43465,13.79665,63.0846,12.56504,55.43487,3.264125,87.43143,-40.26297,
957,273,314,152,75,115,115,329,19.03112,79.63797,18.09912,87.06385,16.57005,82.57153,14.20635,72.17578,2.803111,87.10171,-42.45636,
1022,317,284,153,73,116,160,415,23.36403,94.62336,28.38919,92.60629,24.95894,87.82474,18.08537,76.21105,2.670052,87.07772,-43.02914,
987,317,341,153,66,101,197,375,27.79375,104.7809,38.8559,99.37019,33.97138,93.87109,22.07137,80.62538,2.1476,86.88374,-43.439,
970,354,379,163,72,115,261,396,33.74662,106.7825,44.86131,102.5231,46.76659,99.15453,37.45507,89.73206,1.762744,86.41447,-43.95859,
965,331,395,183,69,111,262,432,40.45397,107.6973,52.10683,104.7772,58.84729,101.0531,54.04488,94.16547,0.9694276,86.17043,-44.50427,
942,321,397,178,68,111,266,427,49.05177,108.1529,62.42049,105.4844,72.20314,99.59162,70.62167,96.68131,-1.007324,85.5944,-46.85278,
905,277,410,182,64,111,243,350,51.8853,108.2165,63.38964,104.9949,72.80526,98.25825,72.8895,95.08754,-2.28006,85.65114,-47.78278,
907,280,424,195,76,139,221,403,55.03254,108.237,65.45397,105.0171,75.21202,97.47492,76.98285,94.42984,-2.639496,85.795,-48.27856,
899,260,393,180,72,132,143,395,55.96947,108.2456,65.64401,104.7453,75.35835,97.70474,76.47749,94.26627,-2.139832,85.96907,-48.40341,
882,239,385,158,73,137,144,366,56.46486,108.2471,65.70348,104.6567,75.26971,97.81247,76.04687,94.27157,-1.542511,86.32781,-47.79901,
901,224,382,174,73,132,137,367,57.80473,108.2479,66.54615,104.6736,75.85999,97.86993,76.27026,94.4856,-1.656555,85.55515,-47.5051,
813,228,341,206,72,131,134,354,57.7114,108.248,66.9123,104.4691,76.40451,97.73518,77.06209,94.19915,-1.320129,85.36349,-47.11969,
772,231,251,202,55,93,102,281,58.4665,108.2481,67.34548,104.437,76.67763,97.67245,77.2999,94.12,-1.264374,84.87232,-46.57251,
693,196,237,199,51,92,99,255,58.90699,108.2481,67.7219,104.3856,76.96504,97.58167,77.62801,93.96936,-0.6938782,84.59943,-46.4873,
572,177,167,189,45,92,88,203,59.33773,108.2482,68.02414,104.316,77.19855,97.48391,77.96383,93.79437,-0.8142395,83.9306,-45.71661,
490,176,132,170,43,93,87,175,59.54986,108.2481,68.16506,104.2181,77.40977,97.34278,78.39478,93.53903,-0.676239,83.93375,-45.25104,
360,164,148,113,37,96,78,135,60.05824,108.2481,68.59355,104.1333,77.65724,97.18751,78.68896,93.37881,-0.604248,83.66093,-44.96539,
266,126,167,98,39,96,73,105,60.20972,108.2481,68.72926,104.0134,77.86105,97.08727,78.98669,93.18994,-0.5942383,83.45594,-44.85028,
260,134,282,118,47,92,108,118,60.35794,108.2482,68.89359,103.848,78.08476,96.86715,79.44176,92.92537,-0.4142151,83.06865,-44.97913,
216,141,473,134,62,106,132,138,60.54207,108.2482,69.10136,103.7422,78.35863,96.71135,79.82275,92.67892,-0.1644897,82.87469,-44.27148,
168,150,582,148,69,132,204,169,60.46169,108.2482,69.08452,103.6907,78.37978,96.66403,79.89685,92.63914,-0.1663818,82.75417,-44.04547,
153,155,736,222,84,126,214,188,60.21372,108.2482,69.0301,103.5319,78.44286,96.52354,80.12051,92.53012,-0.02838135,82.80655,-44.07434,
150,188,800,279,92,129,218,196,60.20567,108.2481,69.04108,103.4548,78.52825,96.33411,80.38542,92.31557,0.09790398,82.43704,-44.53281,
144,262,881,396,123,140,210,187,59.64533,108.2482,68.8,103.3043,78.43159,96.16526,80.39686,92.1789,0.4451757,82.37297,-44.9729,
145,290,874,399,123,127,200,164,56.22321,107.5831,68.06719,103.098,78.49619,95.93974,80.43221,92.07296,0.7396498,82.32706,-45.78543,
136,292,852,414,127,104,121,180,29.51131,92.33028,57.65682,100.4528,71.81892,94.28002,75.61617,89.90011,2.71521,82.63503,-45.35294,
135,287,790,390,120,101,141,186,7.136842,75.07574,45.48343,97.34933,62.48484,92.50018,69.42365,87.34583,5.002654,83.31694,-43.77158,
122,273,796,359,119,95,167,182,16.91867,52.43107,30.39524,63.43323,33.5732,60.42046,33.34238,59.81933,7.457815,84.06327,-40.16483,
98,198,751,228,83,74,158,183,14.59644,48.28344,28.80051,54.01927,30.37624,53.58192,23.9355,52.12899,8.691528,84.31391,-37.80246,
91,166,758,234,76,73,150,200,13.5999,43.07788,25.08826,50.45982,25.87819,50.13523,17.80532,49.16201,9.436848,84.0163,-36.52423,
88,158,713,197,63,59,149,163,13.38987,37.07479,18.76433,42.01427,18.14505,42.84238,9.148403,43.76524,11.9273,83.2123,-34.62766,
76,149,642,170,62,55,115,144,13.09769,34.35085,17.11266,38.84368,17.08276,40.52103,9.969392,42.6895,14.6902,81.28783,-34.50339,
65,136,569,152,54,46,80,139,12.5969,31.07199,15.06393,35.09909,15.24744,37.70042,9.336744,41.09369,18.1711,79.30691,-34.0921,
61,134,531,141,61,49,80,146,10.43215,29.12098,14.91615,34.70009,14.27404,37.06006,6.762641,40.10556,22.13877,77.54466,-33.41095,
53,116,433,126,61,43,78,117,9.454179,27.98474,14.01044,32.55297,13.27206,33.57,6.35083,37.32752,25.48963,76.3556,-33.60269,
155,139,447,149,67,50,79,108,8.705465,27.14831,14.08643,32.24133,13.80806,33.38763,6.831836,37.09187,26.91736,75.54047,-34.06659,
296,143,438,153,65,51,79,108,6.597912,24.69915,14.00889,30.90091,14.73128,32.29897,7.673413,36.08127,33.60343,70.71179,-35.06433,
343,147,403,159,67,52,59,109,6.693213,23.35279,14.47473,29.98153,15.37277,30.31123,8.948798,33.15398,42.45323,66.81333,-35.06018,
375,136,298,148,64,49,58,100,6.414179,22.54959,14.44251,28.68314,15.4164,28.56497,9.179425,31.30586,45.18938,65.25639,-35.5961,
425,149,252,167,73,60,58,106,7.788716,23.27798,14.83161,29.68869,16.49698,29.83045,10.44018,32.59455,51.85181,61.81298,-37.54346,
485,119,211,142,74,58,60,117,10.26435,24.84626,16.34566,30.84692,18.34799,30.98358,12.81398,33.20994,52.08763,61.02277,-38.59933,
650,136,207,143,72,67,67,188,12.47353,26.12333,17.74615,31.79925,20.06523,31.91753,15.00534,33.66838,52.65723,59.67709,-40.07397,
720,151,216,140,71,71,69,202,13.7788,27.80456,22.96531,34.33316,26.09069,35.42788,19.73672,35.2634,53.3248,58.38668,-41.27075,
816,164,211,136,67,73,76,232,18.74723,39.10753,29.23881,44.43296,31.40191,43.32013,24.4225,40.20039,55.74277,55.74214,-43.53711,
865,168,157,88,55,66,76,242,21.48615,51.67515,31.90223,55.08604,34.47722,52.82181,28.31125,45.31429,61.90203,46.10067,-52.55222,
915,238,133,99,56,69,79,277,28.04724,78.59837,33.85522,72.82415,35.43106,71.66286,30.13341,63.78795,64.18948,38.83485,-60.5022,
883,387,134,95,57,64,82,276,33.44432,95.83086,34.9715,83.52079,35.36999,83.55888,30.43473,78.16508,67.09637,30.57831,-68.8595,
1053,413,130,98,60,83,127,439,36.62999,105.1117,40.89921,100.4245,40.89311,100.7295,33.28897,95.87994,67.49102,27.52442,-72.07104,
1083,456,148,114,64,86,131,452,48.04115,107.6286,59.48156,105.3185,63.63358,104.5045,50.98693,100.7057,67.00125,16.36571,-82.79163,
1064,511,165,110,62,85,134,450,51.72655,108.1507,64.80825,104.7851,73.62038,101.4524,68.01917,97.88979,68.01335,1.528991,-97.78455,
1062,541,163,112,54,82,133,439,52.25891,108.1939,64.08976,104.2278,72.41293,101.0987,67.40292,97.16747,68.35921,-1.805664,-101.4357,
988,533,173,127,57,84,131,415,54.22564,108.2379,64.17655,103.6998,72.00902,100.9457,67.37514,96.67884,69.43936,-7.582672,-108.2125,
775,944,169,151,56,60,91,233,56.14457,108.246,64.93633,103.7119,72.58775,101.2123,68.1095,96.78729,69.34978,-11.04449,-111.5341,
702,987,154,138,54,56,84,192,56.61167,108.2468,65.05144,103.743,72.6273,101.3114,68.26434,96.77903,68.8727,-12.51685,-113.2639,
693,986,133,138,51,73,127,189,57.91373,108.2478,65.73164,103.8164,73.31152,101.4952,69.35225,96.84537,66.728,-22.45749,-122.0568,
568,980,135,126,51,92,201,169,58.31178,108.2481,66.46316,103.8201,74.07005,101.3798,70.53002,96.69298,64.24049,-32.11896,-131.0759,
543,947,115,108,51,187,267,172,58.57238,108.2481,67.19225,103.8015,74.61283,101.438,70.95097,96.75346,61.55717,-39.03094,-137.394,
466,519,107,62,46,198,272,282,58.68953,108.2481,67.43929,103.7993,74.80366,101.461,71.12033,96.77567,60.48061,-41.14163,-139.3475,
314,391,140,66,48,198,275,286,58.94235,108.2481,68.46393,103.6493,75.82504,101.1115,72.36586,96.47467,56.66351,-45.85681,-143.9456,
175,325,343,77,60,229,286,317,58.87672,108.2481,69.02228,103.4878,76.3744,101.0868,72.9225,96.29942,54.83616,-47.46982,-145.5871,
177,305,555,168,84,299,333,331,59.18594,108.2482,69.61012,103.3768,76.81647,101.0771,73.18519,96.32622,53.5728,-48.21158,-146.2956,
181,356,861,278,110,266,299,343,59.74565,108.2481,70.31361,103.3988,77.2486,101.0487,73.49559,96.33154,52.30233,-48.52582,-145.9639,
177,380,974,308,114,260,296,292,59.61142,108.009,70.69999,103.1775,77.43142,100.9947,73.689,96.40278,50.10223,-49.18625,-145.3047,
164,384,1033,326,123,265,299,286,54.71714,104.7541,68.24703,102.0447,75.39462,100.3608,71.91675,95.92966,49.45216,-49.85272,-146.7606,
159,393,1118,359,131,250,279,263,39.95996,92.73488,60.61369,98.19999,67.59513,98.05718,64.9512,93.85265,49.45363,-51.49866,-148.8132,
159,360,1102,362,123,154,158,263,30.50527,64.01622,46.9567,84.95251,51.55964,91.01974,49.30027,88.56199,50.6256,-53.96579,-151.4906,
113,289,1022,319,109,135,121,282,26.86923,55.99216,40.65709,57.38951,47.54456,76.04652,45.11811,79.79559,49.25066,-57.08411,-153.9979,
118,257,960,297,108,153,139,264,22.69839,44.84407,33.27616,29.32514,40.83188,42.98242,40.17503,52.67916,46.16922,-61.13553,-157.7116,
114,256,950,291,98,148,134,264,19.83705,37.93332,25.79305,27.03059,30.41446,30.07464,31.68154,38.30372,48.04046,-61.28009,-156.7768,
122,234,920,277,87,131,269,289,16.23335,33.95774,21.04108,29.09358,22.03656,29.50787,19.64168,35.19541,49.68481,-62.52008,-156.56,
124,231,935,246,90,129,289,274,12.75623,29.18721,17.71303,26.55393,17.88741,25.87649,15.14148,30.49862,47.26168,-65.40549,-157.3433,
118,222,810,207,78,141,306,242,11.03732,28.39807,18.97395,26.04344,20.73462,25.2426,17.02553,29.17301,45.83102,-66.95947,-158.6421,
109,214,795,198,73,119,305,227,9.154864,26.71657,19.34418,24.6736,22.07418,23.41497,17.61607,26.84059,45.1089,-68.0838,-159.9566,
110,205,774,192,76,114,304,219,8.039976,24.20689,18.08677,22.82835,19.84254,22.36309,15.24859,26.05154,43.2345,-70.23767,-161.3312,
176,195,638,159,69,109,187,168,5.141671,21.60406,17.52606,20.11962,19.44407,19.96776,13.928,24.14004,43.01213,-70.25006,-162.4123,
191,170,490,133,56,106,151,160,5.802678,21.6736,15.79822,18.59763,17.27207,18.31579,12.56439,22.47297,42.36097,-70.48605,-162.8235,
212,170,480,138,60,82,112,140,4.991687,21.17182,15.71796,18.3034,16.64138,17.82965,10.90597,21.80138,41.89781,-70.38492,-162.798,
259,162,419,141,65,78,80,122,3.761226,20.14825,15.47896,17.56653,16.85389,17.23748,10.57387,21.15303,40.99508,-70.29144,-162.7192,
318,149,328,118,58,79,74,106,3.650611,19.67801,15.44554,17.23549,16.8235,16.9531,10.36557,20.70313,40.38694,-70.36774,-162.7532,
300,142,283,97,56,72,65,95,3.994492,19.48075,15.64472,17.33527,16.94851,17.10881,10.44723,20.59219,40.28113,-70.36426,-162.7089,
301,148,256,93,53,74,73,106,5.938277,20.82914,17.4969,19.19875,19.0401,18.75512,12.503,21.58847,40.64737,-69.9577,-162.5681,
330,129,179,65,49,71,86,111,9.165634,25.56006,20.53445,25.94505,21.36944,24.57059,12.9851,25.91119,41.00012,-69.15668,-163.1682,
443,134,157,55,44,73,93,128,14.57725,32.85753,24.02983,40.47318,23.60567,38.19582,13.74056,34.70476,41.91556,-67.54584,-164.5436,
514,138,131,61,46,69,94,148,20.36064,42.61907,27.30136,54.46098,25.73026,53.63977,16.46148,46.0224,41.90501,-65.8042,-164.3475,
694,179,117,65,48,72,102,181,22.75427,53.67194,29.18243,62.98434,27.41394,62.37246,18.98463,54.02128,41.20021,-66.49863,-165.892,
725,200,103,65,50,68,99,185,24.98352,76.61186,28.57764,73.02332,27.30581,74.28396,19.387,69.26182,42.3162,-66.284,-168.0513,
763,310,155,81,56,72,94,192,29.73099,95.45723,33.42461,86.69424,31.44411,86.91512,21.54894,80.81971,42.94089,-66.01221,-168.816,
799,327,189,86,59,95,104,181,33.39952,100.8603,38.16586,91.62491,35.88327,93.29857,23.70563,87.55232,42.63621,-66.35031,-168.8979,
870,373,196,81,64,122,131,191,38.74591,103.1956,45.34366,96.12527,43.23602,100.3289,27.57539,95.70976,42.50573,-66.67917,-168.6226,
828,530,233,123,72,126,129,180,46.8628,101.9298,55.23354,97.05803,54.4304,102.0561,36.34333,98.88815,41.61398,-66.32068,-168.2234,
937,601,243,133,72,124,129,190,47.58379,102.3329,57.18545,98.30241,57.15589,102.7063,39.4403,98.94605,41.13342,-66.10971,-168.1076,
960,573,223,139,76,123,134,202,51.27375,103.1239,62.29353,101.0873,62.95799,103.9603,45.31209,100.0554,39.60055,-65.07629,-167.4551,
935,599,198,138,77,109,124,205,52.57034,103.544,64.07307,101.8764,65.55877,104.497,49.45956,100.8669,39.37643,-63.71094,-166.4658,
835,608,191,140,74,81,94,183,54.41509,104.1685,66.70839,102.2655,68.5969,104.8468,52.54891,101.7046,39.40126,-62.94183,-166.0454,
803,504,145,113,64,85,93,177,55.60877,104.4133,67.70632,102.1077,69.65013,104.9598,53.96519,102.1294,39.30671,-62.52872,-165.3137,
651,409,121,101,64,199,173,176,56.35405,104.4204,67.83706,101.9283,70.14179,105.1401,55.55743,102.5759,39.11704,-62.77856,-166.1531,
567,393,102,86,64,343,275,269,56.59678,104.5049,68.02347,101.886,70.45287,105.1061,56.38776,102.646,38.7699,-62.84995,-166.4532,
463,359,135,86,63,374,337,352,57.03645,104.6521,68.54611,101.95,71.24012,105.0406,57.6552,102.6971,38.41291,-62.75229,-166.4825,
414,305,325,88,62,385,351,371,57.47113,104.8251,69.0877,101.9852,72.19186,104.8997,59.59174,102.7207,38.30605,-62.39258,-166.2489,
263,301,570,120,68,396,357,382,57.65592,104.9396,69.23038,101.9165,72.50681,104.8013,60.47243,102.5364,37.8737,-62.94263,-166.7626,
225,382,762,222,83,399,344,392,57.66786,104.9658,69.28751,101.8408,72.66313,104.6929,60.99738,102.2753,37.1864,-62.34143,-165.937,
176,393,827,240,77,293,286,341,57.50698,104.8676,69.09798,101.7667,72.44787,104.6067,60.96688,102.0402,37.0127,-62.31259,-165.8981,
154,483,914,288,84,267,225,283,55.61571,104.0647,66.82984,101.3245,70.05956,104.1648,59.09846,100.9546,37.09765,-62.07443,-165.9401,
148,481,946,299,85,252,200,261,45.97038,99.09341,53.39383,94.97902,55.01535,100.123,47.86142,97.03259,37.11438,-62.14264,-166.1829,
148,458,879,313,91,232,187,256,35.02872,78.84853,46.37301,83.53275,47.97239,89.82961,41.7406,91.06575,37.43572,-63.49341,-166.1063,
149,437,769,262,79,167,166,289,27.3716,56.98455,40.6787,60.82218,43.74416,70.5034,38.69363,73.37015,37.80117,-64.60382,-165.6362,
137,430,821,250,79,189,160,279,23.84233,54.55884,31.96487,46.76826,40.52443,63.69242,38.10479,65.35735,38.27682,-65.13654,-165.3334,
145,335,834,228,82,176,146,282,17.51939,38.58015,23.66584,29.55284,36.0833,37.84865,37.99304,34.31956,39.31612,-66.37231,-163.2354,
144,353,880,260,93,178,155,283,14.41554,34.61744,20.84318,29.70504,31.1322,31.50831,35.23026,30.8575,39.99063,-67.18564,-161.2669,
144,375,959,245,87,185,170,311,12.09346,32.14059,18.9121,30.55405,24.91021,27.77152,28.69361,29.9121,39.63499,-67.23087,-161.2452,
134,324,968,235,87,176,159,266,12.01159,27.14672,15.70809,24.2417,16.50566,23.58028,13.48306,24.75935,40.10023,-68.13486,-160.9052,
139,325,979,255,89,141,129,263,10.04322,25.96561,14.65146,22.14903,16.99113,22.13569,14.2963,24.28813,39.94322,-68.80872,-161.2623,
117,315,968,243,82,131,120,225,8.743921,23.18768,14.10374,19.76196,15.52999,19.92335,12.25014,22.68757,39.32351,-69.44495,-161.6706,
127,288,901,219,74,126,106,216,7.149376,20.81603,13.06194,17.39283,13.69027,17.35733,10.07397,20.72721,37.6133,-70.88049,-162.2213,
207,244,785,203,75,112,81,140,4.749633,19.73672,10.77079,15.24503,11.79512,14.22527,8.574457,18.57994,37.3575,-71.00943,-162.498,
266,239,733,200,71,89,67,116,5.263566,19.65264,11.21009,15.41715,12.26963,14.73789,8.621593,18.74386,37.05071,-71.31482,-162.8365,
430,216,585,175,67,86,67,113,4.003617,18.60945,11.15658,14.83512,12.38991,13.93929,7.986091,18.03023,36.91002,-70.94531,-162.4136,
476,183,437,145,61,80,64,114,4.557106,18.12638,11.32115,14.52602,12.54637,13.99526,7.895201,17.58021,37.25779,-70.3952,-161.6684,
526,182,325,109,58,118,112,131,4.534135,17.77229,11.32211,14.28201,12.4753,13.741,7.635408,17.23653,37.83669,-69.99432,-160.978,
545,174,254,93,48,136,157,142,5.067553,18.27959,11.90452,14.91179,13.02668,14.38579,7.796886,17.31029,37.50918,-69.88217,-161.014,
534,186,258,91,52,148,179,142,7.926891,22.05472,17.18142,21.89765,18.33577,21.0289,11.03743,21.83143,37.90732,-68.76288,-160.6188,
468,184,240,80,52,150,187,123,11.67683,29.73272,21.69881,35.26591,22.27957,32.62677,13.70666,28.29668,38.17242,-67.793,-161.5199,
474,192,219,74,54,152,194,122,13.65419,38.67595,22.65105,48.23655,22.33847,45.45763,14.70695,38.47412,38.40042,-67.18878,-162.6346,
460,181,235,62,47,135,175,112,15.60125,52.33859,22.63462,61.8217,23.09353,61.0577,17.58918,49.57934,38.9085,-66.6582,-163.7442,
459,172,252,62,44,114,136,103,16.94012,59.4747,22.72629,66.24592,23.01399,65.98017,18.1591,55.67617,39.58438,-66.03656,-164.2423,
452,180,250,63,39,99,106,104,20.72124,74.25458,24.03425,71.30568,23.33486,71.72422,17.78913,65.66173,40.7013,-65.12067,-165.0585,
411,198,246,60,40,106,126,137,24.45442,89.79488,25.97663,85.05411,24.38546,83.49014,18.44548,77.11223,40.99986,-64.95239,-165.2903,
424,204,250,58,41,114,127,148,29.41971,99.09564,33.32229,89.32104,30.99933,88.72305,21.26843,81.14008,40.81879,-65.18796,-165.2847,
571,222,372,73,43,100,128,160,32.09753,99.30518,40.56786,93.88914,39.84569,96.78992,26.68325,91.0814,40.03138,-65.49286,-165.5636,
572,322,375,75,44,130,151,172,37.3675,99.29715,44.86317,93.77843,44.05489,98.36773,29.30158,93.15839,39.47548,-65.22504,-165.5677,
626,358,440,79,44,130,150,172,38.7347,99.83316,46.98132,94.68378,47.34933,98.9915,33.59636,94.39915,39.64637,-64.70001,-165.1832,
722,421,443,79,39,116,129,185,45.38408,101.9061,56.03843,98.39594,59.77043,102.0479,48.47858,97.11177,38.71322,-64.75717,-165.2151,
823,446,444,84,35,115,121,198,48.71594,103.1912,59.69571,100.278,63.32751,102.59,51.84646,97.889,38.01131,-64.25482,-165.452,
781,520,328,94,44,131,139,203,53.07288,104.4094,63.53133,101.6559,67.7883,103.2325,56.82884,98.73684,38.49512,-63.4718,-164.7926,
820,470,303,98,45,102,117,203,55.03092,104.9848,65.52643,102.3437,70.0044,103.5745,59.36591,99.38979,38.90309,-62.74084,-164.2027,
791,444,164,92,42,103,121,207,56.30243,105.4213,66.91651,102.5044,71.78075,103.7419,62.12695,99.86298,39.29586,-61.90973,-163.5157,
721,387,151,93,47,104,114,189,57.28344,105.4914,67.62907,102.2641,72.27236,103.8962,62.86581,100.0921,39.66738,-61.55521,-163.5668,
575,351,133,92,48,141,151,165,58.04654,105.5432,68.26521,102.2249,72.89688,103.9229,63.71205,100.109,40.33366,-62.01669,-164.3806,
522,323,100,67,39,132,138,158,58.67131,105.5119,68.79765,102.1758,73.4053,103.8795,64.34927,100.0566,40.65967,-61.8598,-164.4274,
408,316,91,54,40,141,146,139,59.35596,105.4522,69.33678,102.1039,73.95555,103.7886,65.0242,99.94707,41.4194,-61.90277,-164.6611,
