maxgraf96/sEMG-myo-python/data/data_0.csv
EMG1,EMG2,EMG3,EMG4,EMG5,EMG6,EMG7,EMG8,FingerJoint1,FingerJoint2,FingerJoint3,FingerJoint4,FingerJoint5,FingerJoint6,FingerJoint7,FingerJoint8,wrist1,wrist2,wrist3
354,281,174,381,408,182,216,163,19.37991,27.60714,60.27888,99.08604,77.37656,91.1316,81.04292,84.24649,22.77411,73.17846,-41.37274
342,274,186,426,453,197,220,161,19.37991,27.60714,60.27888,99.08604,77.37656,91.1316,81.04292,84.24649,22.77411,73.17846,-41.37274
237,261,171,424,447,192,212,157,19.37991,27.60714,60.27888,99.08604,77.37656,91.1316,81.04292,84.24649,22.77411,73.17846,-41.37274
206,237,155,400,414,182,230,166,17.95908,26.09733,58.81847,97.19599,76.74006,90.13197,80.56287,83.67384,23.73329,83.82468,-19.2157
201,215,140,347,348,156,237,162,17.70757,25.95407,56.37784,95.49416,74.33011,89.6513,78.92656,83.45017,23.13363,82.4015,-22.82309
188,206,121,213,224,108,202,142,17.70757,25.95407,56.37784,95.49416,74.33011,89.6513,78.92656,83.45017,23.13363,82.4015,-22.82309
189,202,111,143,132,84,195,139,17.70757,25.95407,56.37784,95.49416,74.33011,89.6513,78.92656,83.45017,23.13363,82.4015,-22.82309
185,200,108,149,124,85,182,115,17.21287,24.19256,56.75943,95.75088,74.64112,90.23439,78.94302,83.84259,23.13363,82.4015,-22.82309
168,185,108,149,126,91,144,80,18.26816,24.05408,56.74997,95.71067,74.78381,90.42015,79.30851,83.40201,23.2083,81.90354,-23.65533
152,142,94,147,132,88,101,65,18.26816,24.05409,56.74997,95.71068,74.78382,90.42014,79.30851,83.40201,23.40208,81.13586,-25.05328
142,137,91,148,131,90,92,58,18.53326,23.77493,56.59621,95.49499,74.67928,90.26093,79.35223,82.93265,23.71413,75.5803,-32.56909
123,135,126,155,124,85,87,55,18.53326,23.77493,56.59621,95.49499,74.67928,90.26093,79.35223,82.93265,23.71413,75.5803,-32.56909
116,135,147,154,118,83,79,50,19.26163,24.06833,57.4872,95.984,75.51628,90.67316,80.19346,82.55107,23.65777,73.04235,-36.186
82,136,176,159,124,83,68,45,19.26163,24.06833,57.4872,95.984,75.51628,90.67316,80.19346,82.55107,22.33514,68.25114,-39.47189
64,150,188,163,118,81,63,41,20.69284,24.07568,61.1808,98.3896,78.33657,91.32478,82.2338,82.53564,22.33514,68.25114,-39.47189
63,159,231,184,113,89,63,41,20.69284,24.07568,61.1808,98.3896,78.33657,91.32478,82.2338,82.53564,23.27039,65.69093,-39.17914
58,155,266,168,98,90,56,37,22.44497,24.62513,61.93372,99.05785,78.81676,91.59269,83.02672,82.42843,23.64178,62.57421,-41.21835
68,177,355,212,123,95,67,81,22.44497,24.62513,61.93372,99.05785,78.81676,91.59269,83.02672,82.42843,23.64178,62.57421,-41.21835
69,177,433,227,123,95,71,84,23.56564,25.74852,63.07879,99.79446,79.66751,91.79496,83.69566,82.58054,23.64178,62.57421,-41.21835
76,162,563,240,123,98,73,90,23.56564,25.74852,63.07879,99.79446,79.66751,91.79496,83.69566,82.58054,23.56457,61.03174,-43.42294
93,182,622,262,136,97,83,119,23.7397,27.51296,59.59372,93.70089,75.69525,88.2962,80.66051,80.087,24.46533,60.75531,-44.42929
99,235,651,256,134,93,83,135,23.7397,27.51296,59.59372,93.70089,75.69525,88.2962,80.66051,80.087,24.46533,60.75531,-44.42929
97,228,651,219,105,85,72,177,23.44518,29.88059,55.44984,80.50994,66.43138,78.34512,69.0551,74.49789,24.46533,60.75531,-44.42929
94,224,663,206,94,81,64,207,23.44518,29.88059,55.44984,80.50994,66.43138,78.34512,69.0551,74.49789,24.21546,60.64147,-44.45779
105,236,650,250,108,92,65,212,21.6885,29.16428,41.53354,54.66935,46.63142,59.96658,40.83163,58.49182,24.21546,60.64147,-44.45779
119,215,601,242,104,95,73,223,20.57784,27.31911,31.02159,43.22022,28.56592,44.88812,15.26127,46.48328,25.38855,61.68112,-42.38272
127,167,723,257,114,112,122,309,20.57784,27.31911,31.02159,43.22022,28.56592,44.88812,15.26127,46.48328,25.07435,63.47905,-39.93143
159,175,732,257,121,115,126,300,20.57784,27.31911,31.02159,43.22022,28.56592,44.88812,15.26127,46.48328,25.07435,63.47905,-39.93143
162,177,694,253,119,115,133,287,20.62455,26.26989,26.8937,39.52126,23.35456,41.4425,11.68384,43.64291,25.07435,63.47905,-39.93143
155,147,631,192,102,108,138,302,20.62455,26.26989,26.8937,39.52126,23.35456,41.4425,11.68384,43.64291,25.46634,62.60056,-39.77472
134,167,699,161,85,102,166,294,17.80776,23.66982,20.64947,34.94361,16.22618,37.12586,6.013757,40.56544,26.53263,62.77415,-38.69601
136,178,633,129,77,91,155,226,17.80776,23.66982,20.64947,34.94361,16.22618,37.12586,6.013757,40.56544,26.53263,62.77415,-38.69601
94,178,623,130,63,83,168,213,17.80776,23.66982,20.64947,34.94361,16.22618,37.12586,6.013757,40.56544,26.53263,62.77415,-38.69601
89,177,620,127,62,79,177,209,15.86801,21.36331,15.83401,29.73921,10.31256,30.20556,1.181567,35.05895,29.25301,63.26777,-36.09424
89,185,647,161,86,80,176,183,13.85307,19.82878,13.05492,26.32136,6.64947,25.73653,-3.199005,30.01508,31.60677,62.29093,-35.71426
93,178,614,205,96,84,147,198,13.85307,19.82878,13.05492,26.32136,6.64947,25.73653,-3.199005,30.01508,31.60677,62.29093,-35.71426
79,161,569,215,96,78,131,188,11.7629,18.36864,11.97077,25.04281,4.940793,24.29079,-5.22818,28.44077,32.85268,62.99768,-34.83185
74,140,552,229,100,77,112,209,11.7629,18.36864,11.97077,25.04281,4.940793,24.29079,-5.22818,28.44077,32.85268,62.99768,-34.83185
76,143,538,230,98,78,100,214,10.38801,17.5893,10.92593,24.10098,4.565525,23.75541,-5.220703,28.0513,32.85268,62.99768,-34.83185
71,136,547,213,83,70,124,217,10.38801,17.5893,10.92593,24.10098,4.565525,23.75541,-5.220703,28.0513,36.87968,61.83604,-32.97556
71,117,515,167,78,56,118,203,9.033623,17.0773,9.893818,23.18125,4.573416,23.04495,-4.555328,27.60029,42.38518,59.95117,-32.9126
75,119,493,175,83,57,123,225,9.033623,17.0773,9.893818,23.18125,4.573416,23.04495,-4.555328,27.60029,42.38518,59.95117,-32.9126
78,136,502,151,81,55,121,195,9.033623,17.0773,9.893818,23.18125,4.573416,23.04495,-4.555328,27.60029,42.38518,59.95117,-32.9126
80,149,496,159,83,55,117,202,8.528121,16.76499,9.551465,21.50904,5.537968,22.57255,-3.073456,26.42445,53.16808,49.48324,-38.94229
84,159,437,153,76,54,85,203,8.701697,16.84725,10.45662,18.02151,4.954856,20.0017,-5.75882,23.35579,53.16808,49.48324,-38.94229
81,194,465,150,71,53,79,219,8.701697,16.84725,10.45662,18.02151,4.954856,20.0017,-5.75882,23.35579,63.98824,34.71312,-51.1102
79,197,480,144,70,54,65,202,8.969395,16.47454,13.33333,17.43431,7.611326,19.33006,-5.381683,21.82271,68.53822,15.17627,-69.32007
85,197,486,147,70,59,76,213,8.969395,16.47454,13.33333,17.43431,7.611326,19.33006,-5.381683,21.82271,68.53822,15.17627,-69.32007
82,217,498,142,70,58,63,202,8.617536,15.79913,15.00726,16.9044,10.01428,19.38568,-4.659515,20.54387,68.53822,15.17627,-69.32007
84,246,485,140,79,58,63,201,8.617536,15.79913,15.00726,16.9044,10.01428,19.38568,-4.659515,20.54387,70.70095,-17.00522,-99.3512
86,236,480,175,90,60,62,208,8.44284,15.7844,15.00933,16.48744,10.50156,18.93339,-3.733276,19.52109,68.76987,-38.40497,-120.4246
95,259,509,176,97,70,64,204,8.44284,15.7844,15.00933,16.48744,10.50156,18.93339,-3.733276,19.52109,68.76987,-38.40497,-120.4246
96,278,486,172,95,66,52,263,8.923961,16.16229,15.68729,16.12033,10.8781,18.16616,-3.456665,18.66165,64.71751,-53.18506,-134.2086
100,267,487,171,93,72,58,281,8.923961,16.16229,15.68729,16.12033,10.8781,18.16616,-3.456665,18.66165,64.71751,-53.18506,-134.2086
96,265,503,178,90,73,56,282,8.900378,16.25081,15.96389,15.93162,11.0607,17.28299,-2.680115,17.87876,64.71751,-53.18506,-134.2086
94,316,519,145,78,73,53,256,8.900378,16.25081,15.96389,15.93162,11.0607,17.28299,-2.680115,17.87876,58.73748,-65.10114,-144.5117
84,324,507,152,79,62,49,239,8.770962,16.10585,16.10036,15.26598,10.71415,16.11774,-2.817871,16.78441,53.30709,-70.81662,-149.4007
73,388,480,156,81,68,53,185,8.770962,16.10585,16.10036,15.26598,10.71415,16.11774,-2.817871,16.78441,53.30709,-70.81662,-149.4007
67,391,462,155,82,63,48,152,8.144709,16.24925,16.3763,15.19141,10.73938,15.49926,-3.229034,16.20177,53.30709,-70.81662,-149.4007
118,374,456,152,81,62,47,140,8.144709,16.24925,16.3763,15.19141,10.73938,15.49926,-3.229034,16.20177,49.13228,-74.67902,-151.835
151,323,377,149,79,63,51,135,7.953141,16.76963,16.28164,15.35584,10.84534,15.46292,-2.973663,16.09785,46.30628,-76.54022,-152.5713
344,297,237,113,59,67,52,139,7.953141,16.76963,16.28164,15.35584,10.84534,15.46292,-2.973663,16.09785,46.30628,-76.54022,-152.5713
397,182,227,99,59,64,44,94,9.207766,18.5238,16.55458,16.86418,11.46092,16.51463,-1.989777,16.5881,44.4962,-77.81299,-153.072
404,176,234,103,66,70,48,86,9.207766,18.5238,16.55458,16.86418,11.46092,16.51463,-1.989777,16.5881,44.4962,-77.81299,-153.072
410,224,199,93,63,69,47,95,15.93479,34.64381,21.90498,37.87409,19.15308,36.32441,6.22337,28.32928,44.4962,-77.81299,-153.072
435,252,177,87,65,67,52,112,15.93479,34.64381,21.90498,37.87409,19.15308,36.32441,6.22337,28.32928,42.08662,-78.83606,-154.6351
397,318,178,89,66,64,50,98,16.12833,60.95994,24.06405,62.28846,22.21186,57.52733,11.68224,43.65406,39.54059,-79.70276,-157.0796
426,417,178,83,64,69,61,116,16.12833,60.95994,24.06405,62.28846,22.21186,57.52733,11.68224,43.65406,39.54059,-79.70276,-157.0796
505,512,166,69,59,68,62,131,21.12255,82.33465,24.7717,78.13574,21.86983,73.81957,13.22263,62.97663,39.54059,-79.70276,-157.0796
612,584,175,74,66,75,75,159,21.12255,82.33465,24.7717,78.13574,21.86983,73.81957,13.22263,62.97663,38.22542,-79.75415,-159.5106
614,622,167,74,63,73,72,154,28.44479,98.76218,35.94149,92.18595,32.10747,90.84238,16.98352,81.14775,35.57234,-80.52759,-159.9205
627,623,152,71,65,74,72,154,42.52277,99.37576,48.40447,93.03533,44.75277,95.89529,26.18823,89.44095,35.57234,-80.52759,-159.9205
698,615,147,73,71,70,79,179,42.52277,99.37576,48.40447,93.03533,44.75277,95.89529,26.18823,89.44095,32.95321,-80.72946,-161.2881
731,584,156,80,73,65,78,175,42.52277,99.37576,48.40447,93.03533,44.75277,95.89529,26.18823,89.44095,32.95321,-80.72946,-161.2881
681,550,153,99,68,57,66,151,51.22759,102.0538,56.19469,96.75224,53.65544,100.2521,35.46041,95.66087,31.44079,-80.94556,-161.6395
679,539,168,104,72,60,69,155,51.22759,102.0538,56.19469,96.75224,53.65544,100.2521,35.46041,95.66087,31.44079,-80.94556,-161.6395
637,544,182,105,72,61,72,160,54.31194,103.3385,59.49582,99.83685,57.67335,102.504,40.20058,98.78416,30.09051,-81.64462,-162.6764
543,503,177,108,67,65,60,123,54.31194,103.3385,59.49582,99.83685,57.67335,102.504,40.20058,98.78416,30.09051,-81.64462,-162.6764
479,554,179,114,64,68,75,153,56.57076,104.2132,63.57755,101.4741,62.71491,104.1049,45.19994,101.416,30.09051,-81.64462,-162.6764
442,545,173,96,63,70,77,153,56.57076,104.2132,63.57755,101.4741,62.71491,104.1049,45.19994,101.416,28.7989,-82.25745,-163.0903
444,542,156,94,58,71,78,150,57.80207,104.5836,65.08057,101.9357,64.58968,105.0785,47.70264,102.7601,28.3872,-82.94012,-162.9845
426,536,136,90,58,84,93,147,57.80207,104.5836,65.08057,101.9357,64.58968,105.0785,47.70264,102.7601,28.3872,-82.94012,-162.9845
388,563,157,94,66,126,158,213,58.5246,104.6547,66.40883,101.954,66.22598,105.4562,49.85157,103.8155,27.513,-83.89075,-163.3299
318,532,147,78,61,132,160,259,58.5246,104.6547,66.40883,101.954,66.22598,105.4562,49.85157,103.8155,27.513,-83.89075,-163.3299
277,509,139,74,60,170,179,333,58.70425,104.5548,66.90419,101.91,67.0212,105.5864,51.73315,104.3196,27.513,-83.89075,-163.3299
221,484,140,69,64,199,197,376,58.70425,104.5548,66.90419,101.91,67.0212,105.5864,51.73315,104.3196,26.64198,-84.13043,-163.868
216,524,405,113,68,205,194,386,58.72752,104.5188,67.03529,101.8035,67.55035,105.4415,53.0905,104.4071,25.76808,-84.14526,-164.1295
198,532,622,183,87,346,256,386,58.72752,104.5188,67.03529,101.8035,67.55035,105.4415,53.0905,104.4071,25.76808,-84.14526,-164.1295
183,521,764,243,99,360,260,356,57.95787,104.0963,66.49321,101.3922,67.57439,105.1414,54.25771,104.1167,25.14754,-84.01642,-164.091
177,543,846,273,104,402,269,301,57.95787,104.0963,66.49321,101.3922,67.57439,105.1414,54.25771,104.1167,25.14754,-84.01642,-164.091
189,582,959,283,104,465,316,286,40.52737,91.57257,51.46365,91.74082,50.74493,96.14504,39.87117,97.1051,25.14754,-84.01642,-164.091
174,586,1009,306,104,468,321,328,40.52737,91.57257,51.46365,91.74082,50.74493,96.14504,39.87117,97.1051,25.80336,-83.23236,-163.9539
170,589,945,380,112,369,244,323,22.43431,65.94199,33.35111,62.95577,33.51798,74.1646,22.84846,77.78535,25.9192,-83.88971,-163.9381
169,588,952,377,117,360,239,342,22.43431,65.94199,33.35111,62.95577,33.51798,74.1646,22.84846,77.78535,25.9192,-83.88971,-163.9381
174,597,933,368,115,299,220,366,15.01468,46.92544,22.58615,42.67002,25.59504,50.01515,20.40387,51.43325,25.9192,-83.88971,-163.9381
172,583,956,411,121,158,124,347,15.01468,46.92544,22.58615,42.67002,25.59504,50.01515,20.40387,51.43325,27.08396,-84.22516,-161.1747
174,573,954,416,133,145,117,323,8.872553,35.94532,16.27361,30.84483,14.75935,30.02048,8.610696,32.88047,25.19799,-85.57544,-159.2948
159,647,951,333,117,140,122,376,8.872553,35.94532,16.27361,30.84483,14.75935,30.02048,8.610696,32.88047,25.19799,-85.57544,-159.2948
164,653,857,307,112,146,131,385,4.382605,28.82108,11.24644,23.80288,10.22432,23.9243,4.605295,28.19106,25.14949,-85.92322,-156.515
165,682,933,321,116,160,167,369,4.382605,28.82108,11.24644,23.80288,10.22432,23.9243,4.605295,28.19106,25.14949,-85.92322,-156.515
168,745,896,278,111,168,209,383,-2.339966,21.88662,7.505498,17.16514,6.633525,17.62978,-1.069977,23.39499,24.54765,-86.82843,-155.0405
181,792,851,323,121,157,449,398,-3.122375,18.73874,9.13166,11.92538,5.708499,10.94997,-7.67511,15.98769,24.54765,-86.82843,-155.0405
189,740,839,319,120,159,473,327,-3.122375,18.73874,9.13166,11.92538,5.708499,10.94997,-7.67511,15.98769,24.35181,-86.77844,-154.4591
187,749,870,331,114,134,489,292,-3.122375,18.73874,9.13166,11.92538,5.708499,10.94997,-7.67511,15.98769,24.35181,-86.77844,-154.4591
187,731,760,322,117,124,486,295,-3.856354,16.2671,9.4479,9.705276,5.59525,8.592484,-9.808502,13.31918,23.99149,-86.48914,-154.9573
171,684,736,347,134,118,471,277,-3.856354,16.2671,9.4479,9.705276,5.59525,8.592484,-9.808502,13.31918,23.99149,-86.48914,-154.9573
158,654,674,294,116,117,252,233,-4.74176,14.1776,9.39503,8.320269,5.540866,6.964405,-11.20096,11.45492,23.04714,-85.87555,-154.9327
141,633,645,284,110,104,198,243,-4.889374,12.7653,9.182567,7.402555,5.491942,5.976256,-11.78705,10.30292,23.04714,-85.87555,-154.9327
139,620,584,259,106,109,145,290,-4.889374,12.7653,9.182567,7.402555,5.491942,5.976256,-11.78705,10.30292,21.9156,-85.99213,-154.6566
138,607,560,278,110,101,110,276,-4.889374,12.7653,9.182567,7.402555,5.491942,5.976256,-11.78705,10.30292,21.9156,-85.99213,-154.6566
126,600,455,227,89,90,93,265,-5.035889,11.74417,8.621954,7.021982,5.35703,5.688926,-11.72366,9.900334,21.02836,-86.17407,-154.7796
142,557,392,185,84,86,76,253,-5.035889,11.74417,8.621954,7.021982,5.35703,5.688926,-11.72366,9.900334,21.02836,-86.17407,-154.7796
249,605,357,184,86,84,77,230,-4.678131,11.42636,8.186303,6.907359,5.58941,5.6638,-11.27011,9.44435,21.02836,-86.17407,-154.7796
281,592,340,185,85,75,68,167,-4.678131,11.42636,8.186303,6.907359,5.58941,5.6638,-11.27011,9.44435,20.06125,-86.39728,-154.6716
316,616,308,119,71,58,66,143,-2.105896,12.3489,8.595222,7.375044,6.118266,6.329082,-10.44974,9.547065,20.06125,-86.39728,-154.6716
319,569,277,100,64,56,64,152,-2.105896,12.3489,8.595222,7.375044,6.118266,6.329082,-10.44974,9.547065,19.31493,-86.40515,-154.9313
353,525,302,117,58,57,60,153,9.708485,28.86575,10.09492,28.83629,6.551756,30.19534,-10.21661,25.27736,19.31493,-86.40515,-154.9313
300,502,338,133,62,65,57,144,9.708485,28.86575,10.09492,28.83629,6.551756,30.19534,-10.21661,25.27736,18.49102,-85.55533,-157.3928
272,584,337,137,67,69,56,122,12.94946,52.10476,19.48404,58.05274,13.83546,53.17196,-2.876892,40.1016,17.30328,-84.75732,-160.1772
314,555,360,137,71,80,65,138,12.94946,52.10476,19.48404,58.05274,13.83546,53.17196,-2.876892,40.1016,17.30328,-84.75732,-160.1772
334,606,345,138,72,81,66,116,13.03176,73.92455,20.59758,69.65595,17.84883,63.88777,6.864768,50.67537,17.30328,-84.75732,-160.1772
405,648,308,129,72,82,70,123,13.03176,73.92455,20.59758,69.65595,17.84883,63.88777,6.864768,50.67537,16.83276,-84.30286,-163.612
471,651,346,133,73,82,73,125,18.89062,94.4154,22.96983,88.97528,19.65244,83.70905,9.336619,71.10133,17.13514,-82.79651,-165.0713
597,595,410,155,75,83,88,185,18.89062,94.4154,22.96983,88.97528,19.65244,83.70905,9.336619,71.10133,17.13514,-82.79651,-165.0713
582,621,393,154,72,73,83,180,18.89062,94.4154,22.96983,88.97528,19.65244,83.70905,9.336619,71.10133,17.13514,-82.79651,-165.0713
655,617,389,157,74,75,89,188,26.03093,100.3104,36.89463,95.51183,34.33078,94.29394,18.79064,84.11775,14.64377,-82.06592,-166.5468
661,614,440,166,77,73,89,186,36.40843,100.8194,44.12805,94.96916,41.0022,96.24625,24.40767,88.43393,14.64377,-82.06592,-166.5468
698,636,401,151,73,69,98,213,36.40843,100.8194,44.12805,94.96916,41.0022,96.24625,24.40767,88.43393,14.54889,-81.61966,-168.0222
697,666,362,134,72,71,89,193,48.81899,104.7733,52.41069,99.50269,49.6115,101.4706,31.9625,95.35485,14.31952,-81.24789,-168.2694
768,681,416,167,77,77,95,209,48.81899,104.7733,52.41069,99.50269,49.6115,101.4706,31.9625,95.35485,14.31952,-81.24789,-168.2694
737,666,425,170,77,78,101,215,48.81899,104.7733,52.41069,99.50269,49.6115,101.4706,31.9625,95.35485,14.31952,-81.24789,-168.2694
737,711,378,171,81,82,102,224,52.74137,106.3796,56.95559,102.4209,55.03284,104.4286,38.05393,99.6002,13.94171,-80.60068,-168.4076
731,751,363,170,84,86,95,208,55.64004,106.8973,60.49005,102.9647,60.48342,105.4327,46.07447,101.619,13.02876,-80.76968,-168.4636
671,704,324,164,82,82,88,180,55.64004,106.8973,60.49005,102.9647,60.48342,105.4327,46.07447,101.619,13.02876,-80.76968,-168.4636
597,691,252,140,74,75,78,156,55.64004,106.8973,60.49005,102.9647,60.48342,105.4327,46.07447,101.619,13.02876,-80.76968,-168.4636
573,707,245,141,76,77,65,138,57.11573,106.9494,62.74585,103.2499,63.3798,106.2553,49.37112,103.1742,12.32039,-80.62756,-168.3019
495,648,213,121,69,72,57,108,57.56353,106.8929,64.17342,103.1915,65.21476,106.6476,51.57349,104.2031,12.32039,-80.62756,-168.3019
380,544,185,115,66,62,51,87,57.56353,106.8929,64.17342,103.1915,65.21476,106.6476,51.57349,104.2031,11.64741,-80.29968,-168.381
306,561,193,110,65,67,55,143,57.73303,106.9372,65.11702,103.1774,66.32339,106.716,53.17416,104.6872,11.07852,-80.05325,-168.3959
237,529,232,93,67,166,141,262,57.73303,106.9372,65.11702,103.1774,66.32339,106.716,53.17416,104.6872,11.07852,-80.05325,-168.3959
184,544,520,297,115,228,212,301,57.55376,106.949,65.48306,102.9932,66.76537,106.5497,54.17477,104.7447,11.07852,-80.05325,-168.3959
184,573,790,411,136,274,264,349,57.55376,106.949,65.48306,102.9932,66.76537,106.5497,54.17477,104.7447,10.01646,-79.72223,-168.5779
177,626,942,467,145,298,282,376,56.84922,106.7633,65.36192,102.62,66.66929,106.3125,54.69993,104.5312,10.01646,-79.72223,-168.5779
199,652,1054,486,160,307,287,413,56.84922,106.7633,65.36192,102.62,66.66929,106.3125,54.69993,104.5312,9.478567,-79.14835,-169.3127
266,734,1128,580,189,422,383,480,45.38502,99.66965,53.53104,95.64441,51.82067,98.38927,41.21274,96.99159,10.18204,-78.29517,-170.9555
256,704,1158,556,170,421,369,484,45.38502,99.66965,53.53104,95.64441,51.82067,98.38927,41.21274,96.99159,10.18204,-78.29517,-170.9555
261,696,1120,526,166,397,339,475,21.0207,74.52039,31.82317,73.27874,29.20323,79.42856,19.66591,81.40443,10.18204,-78.29517,-170.9555
276,645,1098,508,161,381,325,481,21.0207,74.52039,31.82317,73.27874,29.20323,79.42856,19.66591,81.40443,12.29682,-78.00262,-173.7343
278,603,1061,512,156,384,325,501,10.65388,60.09254,16.34827,52.91642,16.64094,63.92126,11.37769,70.46806,14.05643,-78.51477,-173.8727
212,571,1060,437,135,212,165,391,10.65388,60.09254,16.34827,52.91642,16.64094,63.92126,11.37769,70.46806,14.05643,-78.51477,-173.8727
217,646,1035,423,138,157,112,376,5.958442,47.12084,17.02931,44.35978,17.75391,49.55479,10.93516,55.11955,14.05643,-78.51477,-173.8727
202,642,965,371,128,142,98,396,5.958442,47.12084,17.02931,44.35978,17.75391,49.55479,10.93516,55.11955,13.79106,-79.4021,-173.5059
192,682,902,325,124,207,139,404,5.000163,38.56367,13.30871,37.17462,9.834266,36.55499,1.978705,40.84146,13.79106,-79.4021,-173.5059
165,713,881,301,113,194,132,323,5.000163,38.56367,13.30871,37.17462,9.834266,36.55499,1.978705,40.84146,12.7042,-80.14157,-173.1399
192,710,885,392,126,191,131,342,3.04497,30.91671,11.14143,27.79588,8.840775,27.21925,1.132258,32.89469,13.6783,-80.31537,-173.1779
178,702,850,379,128,189,130,325,3.04497,30.91671,11.14143,27.79588,8.840775,27.21925,1.132258,32.89469,13.6783,-80.31537,-173.1779
190,675,872,377,127,192,132,273,0.9901904,25.16203,8.532903,21.02371,5.998565,21.11604,-2.630585,27.04268,13.6783,-80.31537,-173.1779
175,683,854,413,137,129,93,243,0.9901904,25.16203,8.532903,21.02371,5.998565,21.11604,-2.630585,27.04268,13.4504,-80.09631,-173.1793
184,716,849,420,139,118,87,283,-0.8090515,22.48116,6.375333,17.73791,3.917945,18.1971,-5.026917,24.03209,13.40506,-79.98767,-173.0957
147,637,758,296,108,104,75,260,-0.8090515,22.48116,6.375333,17.73791,3.917945,18.1971,-5.026917,24.03209,13.40506,-79.98767,-173.0957
145,558,661,241,88,91,68,255,-1.304565,20.8172,5.971365,16.28469,2.922189,16.72361,-6.706238,22.27774,13.40506,-79.98767,-173.0957
120,557,544,232,86,83,63,244,-1.304565,20.8172,5.971365,16.28469,2.922189,16.72361,-6.706238,22.27774,13.76183,-80.07001,-172.7298
110,459,508,168,66,65,48,206,-1.193146,19.75212,5.762684,15.98595,2.309476,16.19029,-7.83139,21.31827,14.2416,-79.74689,-172.7309
250,297,482,168,63,61,48,148,-1.193146,19.75212,5.762684,15.98595,2.309476,16.19029,-7.83139,21.31827,14.2416,-79.74689,-172.7309
276,275,442,168,61,58,48,103,-1.209137,19.16806,5.736166,16.23118,3.847444,16.41324,-4.439972,21.13466,14.4096,-79.24728,-172.7013
280,256,393,158,59,52,45,92,-1.209137,19.16806,5.736166,16.23118,3.847444,16.41324,-4.439972,21.13466,14.4096,-79.24728,-172.7013
298,271,372,152,56,51,45,116,2.769234,21.69825,11.54671,21.40818,9.231313,19.99165,-1.009918,22.57186,15.31083,-78.3024,-172.8148
303,267,322,144,51,49,47,114,2.769234,21.69825,11.54671,21.40818,9.231313,19.99165,-1.009918,22.57186,15.31083,-78.3024,-172.8148
249,278,175,113,47,49,50,114,13.29514,38.71778,19.45671,43.04337,16.15066,42.40613,3.1066,37.04161,17.56984,-77.07355,-175.0475
279,317,163,130,48,46,49,116,14.00614,62.50079,18.71246,66.09846,18.90119,65.41042,11.52295,56.66665,17.56984,-77.07355,-175.0475
398,365,377,176,63,58,62,148,14.00614,62.50079,18.71246,66.09846,18.90119,65.41042,11.52295,56.66665,18.79435,-76.5943,-178.1412
454,367,383,181,61,56,63,135,14.00614,62.50079,18.71246,66.09846,18.90119,65.41042,11.52295,56.66665,18.79435,-76.5943,-178.1412
478,425,397,185,64,59,66,143,16.27373,79.69244,21.37104,81.40279,20.64337,80.28965,11.87279,71.23471,19.44315,-76.06122,178.3014
557,437,407,172,63,59,74,169,16.27373,79.69244,21.37104,81.40279,20.64337,80.28965,11.87279,71.23471,19.44315,-76.06122,178.3014
652,468,405,147,58,58,81,188,25.28459,100.4834,34.26621,96.2628,32.59013,96.36422,17.76576,88.66389,20.1279,-75.08792,177.3096
626,471,222,85,45,47,76,175,25.28459,100.4834,34.26621,96.2628,32.59013,96.36422,17.76576,88.66389,20.1279,-75.08792,177.3096
671,491,197,98,48,52,84,192,33.41656,105.0093,44.02384,100.9298,43.02438,102.7414,24.75808,95.54294,20.1279,-75.08792,177.3096
701,465,170,99,46,53,87,211,33.41656,105.0093,44.02384,100.9298,43.02438,102.7414,24.75808,95.54294,20.04555,-74.48834,176.5423
684,460,189,108,51,58,94,216,44.03567,107.2029,54.39648,103.7756,55.5057,104.7149,40.01368,98.96519,20.19089,-73.74817,177.0371
646,464,193,110,58,67,97,214,47.66177,106.9257,59.34122,103.0234,62.07115,104.3668,49.05605,100.0349,20.19089,-73.74817,177.0371
657,478,187,110,62,77,101,216,47.66177,106.9257,59.34122,103.0234,62.07115,104.3668,49.05605,100.0349,20.28013,-73.53598,177.9746
609,449,179,91,61,75,96,203,47.66177,106.9257,59.34122,103.0234,62.07115,104.3668,49.05605,100.0349,20.28013,-73.53598,177.9746
590,516,179,102,69,86,101,191,50.27094,106.8458,62.91175,102.6984,66.8466,104.1545,55.4592,100.4491,19.90061,-73.72388,177.9485
538,534,129,102,67,82,86,157,50.27094,106.8458,62.91175,102.6984,66.8466,104.1545,55.4592,100.4491,19.90061,-73.72388,177.9485
447,516,117,107,65,78,78,174,51.4453,106.4826,64.47706,102.2355,68.6562,103.9219,58.2198,100.4799,19.40574,-74.47711,177.6173
388,473,112,108,59,102,100,271,51.4453,106.4826,64.47706,102.2355,68.6562,103.9219,58.2198,100.4799,19.40574,-74.47711,177.6173
312,461,110,104,58,120,113,286,51.9422,106.6059,65.54547,101.9855,70.02457,103.6352,60.46295,100.417,19.40574,-74.47711,177.6173
237,370,107,86,48,117,113,299,51.9422,106.6059,65.54547,101.9855,70.02457,103.6352,60.46295,100.417,19.02049,-74.84061,177.4105
186,316,87,67,43,116,119,312,52.04454,106.7644,66.27699,101.8225,70.96996,103.4278,61.93402,100.0026,18.87408,-75.1933,176.6622
200,289,341,93,43,143,148,378,52.04454,106.7644,66.27699,101.8225,70.96996,103.4278,61.93402,100.0026,18.87408,-75.1933,176.6622
211,318,604,138,58,208,252,365,51.5848,106.2421,66.32218,101.228,71.19366,102.8421,62.74181,99.3632,19.17868,-75.31262,176.2717
261,449,769,281,98,229,285,394,51.5848,106.2421,66.32218,101.228,71.19366,102.8421,62.74181,99.3632,19.17868,-75.31262,176.2717
271,451,834,305,101,244,317,390,46.617,102.0944,62.14547,97.64557,65.74529,98.71505,57.17797,94.96299,19.45371,-75.46649,175.9162
275,520,926,318,107,254,346,449,46.617,102.0944,62.14547,97.64557,65.74529,98.71505,57.17797,94.96299,19.45371,-75.46649,175.9162
288,544,930,327,113,243,338,445,24.1481,74.5865,36.99184,78.5815,37.03792,83.31222,28.69422,85.96781,19.11889,-77.26489,174.6986
257,525,822,319,111,190,272,437,17.14668,56.36536,25.19538,51.25021,28.75805,61.97899,22.07472,66.32334,19.11889,-77.26489,174.6986
245,469,838,245,94,175,268,460,17.14668,56.36536,25.19538,51.25021,28.75805,61.97899,22.07472,66.32334,20.16737,-78.23407,176.3136
236,475,880,231,100,164,232,469,17.14668,56.36536,25.19538,51.25021,28.75805,61.97899,22.07472,66.32334,20.16737,-78.23407,176.3136
223,420,903,221,96,155,193,467,14.03888,42.15121,21.57848,41.0352,22.82223,43.53986,15.30645,46.86505,18.12758,-80.10773,179.5155
187,375,861,202,92,158,190,427,10.57425,34.46449,16.22798,34.21315,14.99073,34.45643,7.875751,38.39877,18.12758,-80.10773,179.5155
193,362,910,194,90,151,182,411,10.57425,34.46449,16.22798,34.21315,14.99073,34.45643,7.875751,38.39877,18.34471,-80.85519,-177.7602
151,302,914,166,77,144,146,364,10.57425,34.46449,16.22798,34.21315,14.99073,34.45643,7.875751,38.39877,18.34471,-80.85519,-177.7602
151,310,886,157,67,130,147,355,6.369944,25.20554,10.66445,20.55054,10.29862,22.04461,3.951191,26.83508,17.8524,-81.86072,-174.0801
168,276,784,150,68,124,139,274,6.369944,25.20554,10.66445,20.55054,10.29862,22.04461,3.951191,26.83508,17.8524,-81.86072,-174.0801
182,282,839,188,85,119,135,250,2.313172,21.36819,9.075935,16.79811,8.827522,17.58987,0.966221,22.71799,17.9537,-82.01535,-171.2105
165,289,817,198,85,106,127,229,0.07561868,18.80107,7.99986,14.67354,7.660908,14.83256,-1.369995,19.79838,17.9537,-82.01535,-171.2105
156,272,663,180,83,74,100,280,0.07561868,18.80107,7.99986,14.67354,7.660908,14.83256,-1.369995,19.79838,17.97154,-82.31122,-169.2894
154,226,577,168,82,70,80,275,0.07561868,18.80107,7.99986,14.67354,7.660908,14.83256,-1.369995,19.79838,17.97154,-82.31122,-169.2894
128,226,571,168,79,71,84,281,-0.4474792,17.08172,7.127265,13.12536,6.307509,13.25012,-3.263123,17.82936,18.46553,-82.56079,-167.4207
101,195,477,122,57,63,80,276,-0.4603271,15.74119,7.057709,12.50818,5.777352,12.89151,-4.395355,16.59676,18.46553,-82.56079,-167.4207
193,188,403,98,47,56,71,271,-0.4603271,15.74119,7.057709,12.50818,5.777352,12.89151,-4.395355,16.59676,18.21,-82.41458,-166.671
241,181,392,92,49,56,73,190,-0.4603271,15.74119,7.057709,12.50818,5.777352,12.89151,-4.395355,16.59676,18.21,-82.41458,-166.671
249,173,374,91,47,57,71,165,-0.3963318,15.19464,7.677886,12.70221,7.136947,13.34418,-2.736237,16.16261,17.90599,-82.80759,-165.936
264,172,359,81,47,47,51,135,-0.3963318,15.19464,7.677886,12.70221,7.136947,13.34418,-2.736237,16.16261,17.90599,-82.80759,-165.936
320,171,316,62,41,48,52,125,3.426215,16.99356,14.10147,16.17178,13.70255,16.08002,2.383585,18.03117,17.78386,-83.95691,-164.9665
366,146,240,55,42,50,56,137,15.29136,29.62255,18.40234,31.44308,16.08906,30.3896,6.273724,29.08321,17.78386,-83.95691,-164.9665
431,154,185,44,37,50,47,134,15.29136,29.62255,18.40234,31.44308,16.08906,30.3896,6.273724,29.08321,16.84105,-83.42914,-164.6396
490,165,169,43,38,69,99,145,15.29136,29.62255,18.40234,31.44308,16.08906,30.3896,6.273724,29.08321,16.84105,-83.42914,-164.6396
519,165,252,67,38,72,103,151,18.72509,49.91265,24.75145,58.43096,23.97461,56.25656,14.98511,48.47399,17.74782,-82.61731,-167.6639
556,170,267,68,39,71,111,173,18.72509,49.91265,24.75145,58.43096,23.97461,56.25656,14.98511,48.47399,17.74782,-82.61731,-167.6639
560,224,306,75,40,74,114,160,25.80626,87.54084,28.72765,84.1506,27.01609,79.92188,16.38835,71.07251,18.62308,-80.95792,-170.3239
594,340,428,99,51,85,128,182,25.80626,87.54084,28.72765,84.1506,27.01609,79.92188,16.38835,71.07251,18.62308,-80.95792,-170.3239
574,404,433,99,52,70,100,177,29.23447,99.59061,34.8117,95.3359,32.72371,94.82981,18.61814,88.2721,18.62308,-80.95792,-170.3239
575,407,406,86,49,70,101,187,29.23447,99.59061,34.8117,95.3359,32.72371,94.82981,18.61814,88.2721,18.50176,-81.08655,-170.3587
620,414,394,91,50,71,95,176,41.00572,101.7324,48.82935,97.28822,48.62757,99.41579,32.97966,95.03599,18.83617,-81.43958,-171.2056
672,404,363,103,49,68,95,193,50.63161,104.573,55.63267,99.88844,55.60125,101.8994,40.01666,97.69461,18.83617,-81.43958,-171.2056
660,343,232,165,46,59,97,203,50.63161,104.573,55.63267,99.88844,55.60125,101.8994,40.01666,97.69461,19.35732,-81.33588,-171.9669
640,279,222,177,52,58,95,201,50.63161,104.573,55.63267,99.88844,55.60125,101.8994,40.01666,97.69461,19.35732,-81.33588,-171.9669
612,269,160,179,56,58,92,186,54.76366,106.1183,61.85593,101.9636,64.09605,103.2341,51.18088,99.99624,18.26907,-80.91229,-171.6914
521,273,155,179,66,93,126,183,54.76366,106.1183,61.85593,101.9636,64.09605,103.2341,51.18088,99.99624,18.26907,-80.91229,-171.6914
406,256,149,176,70,157,196,190,56.29233,106.072,63.70594,102.0203,66.92054,103.7639,55.97637,100.7078,17.13831,-80.69928,-171.1807
278,231,93,102,68,158,190,145,56.29233,106.072,63.70594,102.0203,66.92054,103.7639,55.97637,100.7078,17.13831,-80.69928,-171.1807
289,225,91,88,66,160,191,146,57.12929,106.0751,65.133,102.1277,68.43541,104.0491,57.86148,100.9842,16.65743,-80.35028,-170.1841
288,306,73,82,65,188,199,173,57.12929,106.0751,65.133,102.1277,68.43541,104.0491,57.86148,100.9842,16.65743,-80.35028,-170.1841
259,325,74,80,69,227,225,259,57.34977,106.3222,66.32912,102.2583,69.6227,104.1971,59.2151,101.0417,15.52963,-80.77383,-168.9775
214,342,75,72,73,218,219,253,57.01389,106.2824,66.35477,102.0016,69.86865,104.0812,60.08732,101.2573,15.52963,-80.77383,-168.9775
204,339,91,78,87,304,261,284,57.01389,106.2824,66.35477,102.0016,69.86865,104.0812,60.08732,101.2573,14.91758,-81.36749,-168.4929
176,335,362,78,85,371,338,316,57.01389,106.2824,66.35477,102.0016,69.86865,104.0812,60.08732,101.2573,14.91758,-81.36749,-168.4929
208,306,662,200,109,425,397,362,56.38944,106.0365,65.63789,101.7331,69.03396,103.9356,59.7297,100.9871,14.46334,-82.26443,-168.4225
201,340,794,230,111,428,422,350,47.95797,101.3201,59.66072,98.64347,62.11511,101.058,52.9935,98.12806,14.46334,-82.26443,-168.4225
196,368,881,251,117,445,422,358,47.95797,101.3201,59.66072,98.64347,62.11511,101.058,52.9935,98.12806,14.85774,-82.43073,-168.6386
189,393,977,267,115,438,412,392,30.3574,74.2963,44.3428,72.63084,45.14907,74.3148,37.58732,76.0718,14.85774,-82.43073,-168.6386
173,408,990,291,120,417,414,387,30.3574,74.2963,44.3428,72.63084,45.14907,74.3148,37.58732,76.0718,15.25151,-84.01605,-166.6672
130,383,947,250,101,356,357,348,30.3574,74.2963,44.3428,72.63084,45.14907,74.3148,37.58732,76.0718,15.25151,-84.01605,-166.6672
137,363,849,230,94,364,349,340,22.54437,56.27202,28.48769,51.01886,32.96404,58.55822,31.29048,60.14906,16.04449,-85.56561,-164.1029
136,332,795,220,88,343,336,336,12.2633,40.48147,17.44384,35.32939,21.92311,39.81997,19.25255,42.09061,16.04449,-85.56561,-164.1029
145,333,872,224,81,288,320,327,12.2633,40.48147,17.44384,35.32939,21.92311,39.81997,19.25255,42.09061,16.35147,-86.92227,-163.1523
146,368,835,201,77,240,241,338,12.2633,40.48147,17.44384,35.32939,21.92311,39.81997,19.25255,42.09061,16.35147,-86.92227,-163.1523
144,402,751,183,74,237,240,333,10.7661,31.96077,13.74585,27.23319,13.18321,29.0052,6.249659,30.68397,15.57379,-87.82086,-159.7628
152,419,797,196,75,263,238,314,8.382374,26.32184,11.10045,20.78113,10.23961,22.54489,4.089745,24.38514,15.22073,-88.96423,-158.3826
152,429,788,188,66,251,218,298,8.382374,26.32184,11.10045,20.78113,10.23961,22.54489,4.089745,24.38514,15.22073,-88.96423,-158.3826
140,446,640,210,73,250,220,226,6.602297,23.83816,9.73858,19.05901,7.741096,20.77805,-0.08456421,22.24958,15.22073,-88.96423,-158.3826
162,430,621,217,90,281,250,216,6.602297,23.83816,9.73858,19.05901,7.741096,20.77805,-0.08456421,22.24958,15.59357,-89.6358,-157.7016
157,412,592,224,96,275,252,205,6.602297,23.83816,9.73858,19.05901,7.741096,20.77805,-0.08456421,22.24958,15.59357,-89.6358,-157.7016
126,401,611,238,98,195,181,171,4.996199,21.66382,9.012066,16.89268,5.679674,18.68101,-5.055176,20.01698,15.95729,-90.25769,-157.2653
121,391,596,234,97,182,177,170,3.841723,19.71715,8.737181,15.61052,5.052673,17.24734,-7.240021,18.41459,15.95729,-90.25769,-157.2653
113,350,536,194,88,169,168,205,3.841723,19.71715,8.737181,15.61052,5.052673,17.24734,-7.240021,18.41459,16.20816,-90.82227,-157.5553
94,360,503,179,76,103,104,174,3.841723,19.71715,8.737181,15.61052,5.052673,17.24734,-7.240021,18.41459,16.20816,-90.82227,-157.5553
89,342,450,158,65,100,92,170,3.736379,18.42794,8.892293,14.32583,4.60122,15.52881,-8.94754,16.59271,16.45423,-91.13535,-157.8421
87,311,316,101,52,74,72,168,3.736379,18.42794,8.892293,14.32583,4.60122,15.52881,-8.94754,16.59271,16.45423,-91.13535,-157.8421
124,287,282,96,55,188,151,166,3.636311,17.71831,8.864385,13.74796,4.719014,15.02232,-9.249359,16.00664,16.44806,-91.09763,-158.0501
126,282,243,79,59,283,231,118,4.880517,18.32964,9.598028,14.79062,5.819354,16.13866,-7.990356,16.25285,17.00328,-90.87396,-157.4744
115,228,200,56,46,290,236,77,4.880517,18.32964,9.598028,14.79062,5.819354,16.13866,-7.990356,16.25285,17.00328,-90.87396,-157.4744
155,236,261,62,46,297,244,67,4.880517,18.32964,9.598028,14.79062,5.819354,16.13866,-7.990356,16.25285,17.00328,-90.87396,-157.4744
177,205,254,53,45,299,247,68,7.794079,21.30855,13.83505,23.13409,10.90442,23.48547,-1.583099,21.43104,17.8429,-90.22467,-158.0247
182,224,251,53,40,244,207,82,15.59356,37.89225,19.06898,48.86469,15.69436,53.55444,1.92486,44.49711,17.8429,-90.22467,-158.0247
240,223,234,52,35,130,121,89,15.59356,37.89225,19.06898,48.86469,15.69436,53.55444,1.92486,44.49711,18.46092,-88.64059,-159.7386
431,258,217,51,34,113,113,104,17.6461,61.09845,25.00421,65.2618,23.54063,68.23027,11.67645,61.46527,18.46092,-88.64059,-159.7386
507,271,123,44,37,97,98,131,17.6461,61.09845,25.00421,65.2618,23.54063,68.23027,11.67645,61.46527,18.07506,-88.20929,-164.9936
659,305,105,46,41,93,96,151,26.33072,92.43902,33.01128,88.78998,30.98327,91.51757,15.53691,82.66837,18.07506,-88.20929,-164.9936
781,358,94,46,42,93,100,175,26.33072,92.43902,33.01128,88.78998,30.98327,91.51757,15.53691,82.66837,18.09595,-87.40918,-167.9289
842,385,97,52,44,80,84,188,35.7044,101.2082,45.61517,95.67365,44.4962,97.95108,27.57171,93.25417,18.09595,-87.40918,-167.9289
778,369,92,50,44,72,75,184,35.7044,101.2082,45.61517,95.67365,44.4962,97.95108,27.57171,93.25417,19.37721,-87.44595,-169.5356
760,353,88,52,43,71,72,168,35.7044,101.2082,45.61517,95.67365,44.4962,97.95108,27.57171,93.25417,19.37721,-87.44595,-169.5356
657,349,86,76,44,66,69,155,47.82789,105.2299,56.81479,100.8358,57.12477,103.0441,40.02635,98.75188,20.60515,-86.7243,-170.6491
556,324,86,104,48,61,61,126,51.97847,106.6083,61.14393,102.7159,62.75075,104.8013,46.97413,100.9556,20.60515,-86.7243,-170.6491
464,282,72,103,43,61,58,100,51.97847,106.6083,61.14393,102.7159,62.75075,104.8013,46.97413,100.9556,20.88714,-86.28427,-170.5414
459,261,68,103,47,64,60,102,54.35188,107.2546,63.48594,103.4984,66.5807,105.4079,53.32713,102.2191,20.88714,-86.28427,-170.5414
440,269,64,102,54,125,113,104,54.35188,107.2546,63.48594,103.4984,66.5807,105.4079,53.32713,102.2191,21.54054,-86.384,-171.1287
408,278,61,99,56,133,118,93,55.43442,107.1744,64.83491,103.4914,68.74944,105.602,56.96991,102.865,21.77898,-86.25958,-171.7765
329,234,49,76,52,131,117,81,55.43442,107.1744,64.83491,103.4914,68.74944,105.602,56.96991,102.865,21.77898,-86.25958,-171.7765
286,234,51,73,54,146,130,74,55.70602,106.99,65.77181,103.3528,69.73529,105.7389,58.31431,103.1439,21.77898,-86.25958,-171.7765
245,240,51,75,51,173,159,108,55.70602,106.99,65.77181,103.3528,69.73529,105.7389,58.31431,103.1439,21.90455,-86.13434,-172.3487
168,239,49,74,45,158,155,172,55.70602,106.99,65.77181,103.3528,69.73529,105.7389,58.31431,103.1439,21.90455,-86.13434,-172.3487
149,219,65,56,42,161,172,280,55.72847,107.0603,66.35057,103.3544,70.61371,105.5923,59.76526,103.036,22.23803,-85.88458,-172.4453
155,246,371,118,54,183,199,343,55.70065,106.9304,66.43502,102.963,71.12589,105.2458,61.23054,102.3997,22.28176,-85.12698,-172.5228
187,409,680,352,122,296,341,418,55.70065,106.9304,66.43502,102.963,71.12589,105.2458,61.23054,102.3997,22.28176,-85.12698,-172.5228
218,481,1000,439,142,316,352,432,54.14049,105.9851,64.5057,102.0682,69.08484,104.3583,60.04008,101.4353,22.28176,-85.12698,-172.5228
228,537,1196,503,166,324,371,444,54.14049,105.9851,64.5057,102.0682,69.08484,104.3583,60.04008,101.4353,22.67317,-84.40305,-172.1366
228,537,1262,516,171,375,403,415,31.34151,87.2299,42.67946,88.23719,44.6511,90.13213,39.80305,91.96368,22.67317,-84.40305,-172.1366
217,532,1293,513,176,385,426,381,31.34151,87.2299,42.67946,88.23719,44.6511,90.13213,39.80305,91.96368,24.03858,-83.70374,-171.6961
185,458,1218,418,154,326,354,315,31.34151,87.2299,42.67946,88.23719,44.6511,90.13213,39.80305,91.96368,24.03858,-83.70374,-171.6961
161,425,1021,346,139,307,343,316,17.41834,65.25775,22.95604,57.61858,24.63581,67.40127,18.64593,71.92873,24.03858,-83.70374,-171.6961
127,358,819,247,111,305,343,270,17.41834,65.25775,22.95604,57.61858,24.63581,67.40127,18.64593,71.92873,24.03858,-83.70374,-171.6961
108,369,792,260,114,263,313,226,11.70996,48.50552,17.70686,41.42591,16.02577,49.17992,4.010873,55.36255,26.28881,-84.9375,-168.025
116,373,661,271,119,258,283,205,6.304688,34.46391,15.73373,35.91628,11.91083,40.15208,-0.9641418,45.62862,26.28881,-84.9375,-168.025
119,359,640,236,100,236,242,219,6.304688,34.46391,15.73373,35.91628,11.91083,40.15208,-0.9641418,45.62862,26.33368,-86.02728,-166.8394
101,333,685,229,101,249,245,180,2.015742,27.12543,12.07137,28.95958,7.8138,31.42859,-3.162262,37.59084,27.16216,-86.91626,-165.8542
132,349,675,234,104,253,224,186,2.015742,27.12543,12.07137,28.95958,7.8138,31.42859,-3.162262,37.59084,27.16216,-86.91626,-165.8542
131,334,615,195,101,227,196,191,2.015742,27.12543,12.07137,28.95958,7.8138,31.42859,-3.162262,37.59084,27.16216,-86.91626,-165.8542
122,356,685,176,79,207,169,200,-2.652557,21.97997,10.21231,23.09321,5.946025,23.93859,-5.551422,29.48027,26.92765,-88.03082,-165.5142
112,339,631,197,104,226,210,223,-4.143585,19.82632,7.944941,20.62193,4.107713,21.23501,-7.094849,26.0487,25.35522,-89.46228,-163.8716
107,338,561,196,125,211,211,236,-4.143585,19.82632,7.944941,20.62193,4.107713,21.23501,-7.094849,26.0487,25.35522,-89.46228,-163.8716
76,308,547,195,122,180,187,239,-4.830139,17.85742,7.499182,19.15146,3.225426,19.56598,-9.067261,23.86238,23.32304,-90.72543,-163.369
70,326,531,192,118,188,195,245,-4.830139,17.85742,7.499182,19.15146,3.225426,19.56598,-9.067261,23.86238,23.32304,-90.72543,-163.369
80,304,452,203,121,182,196,236,-4.12973,17.26723,6.789914,18.62928,2.389676,19.18506,-10.30444,22.6153,23.32304,-90.72543,-163.369
81,286,470,177,102,150,151,175,-4.12973,17.26723,6.789914,18.62928,2.389676,19.18506,-10.30444,22.6153,21.596,-92.33301,-163.6861
81,251,434,154,70,139,117,148,-3.128296,17.15051,6.004629,18.23435,1.273755,18.85177,-11.10229,21.68883,21.596,-92.33301,-163.6861
73,293,477,175,66,165,142,126,-3.128296,17.15051,6.004629,18.23435,1.273755,18.85177,-11.10229,21.68883,20.24302,-93.62805,-162.3847
96,267,467,173,66,156,134,98,-3.128296,17.15051,6.004629,18.23435,1.273755,18.85177,-11.10229,21.68883,20.24302,-93.62805,-162.3847
189,267,447,142,60,157,133,90,-2.269592,16.9691,5.738493,18.11416,0.8868194,18.62021,-11.67822,20.94067,19.84098,-94.2309,-161.9834
204,279,389,138,55,146,124,76,-2.269592,16.9691,5.738493,18.11416,0.8868194,18.62021,-11.67822,20.94067,19.84098,-94.2309,-161.9834
222,317,344,131,53,130,118,68,-1.513733,17.2458,5.630196,18.84908,0.9805968,19.08853,-11.80176,20.79317,19.2743,-94.71399,-162.2696
232,280,235,89,49,86,71,65,1.521273,19.09409,7.527124,21.22977,4.024741,21.61274,-8.132141,23.02241,19.2743,-94.71399,-162.2696
239,272,197,78,44,69,53,79,1.521273,19.09409,7.527124,21.22977,4.024741,21.61274,-8.132141,23.02241,19.58137,-94.87494,-163.0981
270,286,152,65,45,53,44,82,1.521273,19.09409,7.527124,21.22977,4.024741,21.61274,-8.132141,23.02241,19.58137,-94.87494,-163.0981
305,282,132,64,51,52,54,91,7.116098,28.30013,7.839637,41.13554,7.043751,45.54797,-2.356293,38.88899,19.56002,-94.09186,-165.3589
342,260,120,58,53,55,60,108,7.116098,28.30013,7.839637,41.13554,7.043751,45.54797,-2.356293,38.88899,19.56002,-94.09186,-165.3589
468,319,158,77,59,65,70,129,9.419842,46.75326,16.47941,59.49421,16.04014,60.77523,5.9101,48.75183,21.06155,-92.98694,-167.4257
538,338,155,76,65,66,75,141,9.419842,46.75326,16.47941,59.49421,16.04014,60.77523,5.9101,48.75183,21.06155,-92.98694,-167.4257
590,331,150,75,66,77,90,184,12.00213,72.1355,17.56684,73.90859,15.42841,73.07835,7.642337,63.83979,21.06155,-92.98694,-167.4257
674,330,152,76,63,80,94,212,12.00213,72.1355,17.56684,73.90859,15.42841,73.07835,7.642337,63.83979,22.72684,-92.92538,-170.5766
725,321,214,82,60,76,92,215,20.2401,100.8784,23.05595,95.50648,19.61349,93.90694,9.879622,82.48053,24.02804,-92.87885,-171.4261
732,317,178,61,56,112,127,219,28.2987,103.9745,36.52751,99.11433,35.6877,101.7754,22.38153,96.44666,24.02804,-92.87885,-171.4261
793,331,180,62,49,120,127,226,28.2987,103.9745,36.52751,99.11433,35.6877,101.7754,22.38153,96.44666,24.50954,-92.61182,-172.2654
783,313,193,77,46,117,121,204,28.2987,103.9745,36.52751,99.11433,35.6877,101.7754,22.38153,96.44666,24.50954,-92.61182,-172.2654
752,357,193,90,46,118,118,183,44.73909,105.4998,51.19087,101.3351,51.58424,105.0586,36.95926,99.92396,25.46779,-92.16479,-173.1395
743,368,121,88,46,119,118,175,48.91676,106.4491,56.41241,103.4565,57.52626,106.4404,43.29399,101.608,25.96729,-92.13647,-173.4429
680,370,123,91,44,75,73,160,48.91676,106.4491,56.41241,103.4565,57.52626,106.4404,43.29399,101.608,25.96729,-92.13647,-173.4429
627,377,133,92,43,63,72,138,48.91676,106.4491,56.41241,103.4565,57.52626,106.4404,43.29399,101.608,25.96729,-92.13647,-173.4429
582,392,115,83,40,55,62,117,52.03514,106.4338,59.27985,103.6276,60.7635,106.8614,47.37527,102.4904,26.28771,-92.15405,-173.5712
512,350,111,74,39,55,61,100,52.03514,106.4338,59.27985,103.6276,60.7635,106.8614,47.37527,102.4904,26.28771,-92.15405,-173.5712
443,382,102,72,43,80,76,94,54.18877,106.4889,61.91466,103.631,63.61028,107.035,50.4769,103.1546,26.40899,-92.27524,-173.3613
431,346,95,66,43,88,74,84,55.92813,106.5014,63.89081,103.5616,65.75684,106.8553,52.92354,103.5621,26.40899,-92.27524,-173.3613
295,309,80,64,44,93,74,86,55.92813,106.5014,63.89081,103.5616,65.75684,106.8553,52.92354,103.5621,26.14112,-92.13669,-172.5514
241,336,80,59,48,110,78,108,55.92813,106.5014,63.89081,103.5616,65.75684,106.8553,52.92354,103.5621,26.14112,-92.13669,-172.5514
223,327,77,50,45,112,75,105,57.11959,106.5035,65.12947,103.3916,67.15253,106.7329,54.73323,103.6541,25.92606,-91.95248,-172.6875
168,279,80,43,44,282,223,147,57.62462,106.3065,65.79129,103.1435,68.01552,106.5466,56.05402,103.7509,25.92606,-91.95248,-172.6875
111,306,170,50,55,404,349,204,57.62462,106.3065,65.79129,103.1435,68.01552,106.5466,56.05402,103.7509,25.67249,-91.53595,-172.763
98,335,499,152,64,423,359,233,57.62462,106.3065,65.79129,103.1435,68.01552,106.5466,56.05402,103.7509,25.67249,-91.53595,-172.763
116,329,684,257,91,429,368,263,57.08325,105.9453,65.3355,102.7779,67.59445,106.1928,56.26208,103.4099,25.233,-90.94989,-174.0335
122,357,871,291,101,517,433,288,48.60834,101.9394,54.18576,97.66676,54.17941,102.1394,44.36613,99.84457,25.233,-90.94989,-174.0335
126,356,1068,322,105,456,385,272,48.60834,101.9394,54.18576,97.66676,54.17941,102.1394,44.36613,99.84457,26.11036,-89.41953,-175.3654
122,349,1112,353,109,368,296,241,26.83812,76.54675,36.11089,79.74298,35.84191,86.43133,28.31509,89.4638,26.11036,-89.41953,-175.3654
121,318,1050,340,110,365,292,231,26.83812,76.54675,36.11089,79.74298,35.84191,86.43133,28.31509,89.4638,26.30618,-90.28232,-176.0578
103,286,1078,324,99,414,372,208,19.15372,57.42934,22.98704,51.34401,24.03661,61.70269,19.16544,66.99354,26.30618,-90.28232,-176.0578
107,282,1013,305,94,321,314,282,19.15372,57.42934,22.98704,51.34401,24.03661,61.70269,19.16544,66.99354,27.81018,-90.1232,-175.5064
103,306,912,304,95,310,315,290,15.52826,45.94852,19.24858,42.6902,16.46177,48.09819,7.694864,53.31644,27.81018,-90.1232,-175.5064
153,332,904,322,101,305,310,313,15.52826,45.94852,19.24858,42.6902,16.46177,48.09819,7.694864,53.31644,29.50818,-89.86877,-172.6999
200,398,883,385,122,321,329,357,11.24189,35.93281,19.63779,33.58545,14.54227,34.39432,1.445194,37.73643,34.76059,-87.21301,-170.12
202,406,788,380,127,253,233,358,11.24189,35.93281,19.63779,33.58545,14.54227,34.39432,1.445194,37.73643,34.76059,-87.21301,-170.12
209,409,716,388,125,225,210,298,11.24189,35.93281,19.63779,33.58545,14.54227,34.39432,1.445194,37.73643,34.76059,-87.21301,-170.12
208,403,675,395,130,218,191,294,9.594711,28.36648,16.30657,26.71055,11.44178,27.47242,0.5583059,29.92096,39.48722,-85.52911,-168.0815
181,499,752,417,137,219,196,276,8.717571,25.61086,13.15957,22.84778,8.038302,23.97371,-1.737915,26.65905,44.27798,-83.63132,-166.7034
156,466,805,375,119,158,153,302,8.717571,25.61086,13.15957,22.84778,8.038302,23.97371,-1.737915,26.65905,44.27798,-83.63132,-166.7034
151,450,751,343,109,138,149,314,6.185961,22.89628,12.4131,21.45592,7.025228,21.99139,-3.210144,25.28506,44.27798,-83.63132,-166.7034
134,441,821,369,118,141,144,322,6.185961,22.89628,12.4131,21.45592,7.025228,21.99139,-3.210144,25.28506,45.2827,-82.59897,-165.6344
140,433,807,362,115,137,145,321,2.617835,20.21911,9.349782,18.10104,3.711331,18.17991,-6.586884,22.50944,45.2827,-82.59897,-165.6344
138,286,744,307,99,101,106,321,2.617835,20.21911,9.349782,18.10104,3.711331,18.17991,-6.586884,22.50944,42.25749,-81.90558,-164.5576
113,276,727,285,96,112,134,261,2.617835,20.21911,9.349782,18.10104,3.711331,18.17991,-6.586884,22.50944,42.25749,-81.90558,-164.5576
110,272,716,280,91,121,142,256,0.6644241,18.67991,8.35754,16.22255,2.847909,16.2401,-8.191772,20.52435,37.51439,-81.9971,-163.6786
109,255,624,220,75,115,143,233,0.6644241,18.67991,8.35754,16.22255,2.847909,16.2401,-8.191772,20.52435,37.51439,-81.9971,-163.6786
107,251,563,205,72,117,145,227,-0.3374329,17.1424,8.156759,15.36183,2.72066,15.37069,-8.718719,19.58683,33.59787,-82.65814,-163.8965
101,227,494,183,69,110,143,212,-0.8250427,16.05105,8.352821,14.49669,2.995076,14.70513,-8.86438,18.87997,33.59787,-82.65814,-163.8965
148,222,381,156,61,93,108,175,-0.8250427,16.05105,8.352821,14.49669,2.995076,14.70513,-8.86438,18.87997,30.13078,-83.27567,-163.5566
185,238,363,150,62,66,69,164,-0.8250427,16.05105,8.352821,14.49669,2.995076,14.70513,-8.86438,18.87997,30.13078,-83.27567,-163.5566
250,302,327,150,63,64,68,203,-0.3538513,15.35386,9.550676,14.56346,4.4777,14.90606,-8.19928,18.63378,26.74915,-83.86938,-163.9479
266,338,278,101,50,55,60,201,5.528724,20.225,12.63817,20.31777,9.183082,19.72949,-1.242798,21.59116,26.74915,-83.86938,-163.9479
284,371,310,80,51,57,60,203,5.528724,20.225,12.63817,20.31777,9.183082,19.72949,-1.242798,21.59116,23.38587,-84.71402,-165.6064
310,416,331,87,58,62,70,203,10.62748,30.12135,16.34185,35.4099,14.12248,34.46758,5.54721,31.19887,23.38587,-84.71402,-165.6064
323,457,334,83,60,63,71,182,10.62748,30.12135,16.34185,35.4099,14.12248,34.46758,5.54721,31.19887,20.61398,-84.22736,-167.5768
365,491,334,83,64,63,59,135,14.95448,49.17186,20.69188,55.72591,18.68168,54.26635,8.860043,43.60132,20.61398,-84.22736,-167.5768
427,485,328,89,70,69,67,147,14.95448,49.17186,20.69188,55.72591,18.68168,54.26635,8.860043,43.60132,19.50639,-84.34457,-169.0595
521,483,206,84,65,72,66,147,17.40276,72.71377,23.53458,69.6188,22.02622,66.56361,13.51302,55.00025,19.50639,-84.34457,-169.0595
657,546,189,81,69,70,67,170,17.40276,72.71377,23.53458,69.6188,22.02622,66.56361,13.51302,55.00025,18.85865,-84.99109,-171.7476
677,566,173,82,68,71,69,175,17.40276,72.71377,23.53458,69.6188,22.02622,66.56361,13.51302,55.00025,18.85865,-84.99109,-171.7476
653,567,168,79,64,65,68,168,21.4852,89.63236,27.7748,89.23081,28.07843,88.314,19.47462,76.34106,16.96844,-84.58371,-173.5598
684,569,188,87,70,72,69,195,32.72749,99.22654,38.88674,93.91041,37.26424,94.15985,23.46661,84.07373,16.96844,-84.58371,-173.5598
718,599,198,86,70,68,74,210,32.72749,99.22654,38.88674,93.91041,37.26424,94.15985,23.46661,84.07373,15.79458,-84.90192,-173.6186
643,592,195,90,64,70,72,194,43.54908,101.1417,48.02762,96.08533,46.32777,98.19627,30.7591,91.3529,15.79458,-84.90192,-173.6186
721,597,209,93,69,72,75,195,43.54908,101.1417,48.02762,96.08533,46.32777,98.19627,30.7591,91.3529,14.94669,-85.24619,-174.1092
755,585,240,103,70,76,81,195,43.54908,101.1417,48.02762,96.08533,46.32777,98.19627,30.7591,91.3529,14.94669,-85.24619,-174.1092
727,578,232,100,60,65,73,159,50.08615,105.336,53.71627,101.551,52.18748,104.1441,35.63926,99.30474,13.69762,-84.69257,-174.3288
670,564,236,99,61,67,78,139,52.97489,106.6412,56.89571,103.25,55.05131,105.867,38.32357,102.3449,13.69762,-84.69257,-174.3288
643,496,225,92,60,60,70,114,52.97489,106.6412,56.89571,103.25,55.05131,105.867,38.32357,102.3449,11.99103,-84.1727,-173.8379
535,430,206,91,52,57,65,103,54.2593,106.5572,59.18162,103.4536,57.5522,106.8427,40.93916,103.979,10.42717,-84.14575,-173.1155
478,395,159,80,52,72,77,103,54.2593,106.5572,59.18162,103.4536,57.5522,106.8427,40.93916,103.979,10.42717,-84.14575,-173.1155
428,446,146,74,52,73,78,97,54.68296,106.4193,60.71094,103.5004,59.6581,107.3029,43.47408,105.0631,10.42717,-84.14575,-173.1155
365,432,126,72,50,84,73,96,54.68296,106.4193,60.71094,103.5004,59.6581,107.3029,43.47408,105.0631,9.28335,-83.65793,-173.2395
353,469,125,72,50,131,98,104,54.68045,106.4426,61.75063,103.4541,60.82788,107.6248,44.7555,105.5162,8.777334,-83.51974,-173.381
343,481,116,65,49,163,113,138,54.68045,106.4426,61.75063,103.4541,60.82788,107.6248,44.7555,105.5162,8.777334,-83.51974,-173.381
332,487,121,70,53,297,215,169,54.68045,106.4426,61.75063,103.4541,60.82788,107.6248,44.7555,105.5162,8.777334,-83.51974,-173.381
323,462,146,66,51,311,230,278,54.44251,106.3672,62.02912,103.3672,61.24987,107.6181,45.6641,105.7155,8.544562,-82.8139,-173.6861
296,477,422,136,64,322,240,291,54.06402,106.1448,62.00608,103.0249,61.30079,107.3737,46.12315,105.4577,8.706393,-82.44998,-173.8179
222,419,629,195,75,323,248,327,54.06402,106.1448,62.00608,103.0249,61.30079,107.3737,46.12315,105.4577,8.706393,-82.44998,-173.8179
186,433,773,261,83,314,248,372,52.03629,104.885,58.02652,101.2887,56.21049,105.5767,41.79965,103.7647,9.23318,-82.31268,-174.4729
154,457,914,290,96,244,179,388,52.03629,104.885,58.02652,101.2887,56.21049,105.5767,41.79965,103.7647,9.23318,-82.31268,-174.4729
134,491,945,307,100,238,168,328,52.03629,104.885,58.02652,101.2887,56.21049,105.5767,41.79965,103.7647,9.23318,-82.31268,-174.4729
158,538,985,313,104,228,160,377,29.63234,85.39742,42.7704,84.69866,39.2488,83.90533,26.81953,83.89287,11.29856,-82.53275,-174.7881
149,543,959,307,105,285,196,370,19.31834,64.09462,28.0638,62.07177,27.42223,67.52749,20.73844,68.48043,11.97355,-83.32922,-174.9233
135,593,907,271,103,315,214,358,19.31834,64.09462,28.0638,62.07177,27.42223,67.52749,20.73844,68.48043,11.97355,-83.32922,-174.9233
149,611,878,258,95,277,205,358,19.31834,64.09462,28.0638,62.07177,27.42223,67.52749,20.73844,68.48043,11.97355,-83.32922,-174.9233
158,613,949,281,106,294,206,360,13.83506,45.43458,18.43236,42.80093,17.52209,46.48184,13.1517,49.86035,13.8086,-83.72302,-173.6644
141,583,980,295,104,300,209,327,9.308127,31.06673,15.9409,31.36984,13.16934,32.99294,5.24307,36.71002,13.44063,-84.53989,-171.5192
144,684,963,299,103,246,173,358,9.308127,31.06673,15.9409,31.36984,13.16934,32.99294,5.24307,36.71002,13.44063,-84.53989,-171.5192
160,690,1002,332,113,304,234,322,2.412114,23.976,10.62607,19.9623,9.880229,21.22619,2.154217,24.32005,12.42165,-85.19519,-169.8585
204,748,1013,343,132,344,260,367,2.412114,23.976,10.62607,19.9623,9.880229,21.22619,2.154217,24.32005,12.42165,-85.19519,-169.8585
221,827,1057,335,131,325,255,390,-1.512848,16.16561,8.364011,10.84299,7.576112,10.20987,-2.224731,12.82011,12.42165,-85.19519,-169.8585
229,844,960,331,132,393,288,401,-1.512848,16.16561,8.364011,10.84299,7.576112,10.20987,-2.224731,12.82011,12.05801,-85.57785,-168.6164
246,915,1019,405,169,474,349,432,-3.344208,12.85807,7.297409,8.462983,5.449862,7.530793,-7.255981,9.951402,12.05801,-85.57785,-168.6164
246,938,1038,424,175,440,311,501,-3.344208,12.85807,7.297409,8.462983,5.449862,7.530793,-7.255981,9.951402,11.88995,-85.67303,-168.6011
210,971,998,451,182,423,298,465,-5.465668,10.97982,5.337166,6.780057,2.690703,5.691242,-10.86581,8.140448,11.88995,-85.67303,-168.6011
214,919,922,459,177,423,301,469,-5.465668,10.97982,5.337166,6.780057,2.690703,5.691242,-10.86581,8.140448,12.82855,-85.56497,-168.7716
226,958,1027,499,182,358,269,492,-5.722748,9.727472,4.635133,5.348767,0.321393,4.069456,-15.34253,6.668824,12.82855,-85.56497,-168.7716
211,839,934,437,146,228,176,473,-5.722748,9.727472,4.635133,5.348767,0.321393,4.069456,-15.34253,6.668824,13.59237,-85.27557,-168.6555
208,790,935,427,145,228,171,399,-6.27597,8.760208,2.657695,4.532745,-1.774414,3.524599,-17.2663,6.065392,14.44132,-85.05667,-169.2249
204,712,993,388,119,198,155,390,-6.27597,8.760208,2.657695,4.532745,-1.774414,3.524599,-17.2663,6.065392,14.44132,-85.05667,-169.2249
213,702,985,371,124,196,151,382,-7.470032,8.208305,1.264174,4.025732,-3.319702,3.097819,-18.88687,5.630286,14.44132,-85.05667,-169.2249
189,694,945,303,119,189,141,333,-7.470032,8.208305,1.264174,4.025732,-3.319702,3.097819,-18.88687,5.630286,15.19253,-84.86331,-169.733
212,708,1001,335,125,248,185,372,-7.351135,7.788722,0.5399702,3.649132,-4.336121,2.841182,-20.03036,5.398605,15.79812,-84.59717,-169.5024
207,741,959,308,117,222,175,472,-7.351135,7.788722,0.5399702,3.649132,-4.336121,2.841182,-20.03036,5.398605,15.79812,-84.59717,-169.5024
215,776,865,314,119,229,181,470,-7.34021,7.639433,0.2258622,3.415508,-4.721191,2.676157,-20.56458,5.300104,16.33998,-84.69879,-169.9338
173,750,853,308,112,239,192,471,-7.34021,7.639433,0.2258622,3.415508,-4.721191,2.676157,-20.56458,5.300104,16.33998,-84.69879,-169.9338
194,675,782,327,115,285,231,520,-7.570282,7.469126,-0.3139343,3.291073,-5.048615,2.602603,-20.65552,5.345583,16.33998,-84.69879,-169.9338
189,740,794,322,120,233,197,463,-7.570282,7.469126,-0.3139343,3.291073,-5.048615,2.602603,-20.65552,5.345583,17.41142,-84.42023,-169.7067
185,770,739,304,114,217,189,399,-7.669952,7.291732,-0.5260315,3.133501,-5.136658,2.493534,-20.64322,5.28029,17.98221,-84.10104,-169.612
170,687,758,290,109,225,187,428,-7.669952,7.291732,-0.5260315,3.133501,-5.136658,2.493534,-20.64322,5.28029,17.98221,-84.10104,-169.612
175,688,779,325,115,215,187,416,-7.669952,7.291732,-0.5260315,3.133501,-5.136658,2.493534,-20.64322,5.28029,17.98221,-84.10104,-169.612
149,701,728,343,121,159,152,338,-7.879791,7.010175,-0.8477783,2.90308,-5.363373,2.29845,-20.86646,5.124331,18.97297,-83.84299,-169.8127
102,586,624,304,110,150,151,321,-7.945129,6.820293,-1.132874,2.671083,-5.713898,2.050668,-21.19211,4.933362,19.47562,-83.44513,-169.5264
143,492,637,304,108,144,153,343,-7.945129,6.820293,-1.132874,2.671083,-5.713898,2.050668,-21.19211,4.933362,19.47562,-83.44513,-169.5264
153,464,739,312,107,119,148,316,-8.0224,6.632762,-1.311676,2.590706,-5.942627,1.898509,-21.50134,4.750123,19.71776,-83.29492,-169.4401
160,449,697,284,102,112,127,299,-8.0224,6.632762,-1.311676,2.590706,-5.942627,1.898509,-21.50134,4.750123,19.71776,-83.29492,-169.4401
186,410,708,209,80,85,103,291,-8.195709,6.363989,-1.441254,2.417718,-5.996796,1.770192,-21.6821,4.746408,19.44426,-83.09506,-168.5244
303,422,676,197,77,82,95,293,-8.195709,6.363989,-1.441254,2.417718,-5.996796,1.770192,-21.6821,4.746408,19.44426,-83.09506,-168.5244
364,402,636,187,75,80,86,194,-8.243896,6.114952,-1.383545,2.402728,-5.845276,1.778742,-21.3801,4.731277,18.67636,-83.05545,-167.4286
380,422,458,172,76,65,74,140,-8.243896,6.114952,-1.383545,2.402728,-5.845276,1.778742,-21.3801,4.731277,18.67636,-83.05545,-167.4286
385,396,395,156,79,61,78,132,-5.684723,6.035959,1.010018,2.623594,-2.900116,2.10172,-17.87076,5.057303,18.67636,-83.05545,-167.4286
405,409,500,200,84,59,76,128,-5.684723,6.035959,1.010018,2.623594,-2.900116,2.10172,-17.87076,5.057303,18.66257,-83.25128,-165.8941
481,405,514,199,79,67,77,151,5.523534,13.40818,8.705347,15.98352,6.640702,18.64735,-7.002289,17.19281,17.91105,-83.0004,-165.7992
440,359,505,193,78,94,87,188,5.523534,13.40818,8.705347,15.98352,6.640702,18.64735,-7.002289,17.19281,17.91105,-83.0004,-165.7992
444,335,471,181,72,109,99,196,11.63293,37.37118,11.53945,47.91136,9.451177,51.2628,-1.597137,36.95326,17.30723,-82.17096,-166.545
473,348,449,161,67,107,95,199,11.63293,37.37118,11.53945,47.91136,9.451177,51.2628,-1.597137,36.95326,17.30723,-82.17096,-166.545
511,339,253,91,55,110,98,203,14.14446,66.22444,15.19269,70.00038,13.34743,67.87481,8.422544,54.94867,17.13036,-82.18457,-167.8275
391,325,199,81,57,106,87,166,14.14446,66.22444,15.19269,70.00038,13.34743,67.87481,8.422544,54.94867,17.13036,-82.18457,-167.8275
505,399,161,75,56,80,72,128,17.2933,89.29259,16.72591,85.80585,15.0625,84.07988,10.03385,70.34496,16.39132,-81.87189,-168.388
635,447,151,71,58,60,66,137,17.2933,89.29259,16.72591,85.80585,15.0625,84.07988,10.03385,70.34496,16.39132,-81.87189,-168.388
668,459,179,66,52,63,65,139,20.28391,95.87077,29.17833,95.26544,28.97896,94.40424,19.46374,83.04668,16.39132,-81.87189,-168.388
762,483,177,64,48,58,66,162,20.28391,95.87077,29.17833,95.26544,28.97896,94.40424,19.46374,83.04668,14.92292,-82.27112,-167.9924
875,488,172,64,48,94,100,243,31.31175,100.4852,37.7446,96.20773,35.46871,96.87527,21.94573,88.15383,14.92292,-82.27112,-167.9924
913,510,180,68,50,116,123,284,31.31175,100.4852,37.7446,96.20773,35.46871,96.87527,21.94573,88.15383,13.98238,-83.17575,-167.2752
882,490,202,68,49,116,121,287,44.50262,103.3388,45.69403,97.8446,43.18674,100.7403,28.3083,93.33669,14.0213,-83.14313,-167.2181
977,463,187,61,50,120,128,314,44.50262,103.3388,45.69403,97.8446,43.18674,100.7403,28.3083,93.33669,14.0213,-83.14313,-167.2181
966,446,184,59,52,159,156,324,51.25345,106.9516,55.00309,103.5701,53.22993,106.3166,36.16346,100.176,14.0213,-83.14313,-167.2181
919,462,195,108,52,147,144,304,51.25345,106.9516,55.00309,103.5701,53.22993,106.3166,36.16346,100.176,13.3423,-82.89087,-167.1009
963,429,190,113,52,137,142,304,53.76762,107.3706,58.03407,104.1973,57.56523,107.9313,41.81038,102.4639,13.09847,-82.99493,-166.8241
994,407,165,114,52,145,147,301,53.76762,107.3706,58.03407,104.1973,57.56523,107.9313,41.81038,102.4639,13.09847,-82.99493,-166.8241
949,414,130,117,56,180,174,296,55.60922,107.6983,60.21922,104.8994,60.98662,108.6369,46.91772,104.0438,13.09847,-82.99493,-166.8241
897,387,108,122,55,153,151,275,55.60922,107.6983,60.21922,104.8994,60.98662,108.6369,46.91772,104.0438,13.02379,-83.26215,-166.6426
873,344,89,94,56,192,168,239,56.55757,107.9083,61.59098,105.2269,63.05088,108.6369,49.93,105.0336,12.98166,-83.29199,-166.5829
709,273,82,90,57,323,251,179,56.55757,107.9083,61.59098,105.2269,63.05088,108.6369,49.93,105.0336,12.98166,-83.29199,-166.5829
583,261,79,87,60,370,280,168,57.27435,108.2481,62.58543,105.3708,64.48434,108.6369,52.46649,105.7275,13.62122,-83.17697,-166.6058
433,224,76,87,71,383,284,121,57.27435,108.2481,62.58543,105.3708,64.48434,108.6369,52.46649,105.7275,13.62122,-83.17697,-166.6058
334,181,89,79,81,409,306,106,57.3949,108.1514,63.05052,105.2625,65.2027,108.6369,53.6276,106.0139,13.62122,-83.17697,-166.6058
206,154,210,80,81,442,318,107,57.3949,108.1514,63.05052,105.2625,65.2027,108.6369,53.6276,106.0139,15.1759,-82.65881,-166.7752
194,142,438,116,79,383,267,193,57.16269,107.8772,62.93731,104.8677,65.33533,108.6369,54.13588,106.0542,20.86729,-79.60388,-166.5452
211,257,682,273,92,393,379,249,56.58866,107.3983,62.50586,104.3182,65.16615,108.468,54.65335,105.8044,20.86729,-79.60388,-166.5452
188,283,829,331,84,389,399,337,56.58866,107.3983,62.50586,104.3182,65.16615,108.468,54.65335,105.8044,30.13939,-74.72519,-165.0605
189,355,1012,415,96,365,388,343,56.58866,107.3983,62.50586,104.3182,65.16615,108.468,54.65335,105.8044,30.13939,-74.72519,-165.0605
193,362,1071,423,97,314,378,367,34.72941,92.98861,39.84843,93.03953,39.64102,99.40087,33.70604,97.39423,39.94167,-71.75848,-163.4697
192,377,1101,431,104,311,397,396,34.72941,92.98861,39.84843,93.03953,39.64102,99.40087,33.70604,97.39423,39.94167,-71.75848,-163.4697
152,385,1019,361,91,251,276,366,24.43484,62.60152,29.27913,60.26785,26.98771,65.26836,22.04139,70.53027,59.13622,-60.56458,-151.9745
139,379,1026,327,94,247,245,328,24.43484,62.60152,29.27913,60.26785,26.98771,65.26836,22.04139,70.53027,59.13622,-60.56458,-151.9745
134,340,936,282,92,265,262,384,22.75169,41.24443,25.69719,35.79709,21.25574,37.74634,8.633842,38.90701,65.22691,-56.55252,-144.4592
136,340,874,279,94,255,251,392,22.75169,41.24443,25.69719,35.79709,21.25574,37.74634,8.633842,38.90701,65.22691,-56.55252,-144.4592
128,324,766,254,87,232,221,343,20.44027,28.23512,23.36772,23.55644,18.55613,25.01668,4.458697,23.21112,65.37356,-56.79538,-142.9918
118,217,842,250,88,230,211,351,20.44027,28.23512,23.36772,23.55644,18.55613,25.01668,4.458697,23.21112,65.37356,-56.79538,-142.9918
123,199,879,241,82,193,188,369,12.96863,20.8252,14.1483,16.85141,10.25351,19.35432,-1.273438,18.37726,66.70953,-57.12805,-142.241
123,154,848,178,76,203,242,330,12.96863,20.8252,14.1483,16.85141,10.25351,19.35432,-1.273438,18.37726,66.70953,-57.12805,-142.241
127,135,886,179,76,195,243,338,10.20575,17.96672,10.76023,14.31076,5.158162,16.63563,-7.997192,16.54495,69.74477,-52.63654,-137.5199
125,124,977,188,73,177,243,329,10.20575,17.96672,10.76023,14.31076,5.158162,16.63563,-7.997192,16.54495,69.74477,-52.63654,-137.5199
123,121,880,183,69,161,247,327,8.151617,15.16671,8.554071,11.70259,2.716462,14.37965,-11.24759,14.97879,71.97779,-44.78656,-129.2337
116,125,739,207,80,160,254,273,8.151617,15.16671,8.554071,11.70259,2.716462,14.37965,-11.24759,14.97879,71.97779,-44.78656,-129.2337
99,129,745,205,74,121,181,262,6.982666,13.13135,8.173533,10.3516,1.335025,13.34508,-14.09717,14.09706,71.97779,-44.78656,-129.2337
81,144,710,198,71,126,173,218,6.982666,13.13135,8.173533,10.3516,1.335025,13.34508,-14.09717,14.09706,73.98421,-36.80078,-120.6447
132,163,580,204,73,146,157,215,6.617456,11.63307,7.725156,9.476129,0.5815666,12.79681,-15.35788,13.58789,73.98421,-36.80078,-120.6447
174,163,551,229,74,142,141,202,6.617456,11.63307,7.725156,9.476129,0.5815666,12.79681,-15.35788,13.58789,73.98421,-36.80078,-120.6447
231,157,527,201,68,138,123,189,7.893111,11.04402,8.204693,9.051507,0.9727041,12.59771,-15.41672,13.60853,75.83503,-22.72556,-106.0121
295,151,467,188,58,120,106,157,7.893111,11.04402,8.204693,9.051507,0.9727041,12.59771,-15.41672,13.60853,75.83503,-22.72556,-106.0121
386,134,441,176,55,111,107,128,11.10351,12.33531,10.67434,10.25315,3.964437,14.12206,-12.90527,14.2888,75.83503,-22.72556,-106.0121
414,106,406,159,55,85,108,106,11.10351,12.33531,10.67434,10.25315,3.964437,14.12206,-12.90527,14.2888,77.02967,-16.61096,-99.09503
433,109,404,131,66,106,153,101,22.68032,20.15074,18.73954,16.38823,10.37112,18.38577,-7.528168,15.26451,77.69415,-14.95779,-97.38086
454,122,355,202,60,107,156,97,22.68032,20.15074,18.73954,16.38823,10.37112,18.38577,-7.528168,15.26451,77.69415,-14.95779,-97.38086
476,115,267,195,63,106,156,105,30.80678,40.38573,19.66878,39.91577,15.45812,41.31799,3.722049,28.62606,77.69415,-14.95779,-97.38086
442,115,188,202,63,105,157,115,31.9868,59.49692,25.50828,56.29682,24.15205,54.31307,17.28944,40.68197,77.10933,-13.00656,-97.63733
461,127,224,206,61,97,147,123,31.9868,59.49692,25.50828,56.29682,24.15205,54.31307,17.28944,40.68197,76.1179,-9.926483,-96.55124
453,126,215,198,48,68,123,130,31.9868,59.49692,25.50828,56.29682,24.15205,54.31307,17.28944,40.68197,76.1179,-9.926483,-96.55124
440,105,205,105,56,63,115,126,34.1647,78.57254,34.54501,76.5891,33.30305,71.50185,26.31013,57.98388,74.68449,-12.24802,-100.9395
422,107,213,109,56,60,113,125,34.1647,78.57254,34.54501,76.5891,33.30305,71.50185,26.31013,57.98388,74.68449,-12.24802,-100.9395
459,131,234,109,60,61,111,130,35.83255,90.53371,37.47667,86.56342,35.12884,83.61734,27.02143,73.24262,73.71498,-13.39404,-102.9646
485,131,220,104,64,67,112,146,35.83255,90.53371,37.47667,86.56342,35.12884,83.61734,27.02143,73.24262,73.71498,-13.39404,-102.9646
570,131,221,106,86,68,104,146,39.37823,94.17554,41.98773,91.07436,38.75701,91.13702,28.88072,83.99571,72.65063,-13.37296,-104.4276
708,157,221,106,81,65,102,182,39.37823,94.17554,41.98773,91.07436,38.75701,91.13702,28.88072,83.99571,72.65063,-13.37296,-104.4276
756,157,324,109,77,64,98,191,44.59653,96.95197,47.00974,95.92729,43.6147,98.29885,31.33966,93.32375,72.65063,-13.37296,-104.4276
735,148,439,110,78,66,100,183,44.59653,96.95197,47.00974,95.92729,43.6147,98.29885,31.33966,93.32375,72.40862,-14.25211,-106.3633
774,159,510,119,77,62,93,171,53.37548,100.0582,57.85379,100.4471,57.13054,102.7497,43.92203,99.70076,72.40862,-14.25211,-106.3633
758,178,512,119,57,77,88,204,53.37548,100.0582,57.85379,100.4471,57.13054,102.7497,43.92203,99.70076,71.01128,-18.44382,-110.9031
680,172,541,128,61,82,119,186,56.9818,102.0316,62.08584,101.6913,64.05494,103.06,54.08373,100.2988,70.2883,-19.22888,-113.4212
618,198,564,141,68,84,124,170,56.9818,102.0316,62.08584,101.6913,64.05494,103.06,54.08373,100.2988,70.2883,-19.22888,-113.4212
669,212,480,148,65,85,130,181,60.94928,103.4672,66.34442,102.3591,68.99664,103.094,59.77448,100.8026,70.2883,-19.22888,-113.4212
772,213,425,162,67,97,141,221,60.94928,103.4672,66.34442,102.3591,68.99664,103.094,59.77448,100.8026,69.18035,-21.56018,-116.0377
790,256,471,163,65,86,131,199,62.38601,103.9434,67.81223,102.3234,70.9648,103.0605,62.96484,100.6382,68.43845,-24.29898,-119.5518
867,290,459,160,65,82,104,207,62.38601,103.9434,67.81223,102.3234,70.9648,103.0605,62.96484,100.6382,68.43845,-24.29898,-119.5518
879,285,370,174,65,81,100,213,63.37526,104.2558,69.23914,102.0649,72.85695,102.6992,65.69483,100.2888,67.67276,-28.52658,-123.98
876,290,368,169,63,76,90,206,63.37526,104.2558,69.23914,102.0649,72.85695,102.6992,65.69483,100.2888,67.67276,-28.52658,-123.98
709,295,326,155,61,95,193,158,64.25692,104.7815,70.38783,101.9251,74.48597,102.3113,68.28927,99.61943,67.67276,-28.52658,-123.98
628,261,240,150,64,133,234,212,64.25692,104.7815,70.38783,101.9251,74.48597,102.3113,68.28927,99.61943,67.28654,-32.936,-128.1541
425,224,187,142,64,155,309,309,64.99699,105.1835,71.13393,101.8201,75.53413,101.9125,69.96883,98.94741,66.62105,-34.13977,-129.3794
365,203,146,107,65,164,335,320,64.99699,105.1835,71.13393,101.8201,75.53413,101.9125,69.96883,98.94741,66.62105,-34.13977,-129.3794
215,178,138,89,68,169,343,318,64.99699,105.1835,71.13393,101.8201,75.53413,101.9125,69.96883,98.94741,66.62105,-34.13977,-129.3794
174,153,412,75,69,158,296,338,65.52025,105.1702,71.68769,101.5842,76.40211,101.5543,71.333,98.35105,66.09823,-35.45245,-130.9425
156,161,577,168,88,155,290,326,65.68355,105.0995,72.0126,101.396,76.81364,101.1597,72.08922,97.89212,65.76796,-37.16641,-132.4854
143,165,709,256,99,151,220,256,65.68355,105.0995,72.0126,101.396,76.81364,101.1597,72.08922,97.89212,65.76796,-37.16641,-132.4854
146,278,930,371,113,154,184,265,62.71621,103.0479,69.88932,100.4863,74.88419,100.301,70.91426,97.30901,65.90949,-37.72321,-132.775
123,288,1025,388,114,149,169,263,62.71621,103.0479,69.88932,100.4863,74.88419,100.301,70.91426,97.30901,65.90949,-37.72321,-132.775
120,293,1030,393,114,153,170,242,35.81148,78.94542,43.40277,84.28451,44.40585,85.22171,43.17042,85.96196,65.90949,-37.72321,-132.775
132,280,958,368,100,130,143,258,35.81148,78.94542,43.40277,84.28451,44.40585,85.22171,43.17042,85.96196,68.90399,-36.7811,-130.3349
118,273,875,321,83,113,122,277,28.87487,56.4514,34.73825,49.19251,37.34628,51.90102,36.71467,56.88164,70.01301,-46.99203,-138.3413
128,177,679,184,57,106,165,341,28.87487,56.4514,34.73825,49.19251,37.34628,51.90102,36.71467,56.88164,70.01301,-46.99203,-138.3413
128,151,577,168,59,107,163,359,26.96982,42.39541,29.4146,37.00409,29.07251,39.18936,23.50067,40.9569,70.01301,-46.99203,-138.3413
127,153,540,184,63,94,167,362,26.96982,42.39541,29.4146,37.00409,29.07251,39.18936,23.50067,40.9569,69.12007,-58.02591,-147.511
109,161,605,186,62,89,163,371,25.62146,35.02099,28.70536,30.57035,27.159,30.4939,19.76131,31.66391,67.57982,-66.79929,-155.1081
120,151,642,181,64,101,175,389,25.62146,35.02099,28.70536,30.57035,27.159,30.4939,19.76131,31.66391,67.57982,-66.79929,-155.1081
95,153,680,184,65,95,151,335,22.63974,31.25731,26.29206,27.24137,24.7726,26.50955,17.4973,27.19916,65.11314,-73.21515,-160.7205
95,160,670,176,62,100,160,326,22.63974,31.25731,26.29206,27.24137,24.7726,26.50955,17.4973,27.19916,65.11314,-73.21515,-160.7205
117,151,714,180,70,97,150,353,17.68959,27.82328,23.20051,25.04336,21.36189,24.07722,13.1106,24.19948,63.09637,-78.0997,-164.8259
120,152,710,185,75,97,136,334,17.68959,27.82328,23.20051,25.04336,21.36189,24.07722,13.1106,24.19948,63.09637,-78.0997,-164.8259
110,152,675,184,74,96,146,282,13.18156,24.41296,19.12766,21.77329,16.81337,21.72876,6.934386,21.35876,59.94578,-82.02765,-167.7336
110,135,694,190,75,93,134,280,13.18156,24.41296,19.12766,21.77329,16.81337,21.72876,6.934386,21.35876,59.94578,-82.02765,-167.7336
120,174,704,218,80,90,126,273,8.767624,21.07795,14.50143,18.80376,11.65461,19.20835,2.111353,19.05941,55.36277,-85.27081,-169.9158
94,171,603,195,72,87,123,230,8.767624,21.07795,14.50143,18.80376,11.65461,19.20835,2.111353,19.05941,55.36277,-85.27081,-169.9158
114,163,598,191,75,85,120,188,6.408115,19.13158,11.76711,16.83297,8.155402,16.81997,-0.9015503,17.60075,55.36277,-85.27081,-169.9158
155,167,604,198,77,66,87,158,6.408115,19.13158,11.76711,16.83297,8.155402,16.81997,-0.9015503,17.60075,53.71022,-86.7298,-170.6052
213,164,484,191,77,74,68,109,4.15291,17.9253,11.08222,16.24635,7.477533,15.8605,-2.713776,16.69136,52.86772,-87.69894,-170.7531
321,131,423,146,70,69,65,100,4.15291,17.9253,11.08222,16.24635,7.477533,15.8605,-2.713776,16.69136,52.86772,-87.69894,-170.7531
384,166,412,165,79,81,77,118,4.074206,17.97557,12.30414,17.17331,9.67256,16.42198,0.1604676,16.59413,52.86772,-87.69894,-170.7531
387,183,322,151,70,92,82,123,4.074206,17.97557,12.30414,17.17331,9.67256,16.42198,0.1604676,16.59413,50.13119,-89.17737,-171.7323
517,223,293,137,67,112,102,151,13.36726,28.14358,20.81551,27.42462,16.79746,23.42227,4.620871,19.6612,50.13119,-89.17737,-171.7323
550,314,293,118,63,106,105,165,13.36726,28.14358,20.81551,27.42462,16.79746,23.42227,4.620871,19.6612,47.96472,-89.32809,-173.4084
559,400,271,114,63,110,103,165,18.00768,50.11852,24.2501,51.60708,20.41528,49.70226,4.990348,41.17437,46.18513,-88.15698,-176.4467
553,412,190,71,40,104,95,156,18.00768,50.11852,24.2501,51.60708,20.41528,49.70226,4.990348,41.17437,46.18513,-88.15698,-176.4467
693,650,187,91,42,92,90,162,21.9146,75.28449,26.84274,70.38132,23.18679,69.6427,10.70556,62.69448,46.18513,-88.15698,-176.4467
771,769,182,88,38,69,74,168,21.9146,75.28449,26.84274,70.38132,23.18679,69.6427,10.70556,62.69448,44.51422,-87.52368,-178.9285
765,760,186,89,43,67,77,166,28.02781,97.11423,31.56798,92.34125,27.11565,92.65394,13.40254,83.64427,42.79973,-87.85095,179.2643
783,768,203,89,47,63,77,170,28.02781,97.11423,31.56798,92.34125,27.11565,92.65394,13.40254,83.64427,42.79973,-87.85095,179.2643
817,779,199,90,52,59,73,180,33.2248,102.0858,40.68511,96.66412,38.55731,99.41847,22.47001,92.36032,42.79973,-87.85095,179.2643
786,667,157,61,52,61,73,194,33.2248,102.0858,40.68511,96.66412,38.55731,99.41847,22.47001,92.36032,41.12443,-88.57385,177.5184
712,539,154,69,53,56,68,197,42.26134,104.5594,51.89866,99.68864,54.95294,101.9789,44.80282,96.95194,40.1523,-88.67868,176.4433
859,588,158,82,56,69,83,239,42.26134,104.5594,51.89866,99.68864,54.95294,101.9789,44.80282,96.95194,40.1523,-88.67868,176.4433
839,553,164,92,52,67,83,238,47.05238,106.0612,60.19022,102.4008,65.51456,102.8841,57.06752,97.82791,38.67535,-88.28674,176.06
846,595,164,96,53,71,85,232,47.05238,106.0612,60.19022,102.4008,65.51456,102.8841,57.06752,97.82791,38.67535,-88.28674,176.06
793,557,178,101,57,77,82,213,50.75804,106.6288,63.88025,102.8026,69.59376,103.2255,61.60779,98.79486,36.93576,-88.27264,176.3618
754,546,175,99,58,78,79,194,50.75804,106.6288,63.88025,102.8026,69.59376,103.2255,61.60779,98.79486,36.93576,-88.27264,176.3618
552,471,154,88,54,74,65,130,53.34216,107.0986,66.14717,102.916,71.74995,103.4515,64.05975,99.18981,34.91117,-88.59039,176.3179
506,456,129,77,59,109,112,132,55.0762,107.3414,67.66193,102.8755,73.38722,103.5327,66.09781,99.19519,34.91117,-88.59039,176.3179
393,373,125,74,64,117,209,168,55.0762,107.3414,67.66193,102.8755,73.38722,103.5327,66.09781,99.19519,32.15027,-88.81116,175.7982
344,346,102,65,65,133,239,293,55.0762,107.3414,67.66193,102.8755,73.38722,103.5327,66.09781,99.19519,32.15027,-88.81116,175.7982
215,374,103,60,67,142,246,307,55.66218,107.4538,68.47018,102.7262,74.3312,103.2964,67.65509,98.97659,29.14676,-88.61673,176.0558
185,386,382,87,65,152,259,352,55.66218,107.4538,68.47018,102.7262,74.3312,103.2964,67.65509,98.97659,29.14676,-88.61673,176.0558
144,427,604,242,86,160,255,365,55.08825,107.1894,68.41135,102.3915,74.48384,102.991,68.33614,98.54329,27.58134,-87.71753,175.9145
139,448,767,255,83,185,196,350,55.08825,107.1894,68.41135,102.3915,74.48384,102.991,68.33614,98.54329,27.58134,-87.71753,175.9145
107,494,852,266,87,241,209,257,51.28135,104.8237,62.82799,100.116,67.56559,101.1199,61.62241,96.39005,27.58134,-87.71753,175.9145
99,487,890,275,90,249,205,311,51.28135,104.8237,62.82799,100.116,67.56559,101.1199,61.62241,96.39005,26.21751,-86.6936,175.6745
94,518,885,294,96,243,193,293,31.80673,82.12309,45.57455,87.15411,45.58385,85.92932,36.06746,85.12991,25.26327,-86.62225,176.1859
100,496,851,221,78,232,181,294,22.3814,59.74498,30.30773,56.44272,32.40024,65.30161,25.17805,67.01231,25.26327,-86.62225,176.1859
116,495,878,239,84,218,182,329,22.3814,59.74498,30.30773,56.44272,32.40024,65.30161,25.17805,67.01231,25.16795,-86.32025,176.7491
139,488,867,246,83,162,133,347,22.3814,59.74498,30.30773,56.44272,32.40024,65.30161,25.17805,67.01231,25.16795,-86.32025,176.7491
147,511,865,242,81,146,132,291,10.87502,47.78724,21.91252,39.451,28.76454,44.98396,24.48048,45.94949,21.97045,-86.11203,178.2661
167,520,851,246,83,168,140,350,10.87502,47.78724,21.91252,39.451,28.76454,44.98396,24.48048,45.94949,21.97045,-86.11203,178.2661
196,550,866,270,109,188,159,381,8.233156,37.08592,19.93244,35.88418,21.75515,36.09275,14.13337,38.86093,20.65456,-85.76947,-179.4405
193,609,750,256,118,185,146,365,8.233156,37.08592,19.93244,35.88418,21.75515,36.09275,14.13337,38.86093,20.65456,-85.76947,-179.4405
192,666,718,264,122,173,134,398,5.917883,28.83809,19.36087,26.30072,19.89742,25.23036,9.468379,25.81818,20.65456,-85.76947,-179.4405
197,717,727,280,136,193,145,419,5.917883,28.83809,19.36087,26.30072,19.89742,25.23036,9.468379,25.81818,19.09262,-85.99103,-177.2744
184,721,788,305,143,183,141,347,4.583216,23.07925,14.26604,16.5819,14.48819,15.06429,6.593352,16.21249,17.1871,-86.08301,-175.0316
152,697,718,275,125,166,117,305,3.119556,19.76377,13.29949,13.41823,13.06158,12.23096,3.217581,14.0816,17.1871,-86.08301,-175.0316
157,732,692,278,120,161,118,292,3.119556,19.76377,13.29949,13.41823,13.06158,12.23096,3.217581,14.0816,15.83742,-85.97156,-173.2423
143,654,668,258,110,155,118,213,3.119556,19.76377,13.29949,13.41823,13.06158,12.23096,3.217581,14.0816,15.83742,-85.97156,-173.2423
145,579,622,233,91,122,96,156,0.701052,16.68548,11.49205,11.12113,11.05263,9.692393,0.3681357,11.75354,15.40962,-85.44943,-172.4268
164,573,456,167,76,99,78,173,0.701052,16.68548,11.49205,11.12113,11.05263,9.692393,0.3681357,11.75354,15.40962,-85.44943,-172.4268
263,580,430,143,76,76,69,170,-0.02233887,15.06618,11.24452,10.49537,10.9226,9.24245,-0.4855042,10.92598,15.42535,-85.36441,-171.5629
466,449,408,124,60,62,67,177,-0.02233887,15.06618,11.24452,10.49537,10.9226,9.24245,-0.4855042,10.92598,15.42535,-85.36441,-171.5629
516,414,368,117,58,86,73,191,0.9486237,15.05066,13.63899,11.09954,13.35005,9.917819,0.1381094,11.23057,15.59715,-85.31519,-170.995
541,380,353,120,57,87,77,191,0.9486237,15.05066,13.63899,11.09954,13.35005,9.917819,0.1381094,11.23057,15.59715,-85.31519,-170.995
593,334,340,105,59,90,75,171,6.463078,21.51616,14.69558,22.72106,13.65234,21.60485,0.2489967,19.97663,15.71587,-85.36203,-171.3705
594,310,298,108,54,94,69,149,10.77248,45.14024,16.47812,54.50537,16.31858,54.7351,7.695015,44.62333,15.71587,-85.36203,-171.3705
585,380,269,93,58,103,79,148,10.77248,45.14024,16.47812,54.50537,16.31858,54.7351,7.695015,44.62333,16.41638,-84.5943,-172.8556
568,380,257,89,58,105,88,136,10.77248,45.14024,16.47812,54.50537,16.31858,54.7351,7.695015,44.62333,16.41638,-84.5943,-172.8556
555,386,259,86,63,108,85,131,15.02527,76.1933,20.4897,71.49891,19.98699,68.5022,12.58723,60.55961,16.96359,-84.32996,-174.4178
528,388,312,94,51,106,85,125,18.46377,95.14987,21.15685,93.08772,20.27219,93.24006,12.40868,84.51868,16.96359,-84.32996,-174.4178
514,372,275,90,55,102,89,129,18.46377,95.14987,21.15685,93.08772,20.27219,93.24006,12.40868,84.51868,16.38537,-83.69998,-175.2686
465,307,261,83,51,96,89,155,18.46377,95.14987,21.15685,93.08772,20.27219,93.24006,12.40868,84.51868,16.38537,-83.69998,-175.2686
473,319,290,87,52,68,77,155,21.52314,100.3963,25.95254,97.26392,23.55248,98.17015,12.77656,91.98862,18.42688,-82.97488,-175.7779
523,340,454,123,48,65,75,157,21.52314,100.3963,25.95254,97.26392,23.55248,98.17015,12.77656,91.98862,18.42688,-82.97488,-175.7779
554,329,455,128,47,69,83,160,27.60034,105.0551,32.16533,100.3936,29.31296,102.5657,15.54826,97.10983,19.26493,-82.56287,-175.264
568,341,451,123,48,97,95,162,35.75627,104.8957,38.31581,100.0308,35.65204,104.2172,21.38434,100.1323,19.26493,-82.56287,-175.264
573,334,461,122,50,98,89,128,35.75627,104.8957,38.31581,100.0308,35.65204,104.2172,21.38434,100.1323,19.29338,-82.67963,-175.3183
631,331,451,121,48,118,116,122,35.75627,104.8957,38.31581,100.0308,35.65204,104.2172,21.38434,100.1323,19.29338,-82.67963,-175.3183
688,299,273,82,47,121,120,146,39.84508,105.6547,45.52915,101.6448,44.2835,106.1362,29.01317,102.115,19.94337,-82.32666,-175.7232
687,284,320,91,53,122,122,151,39.84508,105.6547,45.52915,101.6448,44.2835,106.1362,29.01317,102.115,19.94337,-82.32666,-175.7232
762,394,478,112,55,112,120,212,48.23898,107.7481,54.542,104.3305,54.04727,107.7355,37.48717,103.9181,20.75477,-81.89893,-175.6498
767,416,482,115,55,160,150,221,51.18564,108.2481,59.5061,104.5196,60.85548,108.058,46.10516,104.6513,20.75477,-81.89893,-175.6498
706,420,480,116,55,148,139,224,51.18564,108.2481,59.5061,104.5196,60.85548,108.058,46.10516,104.6513,21.23552,-81.14221,-175.3573
710,454,485,120,58,148,138,221,51.18564,108.2481,59.5061,104.5196,60.85548,108.058,46.10516,104.6513,21.23552,-81.14221,-175.3573
675,451,415,98,54,147,133,218,53.15094,108.2481,62.97681,104.133,66.85623,107.0971,56.59938,104.0174,22.71098,-80.62421,-174.8942
552,334,205,70,48,147,132,154,53.15094,108.2481,62.97681,104.133,66.85623,107.0971,56.59938,104.0174,22.71098,-80.62421,-174.8942
448,273,152,63,44,158,150,120,55.1868,108.2481,65.3256,104.1434,69.06197,106.6365,58.91079,103.642,24.55363,-79.81726,-174.6712
427,262,123,55,45,207,201,118,55.1868,108.2481,65.3256,104.1434,69.06197,106.6365,58.91079,103.642,24.55363,-79.81726,-174.6712
197,209,106,51,44,220,215,159,55.97569,108.2482,66.54641,103.9066,70.65253,106.3256,61.11856,103.2759,24.55363,-79.81726,-174.6712
144,256,298,138,75,232,223,193,55.97569,108.2482,66.54641,103.9066,70.65253,106.3256,61.11856,103.2759,27.01628,-78.9075,-174.3701
132,301,634,202,83,318,300,230,56.34954,108.0681,67.05131,103.5692,71.13521,105.9463,62.1792,103.0328,28.97909,-77.87323,-173.9415
129,306,793,249,90,315,293,241,53.11488,106.5409,61.64287,102.4664,65.0896,104.7193,57.5803,101.7239,30.12335,-77.34662,-174.1326
135,328,935,296,98,302,271,243,53.11488,106.5409,61.64287,102.4664,65.0896,104.7193,57.5803,101.7239,30.12335,-77.34662,-174.1326
130,327,1005,307,100,317,280,207,53.11488,106.5409,61.64287,102.4664,65.0896,104.7193,57.5803,101.7239,30.12335,-77.34662,-174.1326
109,286,1019,307,91,325,294,207,34.22676,90.73584,44.69368,91.61864,45.35053,95.97746,38.0472,94.85218,33.33231,-78.02023,-174.7948
109,246,969,317,90,252,225,187,22.95918,71.61721,26.92181,66.62359,24.14962,78.36218,13.04685,80.77493,33.33231,-78.02023,-174.7948
108,258,938,299,87,232,205,214,22.95918,71.61721,26.92181,66.62359,24.14962,78.36218,13.04685,80.77493,38.44996,-78.2113,-175.4776
97,235,890,266,84,216,203,236,22.95918,71.61721,26.92181,66.62359,24.14962,78.36218,13.04685,80.77493,38.44996,-78.2113,-175.4776
104,222,854,257,83,223,239,319,18.26591,57.98993,25.24259,43.9076,24.41323,54.48359,12.55434,59.62627,39.98859,-79.58466,-174.5456
143,236,836,250,82,207,232,373,18.26591,57.98993,25.24259,43.9076,24.41323,54.48359,12.55434,59.62627,39.98859,-79.58466,-174.5456
147,261,785,195,77,199,236,373,15.86744,45.33729,23.14477,36.87131,19.17118,40.17653,4.926998,44.08344,41.62485,-79.24118,-172.6625
150,260,739,202,76,214,251,359,15.52698,37.40284,20.92558,30.08504,15.48663,30.27081,2.621387,33.4962,41.62485,-79.24118,-172.6625
151,372,656,202,73,243,264,353,15.52698,37.40284,20.92558,30.08504,15.48663,30.27081,2.621387,33.4962,43.15078,-80.16876,-171.4834
151,378,671,207,75,216,231,365,15.52698,37.40284,20.92558,30.08504,15.48663,30.27081,2.621387,33.4962,43.15078,-80.16876,-171.4834
122,387,648,232,86,213,217,293,13.26757,33.23276,18.56609,27.16257,13.30045,26.51993,1.265516,28.90529,44.80202,-80.49677,-170.1606
113,369,629,250,93,202,198,292,12.31204,29.02951,15.68742,24.5165,9.789396,23.79491,-0.8631897,26.52179,44.80202,-80.49677,-170.1606
114,358,589,248,91,175,179,287,12.31204,29.02951,15.68742,24.5165,9.789396,23.79491,-0.8631897,26.52179,46.76482,-80.10721,-169.1066
126,223,585,241,92,144,171,289,12.31204,29.02951,15.68742,24.5165,9.789396,23.79491,-0.8631897,26.52179,46.76482,-80.10721,-169.1066
118,207,573,251,88,126,140,172,12.09065,26.95234,14.67661,23.19533,8.320523,22.48146,-2.344696,24.97487,48.41177,-79.6228,-168.0288
216,149,542,222,79,112,134,168,11.31927,24.85391,13.47538,21.72032,7.00529,21.45039,-4.093781,23.64711,48.41177,-79.6228,-168.0288
272,128,454,202,81,110,134,149,11.31927,24.85391,13.47538,21.72032,7.00529,21.45039,-4.093781,23.64711,52.18443,-76.95764,-165.5597
410,127,409,186,84,106,129,162,10.78168,23.52772,12.49249,20.89832,6.365727,21.04916,-4.544281,22.74911,52.18443,-76.95764,-165.5597
443,128,426,177,80,69,79,131,10.78168,23.52772,12.49249,20.89832,6.365727,21.04916,-4.544281,22.74911,57.0227,-73.31213,-161.912
538,137,355,157,82,137,147,149,10.78168,23.52772,12.49249,20.89832,6.365727,21.04916,-4.544281,22.74911,57.0227,-73.31213,-161.912
576,136,353,141,71,150,161,169,20.59605,28.92168,18.83513,26.50769,12.94007,26.14783,2.708179,24.62875,59.1045,-70.40869,-158.5066
660,151,332,135,63,149,167,186,28.9333,49.31683,24.8094,41.94374,19.18438,39.49586,7.248316,32.69283,59.1045,-70.40869,-158.5066
656,148,322,127,62,147,163,174,28.9333,49.31683,24.8094,41.94374,19.18438,39.49586,7.248316,32.69283,60.7201,-66.73526,-155.842
699,143,252,154,65,145,161,180,26.92653,67.14634,23.87838,62.11897,22.23379,58.05744,16.13273,45.46731,60.7201,-66.73526,-155.842
670,131,235,148,69,87,112,161,26.92653,67.14634,23.87838,62.11897,22.23379,58.05744,16.13273,45.46731,62.00236,-63.09207,-153.7308
688,149,225,154,80,124,146,165,26.92653,67.14634,23.87838,62.11897,22.23379,58.05744,16.13273,45.46731,62.00236,-63.09207,-153.7308
655,185,225,158,83,134,145,155,30.81932,87.53566,30.95793,83.00455,27.78652,73.95091,19.69216,55.71092,62.52288,-61.67685,-152.1116
617,185,221,159,79,135,147,155,32.23314,95.89344,34.4356,94.44023,31.43778,93.0666,21.20708,81.0052,62.52288,-61.67685,-152.1116
705,210,320,149,77,141,156,190,32.23314,95.89344,34.4356,94.44023,31.43778,93.0666,21.20708,81.0052,62.43055,-58.26929,-148.2915
806,237,309,150,71,142,155,216,32.23314,95.89344,34.4356,94.44023,31.43778,93.0666,21.20708,81.0052,62.43055,-58.26929,-148.2915
807,235,295,132,62,104,132,211,32.81933,98.31523,35.62204,97.31407,32.00988,98.41171,20.18478,89.53305,63.55121,-54.39606,-145.2446
801,210,306,122,62,141,176,210,32.81933,98.31523,35.62204,97.31407,32.00988,98.41171,20.18478,89.53305,63.55121,-54.39606,-145.2446
877,234,413,132,68,147,176,228,42.58953,100.8256,49.37565,102.3399,48.71409,104.1708,35.36992,98.11237,63.90179,-50.48163,-142.0237
816,251,358,126,68,140,172,195,52.28493,103.6759,59.87914,104.5156,62.80156,104.9014,53.05663,101.1188,62.84669,-47.83167,-139.805
766,256,351,135,71,138,171,170,52.28493,103.6759,59.87914,104.5156,62.80156,104.9014,53.05663,101.1188,62.84669,-47.83167,-139.805
771,262,361,146,67,135,152,160,52.28493,103.6759,59.87914,104.5156,62.80156,104.9014,53.05663,101.1188,62.84669,-47.83167,-139.805
777,274,360,150,55,120,149,162,56.71178,105.5434,62.53872,104.9066,66.16634,104.5892,58.62679,100.9434,62.92255,-45.80841,-138.3349
701,256,227,134,50,134,171,129,59.28048,106.3107,64.48581,104.5375,68.50166,104.361,62.12706,100.8916,62.92255,-45.80841,-138.3349
706,231,196,130,48,138,170,139,59.28048,106.3107,64.48581,104.5375,68.50166,104.361,62.12706,100.8916,63.43361,-44.17053,-137.3542
668,201,188,132,48,157,191,140,59.28048,106.3107,64.48581,104.5375,68.50166,104.361,62.12706,100.8916,63.43361,-44.17053,-137.3542
593,183,163,119,55,173,210,133,61.64705,107.0081,66.19763,104.2547,70.92748,103.8298,65.87767,100.238,63.93863,-42.4339,-136.0054
520,144,152,117,67,192,217,138,62.80064,107.0287,67.31252,104.0032,72.25471,103.3883,67.77199,99.74408,63.93863,-42.4339,-136.0054
471,139,177,122,79,192,211,135,62.80064,107.0287,67.31252,104.0032,72.25471,103.3883,67.77199,99.74408,63.7969,-40.72354,-134.3062
338,110,217,117,83,213,232,119,63.72048,106.9743,68.15654,103.8751,73.28442,103,69.18302,99.11293,63.7969,-40.72354,-134.3062
209,114,334,99,87,204,229,122,63.72048,106.9743,68.15654,103.8751,73.28442,103,69.18302,99.11293,64.23206,-38.87936,-132.6188
176,134,561,163,104,200,234,131,63.72048,106.9743,68.15654,103.8751,73.28442,103,69.18302,99.11293,64.23206,-38.87936,-132.6188
156,147,660,193,110,175,214,111,64.09972,106.8269,68.50847,103.4938,73.79398,102.4232,70.22552,98.5675,64.67527,-35.37357,-129.5603
124,192,813,216,107,175,224,111,63.65265,106.6146,68.07377,103.1533,73.58335,101.7674,70.68115,98.36367,64.67527,-35.37357,-129.5603
130,202,829,222,111,196,255,181,63.65265,106.6146,68.07377,103.1533,73.58335,101.7674,70.68115,98.36367,65.55682,-28.21057,-122.8851
108,191,809,231,116,196,271,263,63.65265,106.6146,68.07377,103.1533,73.58335,101.7674,70.68115,98.36367,65.55682,-28.21057,-122.8851
83,179,747,204,102,196,279,277,37.71809,90.7172,42.22162,90.73612,47.56161,94.08644,48.66357,90.91071,68.17152,-12.4549,-106.7855
88,172,765,180,87,195,289,294,30.79576,71.12778,32.68237,71.86896,33.95725,78.06041,32.67776,80.90588,68.17152,-12.4549,-106.7855
86,131,657,182,96,192,298,301,30.79576,71.12778,32.68237,71.86896,33.95725,78.06041,32.67776,80.90588,68.19109,7.744322,-85.17462
79,128,710,200,92,173,342,275,26.41769,56.31737,22.60563,48.93867,21.49809,53.92169,15.46431,56.71847,68.19109,7.744322,-85.17462
77,134,739,206,81,174,321,194,26.41769,56.31737,22.60563,48.93867,21.49809,53.92169,15.46431,56.71847,67.67651,16.3445,-72.14972
92,156,727,227,97,168,318,217,23.69983,40.86773,18.35805,39.51548,15.75311,41.69247,8.547437,42.87838,68.08213,19.26805,-67.23425
95,164,657,256,103,165,310,224,23.69983,40.86773,18.35805,39.51548,15.75311,41.69247,8.547437,42.87838,68.08213,19.26805,-67.23425
101,196,612,263,97,179,307,227,21.3576,34.04831,18.69713,33.58629,14.59614,33.04853,5.515168,33.05002,68.08213,19.26805,-67.23425
97,207,600,254,92,150,212,242,21.3576,34.04831,18.69713,33.58629,14.59614,33.04853,5.515168,33.05002,67.83607,21.97778,-63.23846
115,229,565,269,133,146,216,248,18.62194,30.19401,17.24347,31.75364,13.45794,31.23312,4.826907,31.26014,67.83607,21.97778,-63.23846
109,226,593,271,124,142,215,212,18.62194,30.19401,17.24347,31.75364,13.45794,31.23312,4.826907,31.26014,66.49899,25.71489,-59.46857
124,251,614,317,136,163,228,239,17.03704,27.12749,15.47375,29.37143,12.09211,28.90125,4.035244,29.45118,66.49899,25.71489,-59.46857
125,236,626,314,138,145,225,239,17.03704,27.12749,15.47375,29.37143,12.09211,28.90125,4.035244,29.45118,63.90827,31.15926,-54.27255
124,218,613,313,140,143,226,217,15.18487,20.803,13.40165,24.47149,10.0701,25.84118,2.407893,27.31943,60.82916,36.4188,-49.383
109,200,639,301,100,142,223,210,15.18487,20.803,13.40165,24.47149,10.0701,25.84118,2.407893,27.31943,60.82916,36.4188,-49.383
103,207,663,287,102,144,199,205,15.18487,20.803,13.40165,24.47149,10.0701,25.84118,2.407893,27.31943,60.82916,36.4188,-49.383
109,167,685,226,93,108,162,127,15.1571,18.80108,11.35311,21.72035,7.422163,23.78058,0.05975651,25.40078,58.24462,40.881,-45.36084
289,174,660,209,91,96,125,109,15.05709,17.39489,10.16262,20.0181,5.671042,22.44635,-1.611542,24.14648,57.03136,43.97839,-42.07413
399,184,595,204,95,94,107,104,15.05709,17.39489,10.16262,20.0181,5.671042,22.44635,-1.611542,24.14648,57.03136,43.97839,-42.07413
436,173,552,190,95,86,92,99,16.27556,17.6285,10.13106,19.56917,4.961851,21.85802,-2.730804,23.4892,56.02364,45.62485,-40.64178
524,149,487,172,87,78,71,117,16.27556,17.6285,10.13106,19.56917,4.961851,21.85802,-2.730804,23.4892,56.02364,45.62485,-40.64178
668,209,374,143,105,77,97,258,16.27556,17.6285,10.13106,19.56917,4.961851,21.85802,-2.730804,23.4892,56.02364,45.62485,-40.64178
653,201,372,137,113,85,102,278,22.11245,24.54943,15.59172,26.45133,11.56802,26.3527,5.050632,25.59382,53.57727,47.6498,-39.15982
644,217,393,131,113,88,104,281,26.40221,47.30848,18.74601,50.99839,16.06381,49.8395,11.44714,40.92291,53.57727,47.6498,-39.15982
647,224,418,126,115,88,106,283,26.40221,47.30848,18.74601,50.99839,16.06381,49.8395,11.44714,40.92291,53.57727,47.6498,-39.15982
642,241,329,131,119,93,106,278,26.40221,47.30848,18.74601,50.99839,16.06381,49.8395,11.44714,40.92291,53.57727,47.6498,-39.15982
529,205,322,127,95,92,76,161,32.46176,73.93683,24.94347,77.01576,26.09052,74.06893,26.23347,63.60239,42.79257,53.18716,-38.75336
519,199,324,113,81,86,61,127,35.88706,94.21124,32.20514,90.12109,35.90049,88.81802,35.75076,82.57038,42.79257,53.18716,-38.75336
589,227,348,139,77,81,65,158,35.88706,94.21124,32.20514,90.12109,35.90049,88.81802,35.75076,82.57038,39.59082,54.28622,-39.5162
681,249,366,149,78,82,61,170,38.81147,99.68074,40.87421,95.21239,45.46783,94.99078,41.88482,88.06271,37.74402,53.08576,-42.1044
708,248,356,146,78,76,68,185,38.81147,99.68074,40.87421,95.21239,45.46783,94.99078,41.88482,88.06271,37.74402,53.08576,-42.1044
716,243,346,140,71,77,95,196,41.63224,103.2204,45.85854,99.26076,51.68991,97.93948,47.7233,91.24063,37.74402,53.08576,-42.1044
836,247,360,143,73,78,102,244,41.63224,103.2204,45.85854,99.26076,51.68991,97.93948,47.7233,91.24063,35.15918,53.6701,-44.17636
813,200,317,127,80,82,100,241,55.04347,105.9754,57.29765,103.1286,62.44503,100.7206,55.68876,94.88673,35.15918,53.6701,-44.17636
775,226,266,122,80,82,103,244,55.04347,105.9754,57.29765,103.1286,62.44503,100.7206,55.68876,94.88673,32.18223,54.05666,-45.46902
821,239,290,139,80,83,109,242,55.04347,105.9754,57.29765,103.1286,62.44503,100.7206,55.68876,94.88673,32.18223,54.05666,-45.46902
860,250,288,153,87,81,89,233,61.04854,106.5775,63.70351,103.3774,69.25169,100.4478,62.0906,96.29689,32.18223,54.05666,-45.46902
795,254,316,156,84,78,86,187,63.67463,107.1505,65.68626,103.5703,71.25169,100.1396,64.75225,96.50227,31.30961,55.12402,-45.15564
813,285,358,196,89,83,98,179,63.67463,107.1505,65.68626,103.5703,71.25169,100.1396,64.75225,96.50227,30.75463,55.44286,-45.0564
801,289,366,209,92,86,107,192,65.72041,107.2506,67.38042,103.4078,72.91241,99.74187,66.79668,96.52237,30.75463,55.44286,-45.0564
693,270,337,196,92,89,141,176,65.72041,107.2506,67.38042,103.4078,72.91241,99.74187,66.79668,96.52237,30.20943,55.63122,-44.81671
618,255,352,190,95,102,170,178,67.24332,107.2232,68.72337,103.1891,74.1112,99.40299,68.45203,96.32165,30.20943,55.63122,-44.81671
579,250,336,190,124,113,195,167,67.24332,107.2232,68.72337,103.1891,74.1112,99.40299,68.45203,96.32165,29.41349,56.29039,-44.39063
466,244,316,146,128,152,248,144,67.24332,107.2232,68.72337,103.1891,74.1112,99.40299,68.45203,96.32165,29.41349,56.29039,-44.39063
393,236,404,143,131,157,254,98,68.04075,106.9292,69.5217,102.6644,74.99102,98.81458,69.68661,95.87014,29.41349,56.29039,-44.39063
369,258,501,151,137,184,276,124,68.04075,106.9292,69.5217,102.6644,74.99102,98.81458,69.68661,95.87014,29.41349,56.29039,-44.39063
351,318,547,189,143,256,315,147,68.34668,106.9964,69.88675,102.3444,75.55225,98.50675,70.83687,95.70285,28.94825,57.0318,-43.7276
224,354,609,252,131,297,413,163,68.34668,106.9964,69.88675,102.3444,75.55225,98.50675,70.83687,95.70285,27.52475,57.34698,-43.76715
209,392,680,323,133,318,404,169,68.10556,106.7996,69.90138,102.0538,75.8429,98.23695,71.85141,95.48927,22.92278,59.5971,-43.05255
193,414,668,372,131,326,410,180,67.06961,106.5492,69.47994,101.4162,75.82767,97.68627,72.28486,94.98166,22.92278,59.5971,-43.05255
175,414,678,385,127,322,401,162,67.06961,106.5492,69.47994,101.4162,75.82767,97.68627,72.28486,94.98166,22.92278,59.5971,-43.05255
145,380,663,380,123,295,408,141,67.06961,106.5492,69.47994,101.4162,75.82767,97.68627,72.28486,94.98166,22.92278,59.5971,-43.05255
149,349,726,342,113,267,336,122,40.65595,85.1245,45.70314,82.25278,47.72202,78.4954,40.874,72.32413,17.44127,65.79002,-37.05365
128,318,734,281,101,231,330,110,31.37287,49.2229,34.06713,56.06628,28.00459,55.0546,13.33379,50.49154,17.44127,65.79002,-37.05365
116,278,747,214,98,233,381,95,31.37287,49.2229,34.06713,56.06628,28.00459,55.0546,13.33379,50.49154,15.55554,68.24043,-33.88931
125,269,831,244,126,285,433,109,26.46893,34.90008,23.97028,38.04765,18.88381,41.60283,7.887336,44.44179,15.55554,68.24043,-33.88931
136,350,889,261,131,279,402,149,26.46893,34.90008,23.97028,38.04765,18.88381,41.60283,7.887336,44.44179,15.03206,69.89105,-31.30597
127,376,849,276,145,320,398,192,24.23129,29.68281,23.31604,26.92209,15.84351,26.55118,0.1715143,29.23222,15.03206,69.89105,-31.30597
134,382,841,282,146,422,424,236,24.23129,29.68281,23.31604,26.92209,15.84351,26.55118,0.1715143,29.23222,13.43542,71.04115,-29.44958
142,385,833,275,150,448,484,240,20.33967,25.67915,19.54366,22.18667,12.96106,20.62961,-1.602142,21.35021,13.43542,71.04115,-29.44958
132,435,738,249,127,451,471,237,20.33967,25.67915,19.54366,22.18667,12.96106,20.62961,-1.602142,21.35021,11.84482,72.43584,-28.46457
115,371,675,227,120,462,514,211,20.33967,25.67915,19.54366,22.18667,12.96106,20.62961,-1.602142,21.35021,11.84482,72.43584,-28.46457
112,377,663,235,113,518,593,183,18.99223,22.4267,16.81582,17.39,9.211965,16.48352,-5.812622,16.83775,10.03244,73.71265,-27.31213
125,358,598,225,117,452,637,155,17.10454,19.57136,14.31124,14.79181,6.553517,14.61854,-8.367065,14.80341,10.03244,73.71265,-27.31213
118,344,594,226,117,436,572,155,17.10454,19.57136,14.31124,14.79181,6.553517,14.61854,-8.367065,14.80341,8.546777,74.56509,-26.67688
113,328,555,196,115,435,546,157,16.45395,17.69762,13.35036,13.85312,4.797904,13.68841,-10.65082,13.12574,8.546777,74.56509,-26.67688
123,343,590,191,112,416,508,161,16.45395,17.69762,13.35036,13.85312,4.797904,13.68841,-10.65082,13.12574,6.287569,74.93221,-26.52429
185,304,522,167,112,313,410,147,16.45395,17.69762,13.35036,13.85312,4.797904,13.68841,-10.65082,13.12574,6.287569,74.93221,-26.52429
284,298,531,164,115,339,307,119,16.5796,16.74325,13.11209,13.19864,4.073305,13.14805,-12.15814,12.33392,4.048386,75.27679,-25.491
377,298,498,161,113,338,289,112,17.326,16.43532,12.978,12.83056,3.70704,13.0817,-13.21811,12.43684,4.048386,75.27679,-25.491
400,252,531,169,115,291,295,113,17.326,16.43532,12.978,12.83056,3.70704,13.0817,-13.21811,12.43684,2.667028,76.00163,-24.0195
465,239,498,174,120,337,303,135,17.326,16.43532,12.978,12.83056,3.70704,13.0817,-13.21811,12.43684,2.667028,76.00163,-24.0195
548,258,486,167,116,346,337,194,22.39939,19.94544,15.96416,15.78251,7.010627,15.53431,-9.357849,14.7465,3.451769,75.67855,-22.86133
578,247,452,155,104,320,337,217,22.39939,19.94544,15.96416,15.78251,7.010627,15.53431,-9.357849,14.7465,3.451769,75.67855,-22.86133
542,288,426,149,99,370,357,227,28.79265,31.54954,21.32138,38.50385,11.56876,37.4647,-5.936523,29.88209,2.363624,74.97953,-24.86697
535,278,387,141,97,390,334,228,30.60839,61.46817,21.96415,69.62356,12.80163,69.43165,-2.49585,61.06952,0.3839901,75.3499,-27.29889
560,263,363,105,84,352,313,214,30.60839,61.46817,21.96415,69.62356,12.80163,69.43165,-2.49585,61.06952,0.3839901,75.3499,-27.29889
747,275,405,97,81,358,258,315,30.60839,61.46817,21.96415,69.62356,12.80163,69.43165,-2.49585,61.06952,0.3839901,75.3499,-27.29889
794,286,417,106,83,343,279,330,32.7771,80.23573,28.88982,82.38754,22.97291,81.173,11.58941,76.61403,-3.035431,75.49047,-27.46506
836,232,403,107,79,282,235,331,35.53715,90.13445,33.51928,86.96065,28.35752,87.61972,15.94425,83.13564,-3.035431,75.49047,-27.46506
894,296,456,160,85,249,243,341,35.53715,90.13445,33.51928,86.96065,28.35752,87.61972,15.94425,83.13564,-3.027924,75.37032,-27.73938
1014,304,416,177,87,268,255,395,40.63605,95.00108,41.57253,90.90964,38.14274,94.38277,23.6559,90.01872,-4.663971,74.62161,-29.0578
904,284,372,173,80,241,254,330,40.63605,95.00108,41.57253,90.90964,38.14274,94.38277,23.6559,90.01872,-4.663971,74.62161,-29.0578
845,268,385,173,76,235,261,324,54.67149,103.4349,59.96271,99.23168,60.94974,100.6667,47.06991,99.4284,-4.663971,74.62161,-29.0578
910,292,475,225,94,210,273,333,54.67149,103.4349,59.96271,99.23168,60.94974,100.6667,47.06991,99.4284,-5.688812,72.34142,-32.10931
965,291,479,242,92,217,284,364,59.51283,105.5238,64.80757,100.1134,68.17971,100.2429,57.87676,101.1247,-5.688812,72.34142,-32.10931
908,364,557,234,89,173,278,315,59.51283,105.5238,64.80757,100.1134,68.17971,100.2429,57.87676,101.1247,-6.24762,70.14977,-33.63928
922,360,580,240,87,176,337,318,59.51283,105.5238,64.80757,100.1134,68.17971,100.2429,57.87676,101.1247,-6.24762,70.14977,-33.63928
991,363,556,238,87,199,339,344,61.74619,105.7249,66.6705,100.2561,71.5805,99.81306,63.97911,100.4445,-6.625183,69.26657,-33.40149
923,356,522,191,67,205,342,371,64.395,105.8335,68.49978,100.0363,73.72272,99.35693,67.11004,100.0507,-6.625183,69.26657,-33.40149
849,341,613,174,64,202,336,359,64.395,105.8335,68.49978,100.0363,73.72272,99.35693,67.11004,100.0507,-7.259064,67.70584,-34.064
721,253,559,181,70,202,328,357,65.33656,105.7053,69.84518,99.70481,75.51455,98.80732,69.53474,99.52737,-7.5383,67.31821,-33.55759
620,250,539,178,74,209,433,331,65.33656,105.7053,69.84518,99.70481,75.51455,98.80732,69.53474,99.52737,-7.5383,67.31821,-33.55759
