maxgraf96/sEMG-myo-python/data/data_4.csv
EMG1,EMG2,EMG3,EMG4,EMG5,EMG6,EMG7,EMG8,FingerJoint1,FingerJoint2,FingerJoint3,FingerJoint4,FingerJoint5,FingerJoint6,FingerJoint7,FingerJoint8,wrist1,wrist2,wrist3
49,121,273,135,78,60,39,57,11.12324,22.2562,17.61558,25.20128,12.67067,25.12952,6.49552,26.60362,40.98215,55.06684,-19.82419,
56,137,307,144,85,67,42,57,11.24147,22.4002,17.73611,25.32003,12.75492,25.25309,6.58672,26.72311,40.98215,55.06684,-19.82419,
57,137,269,162,95,71,46,57,11.39495,22.33261,17.90415,25.12375,12.90895,25.37082,7.056832,26.9163,41.26289,54.19278,-20.77805,
52,123,256,151,93,70,45,40,11.39415,22.30618,17.98155,25.00528,13.00514,25.3599,7.363411,27.00176,40.66038,53.58299,-21.7695,
55,127,289,156,93,67,47,53,11.19343,22.24971,18.03763,24.85174,13.18989,25.25257,7.83299,27.04829,40.58131,53.04069,-22.36826,
50,129,285,137,90,69,45,60,11.16881,22.29152,18.18511,24.88794,13.39882,25.23972,8.178034,27.01929,40.33632,51.58524,-24.004,
57,128,244,147,89,68,48,60,11.2214,22.36229,18.30923,24.97902,13.5278,25.25828,8.339152,26.97787,40.33632,51.58524,-24.004,
54,137,234,122,78,67,50,58,11.67681,22.87317,18.89685,25.91127,14.36234,26.16715,8.941006,27.16726,40.49466,49.53007,-26.15961,
55,142,286,123,72,65,49,62,12.04132,23.38042,19.11446,26.38543,14.80782,26.4741,9.254524,27.21691,39.89142,48.71625,-27.16199,
55,144,264,132,82,63,50,53,12.08298,23.4662,19.19377,26.57772,14.95011,26.65454,9.430939,27.42582,39.89142,48.71625,-27.16199,
55,152,260,136,82,58,47,42,12.27954,23.7064,19.54795,27.23404,15.53452,27.29862,10.07336,28.0532,40.91666,49.06931,-27.60205,
37,128,271,102,74,55,40,37,12.32923,23.67383,19.66571,27.32984,15.71521,27.42972,10.23786,28.10787,40.91666,49.06931,-27.60205,
39,121,275,108,69,57,31,62,12.65001,24.22822,19.80731,27.58671,16.11047,27.57388,10.6529,28.29438,39.01657,46.20573,-31.53363,
46,141,267,114,78,68,35,70,13.31965,24.78413,19.72489,27.77895,16.03999,27.70947,10.88406,28.27225,40.76615,47.15762,-31.10489,
43,135,305,99,76,68,31,69,13.67104,25.03169,19.89581,27.64681,15.96278,27.49405,10.71113,28.05317,40.70485,47.83641,-30.85638,
43,122,372,98,76,71,30,68,13.98867,25.20498,20.14555,27.71997,16.24017,27.56886,11.04475,28.01296,40.64435,48.46581,-30.64276,
48,124,390,101,78,68,37,70,14.30048,25.36731,20.43339,27.86547,16.44791,27.78504,11.32382,28.15322,42.11127,46.81963,-33.53256,
47,132,405,94,77,63,36,50,14.70638,25.63326,20.82981,28.17916,16.71094,28.01806,11.6186,28.32922,42.27539,46.5554,-33.61755,
42,126,397,94,71,50,33,42,14.95796,25.81265,21.08428,28.40066,16.88054,28.14654,11.78836,28.44301,42.19282,46.4483,-33.7215,
44,137,401,97,65,49,33,41,15.13254,25.91942,21.16803,28.53719,16.97025,28.33431,12.07267,28.46223,42.35254,46.2121,-34.31906,
48,148,391,98,61,44,36,57,15.29536,26.02537,21.24231,28.67717,17.05493,28.50835,12.3426,28.47597,42.35254,46.2121,-34.31906,
44,150,387,97,58,44,31,58,15.39089,26.17536,21.31878,28.82547,17.12603,28.56632,12.39117,28.46819,41.15126,46.73471,-35.05911,
44,168,374,99,59,41,30,57,15.34203,26.27719,21.43398,28.94033,17.31273,28.64474,12.53969,28.45096,41.15126,46.73471,-35.05911,
52,184,373,90,53,37,28,57,15.27623,26.5029,21.47796,29.15885,17.4972,28.7767,12.65566,28.4416,40.21304,47.21092,-34.70007,
51,179,374,77,46,40,29,84,15.33624,26.81542,21.29894,29.51344,17.45771,28.93677,12.54254,28.50069,39.92256,47.75531,-34.35736,
50,166,356,77,46,45,32,81,15.2594,26.88367,21.26576,29.47646,17.41858,28.89692,12.49553,28.50466,39.47992,48.12661,-34.60754,
52,159,364,86,51,52,35,111,15.22881,26.90564,21.25422,29.45721,17.40456,28.88043,12.47953,28.50465,39.03214,47.88173,-34.43411,
54,127,358,84,47,55,40,122,15.19808,26.97343,21.20851,29.62949,17.46107,28.96927,12.55357,28.5232,38.97213,47.81298,-34.39737,
51,102,374,85,45,56,39,133,15.30666,27.10064,21.24229,29.74006,17.51194,29.02884,12.58074,28.41192,38.97213,47.81298,-34.39737,
55,117,454,94,43,53,41,135,15.33463,27.13189,21.17576,29.66754,17.49001,28.94637,12.62041,28.37025,39.3477,46.80807,-35.89828,
55,125,528,95,40,55,53,156,15.17185,27.1586,21.18651,29.51828,17.54,28.91292,12.55651,28.4349,38.78375,47.11834,-36.0795,
59,134,581,97,51,50,55,155,14.69814,27.04595,21.09438,29.17629,17.64185,28.70604,12.4202,28.48984,37.73611,47.69312,-35.83026,
60,137,587,104,55,53,67,242,14.55235,26.9768,21.03783,28.9992,17.566,28.49035,12.22035,28.32096,37.73611,47.69312,-35.83026,
59,130,617,123,62,52,82,247,14.05325,26.58735,20.5767,28.45649,17.27039,27.72956,12.05428,27.75694,36.66083,48.31225,-35.32407,
57,136,536,120,64,53,85,245,13.47941,26.25273,20.44279,27.89866,17.3628,27.23148,11.93112,27.40955,36.83302,47.47335,-35.06815,
55,148,445,115,65,47,80,234,13.08654,26.04435,20.43601,27.53151,17.51885,26.97697,11.86656,27.24224,36.83302,47.47335,-35.06815,
52,142,359,106,57,50,85,229,11.91215,24.79822,18.67925,25.63696,16.85315,25.12202,11.32287,26.54387,40.32623,46.75498,-35.53067,
51,157,348,105,56,49,74,136,10.69468,23.58772,17.06109,23.83211,16.04315,23.71023,10.62893,26.20574,40.32623,46.75498,-35.53067,
51,165,285,96,51,62,93,137,10.43341,23.32517,17.01498,23.10021,15.61672,22.68193,9.341227,25.68583,46.78981,43.07243,-36.7579,
49,158,282,96,52,80,99,131,9.885219,21.56394,15.9221,20.11007,14.59348,19.75993,6.771673,24.57541,55.88647,36.57175,-40.11395,
63,379,391,140,57,82,98,127,9.782453,21.38126,16.23361,19.33403,14.40074,19.03462,5.621603,23.892,55.88647,36.57175,-40.11395,
66,451,430,150,57,81,95,159,8.521272,19.93036,16.52519,16.95677,13.1851,17.46776,1.738737,21.84315,63.50583,25.54596,-47.33643,
70,500,478,155,59,84,95,156,8.853411,19.5257,17.06062,16.50833,13.29424,17.1216,1.195542,21.33114,76.69644,-30.33255,-97.2179,
67,501,511,161,67,80,62,144,9.453044,19.255,17.68722,16.60056,13.82789,16.98996,1.471316,20.90161,75.79537,-53.12589,-118.3591,
81,533,527,158,68,81,59,228,9.604176,18.46883,18.14079,16.38423,14.21716,16.60153,1.421349,19.98841,74.69736,-60.508,-125.1249,
82,619,544,141,70,129,122,244,9.535003,18.03351,18.47311,16.23197,14.61956,16.56067,1.706736,19.88552,73.60971,-67.04199,-131.1584,
85,933,553,136,69,135,129,232,9.408448,17.42989,18.94788,15.9922,15.15788,16.45992,1.984703,19.67121,72.42735,-69.30582,-134.0109,
97,956,530,133,68,137,130,246,9.318691,16.90806,19.43505,15.67204,15.7295,16.18437,2.387521,19.35834,71.20866,-73.28363,-138.473,
100,1069,485,119,63,174,148,249,9.049047,16.03036,20.55366,15.17072,16.89584,15.58376,3.141772,18.75147,70.70924,-74.78363,-140.0745,
96,1127,510,119,61,184,167,301,8.878682,15.50623,21.22909,14.87629,17.59008,15.21368,3.56562,18.37164,69.43288,-76.88107,-142.1701,
106,1095,425,105,56,159,131,320,8.992872,15.27039,21.9379,14.54467,17.90516,14.58011,3.512948,17.44545,59.21155,-90.46338,-155.2753,
108,1004,467,104,55,165,127,322,8.897899,15.09753,22.2956,14.36102,18.21054,14.19019,3.662065,16.9923,58.14042,-90.89282,-156.0958,
100,1090,503,97,53,170,127,330,8.783608,15.00957,22.43382,14.28091,18.40388,14.00166,3.813745,16.81866,56.91012,-91.52069,-157.1222,
106,1029,516,105,54,133,108,329,8.561909,14.90984,22.49231,14.23366,18.46309,13.78304,4.155367,16.43867,56.91012,-91.52069,-157.1222,
104,993,475,103,53,111,68,223,8.419165,14.77566,22.71895,14.15852,18.72518,13.48263,4.66808,15.92085,56.09955,-91.91562,-157.7924,
92,946,479,96,52,115,91,192,8.305988,14.66505,22.89271,14.12933,18.83065,13.30057,4.821173,15.62371,52.5922,-93.65329,-159.2361,
88,742,438,102,53,99,88,173,8.220225,14.51549,23.18468,14.05257,18.70313,12.94137,4.529775,15.06895,51.98612,-93.91498,-159.3962,
83,537,419,97,50,86,88,136,8.309678,14.5468,23.19673,14.00418,18.5188,12.83811,4.276364,14.91113,48.04501,-95.80609,-160.1466,
85,444,439,102,52,82,86,159,8.379154,14.53642,23.17896,13.95705,18.46128,12.8664,4.19594,15.02263,48.65887,-94.62759,-159.4154,
87,344,459,105,52,73,86,180,8.358663,14.42843,23.13149,13.77438,18.17727,12.64214,3.614523,14.81751,48.22306,-94.9733,-159.387,
87,312,443,101,53,55,58,206,8.323047,14.42741,23.09604,13.72458,18.12757,12.55405,3.543659,14.71838,48.22306,-94.9733,-159.387,
85,325,411,106,53,74,71,249,8.423306,14.51632,23.10212,13.6674,18.07259,12.48026,3.283175,14.4301,45.77542,-96.09518,-160.0369,
91,361,479,130,58,76,74,251,8.539714,14.64574,23.08332,13.67423,18.07084,12.49778,3.156876,14.25986,44.67554,-96.27432,-159.8354,
120,423,567,150,68,85,78,252,8.765878,14.76628,22.98586,13.60019,17.98684,12.47647,3.176681,14.14527,43.97583,-96.42786,-159.7649,
155,511,610,175,87,102,93,293,8.847325,14.80648,22.95424,13.57445,17.95899,12.47143,3.187292,14.1079,43.83965,-96.20169,-159.4663,
158,483,631,176,86,141,118,274,9.022051,14.88618,22.89344,13.52116,17.90379,12.46587,3.216904,14.0356,42.69116,-95.79047,-159.3548,
185,482,634,181,100,155,124,268,9.199636,15.11093,23.09623,13.64711,17.99606,12.57406,3.062434,14.04001,42.10596,-95.63846,-159.3277,
189,453,590,169,99,155,121,274,9.133286,15.16863,23.07141,13.74948,18.14514,12.66109,3.427857,14.24066,41.41188,-95.88089,-159.1342,
170,438,585,177,105,154,121,269,9.014727,15.24564,23.04943,13.79542,18.13016,12.68159,3.489194,14.36222,40.65931,-95.78445,-158.795,
143,361,667,174,95,241,189,250,8.667308,15.19992,22.95193,13.76579,18.15645,12.68045,3.459922,14.3715,40.65931,-95.78445,-158.795,
146,388,719,189,99,238,186,308,8.352846,15.21348,22.72148,13.74701,18.08465,12.67642,3.500462,14.49135,38.32782,-95.52313,-159.0926,
113,371,764,179,85,228,180,301,8.466594,15.36299,22.22717,13.57581,17.65433,12.52869,3.465173,14.48801,37.95686,-95.4581,-158.7799,
112,383,796,212,92,235,187,293,8.585548,15.46622,21.93279,13.46132,17.37503,12.43149,3.433705,14.46529,35.11274,-94.99734,-157.541,
111,322,788,188,76,239,188,286,8.136457,15.40502,21.13195,13.29174,16.80258,12.25279,3.189535,14.59486,33.94684,-94.90094,-157.1218,
106,298,764,196,79,149,114,255,8.060009,15.32179,20.85246,13.09104,16.32037,12.07815,2.599032,14.5575,31.52699,-95.00928,-156.3058,
91,252,777,193,75,305,187,165,8.098619,15.3559,20.65729,13.02813,16.00444,12.01665,2.245204,14.54897,31.42238,-94.72522,-155.9666,
98,273,873,242,85,340,205,130,8.19195,15.43542,20.27644,12.90916,15.39644,11.89968,1.579325,14.52968,31.42238,-94.72522,-155.9666,
83,292,897,239,83,337,204,120,8.568318,15.47519,19.709,12.52738,14.805,11.67159,0.8624281,14.45825,30.96878,-93.24982,-154.3087,
86,308,877,264,90,339,208,112,8.689166,15.52847,19.33669,12.4493,14.60458,11.7055,0.8748464,14.43394,30.96878,-93.24982,-154.3087,
83,285,830,251,86,348,217,88,9.049109,15.67908,18.35182,12.21126,14.01644,11.76337,0.7920076,14.3621,29.53853,-92.98712,-153.1509,
85,284,765,244,84,245,173,107,8.602434,15.77641,17.53304,12.28069,14.29068,11.8824,2.33514,14.53544,29.67641,-92.92908,-152.9394,
74,262,573,192,73,195,154,100,9.619814,16.76893,17.1525,13.35158,16.0934,12.67339,9.833135,14.676,29.24046,-92.5733,-152.3939,
74,216,440,156,63,192,149,99,10.11172,17.44082,16.49219,14.48238,18.4173,13.46982,19.0768,14.63711,28.97633,-92.00903,-151.8653,
72,208,403,113,54,182,142,93,9.287303,17.36702,17.034,15.5818,18.83545,13.96658,16.95182,14.28689,28.55759,-91.91888,-152.0321,
76,255,525,167,61,161,127,93,8.976097,17.56129,16.55677,16.20103,18.87742,14.27594,17.20712,14.00833,28.07168,-91.74146,-152.2547,
71,325,528,171,62,88,80,58,8.921761,17.6496,16.46297,16.39668,18.70405,14.40178,16.58993,13.8953,26.8165,-90.99924,-153.047,
78,325,561,178,64,89,74,110,8.841642,17.70611,16.36252,16.52634,18.70437,14.45498,16.58765,13.77291,26.8165,-90.99924,-153.047,
78,338,611,187,70,164,130,134,8.574275,18.10194,15.67022,17.21529,18.84824,14.75117,17.59757,13.18118,26.23786,-89.93967,-152.5859,
89,331,582,186,68,166,131,182,8.476016,18.11684,15.82165,17.33645,18.85981,14.85986,17.19572,13.27124,25.87979,-90.26846,-153.6069,
83,300,486,131,56,171,133,184,8.302448,18.28493,15.91936,17.82214,18.96723,15.29023,16.75265,13.39857,25.83478,-90.30481,-153.7433,
84,263,489,127,61,183,139,185,8.197284,18.61121,15.93061,18.65292,19.03231,15.86841,16.46359,13.50363,25.22809,-90.2742,-153.6449,
75,255,453,116,59,177,134,160,8.226764,18.87518,16.1025,19.2308,18.97505,16.26653,15.82619,13.55722,24.58323,-90.15469,-154.0052,
84,248,389,102,52,113,77,142,8.29067,19.17646,16.145,19.49004,18.83753,16.48131,15.23833,13.58269,24.27014,-90.0932,-154.1828,
73,242,452,99,53,117,86,76,8.328267,19.40369,16.27035,19.75863,18.79338,16.76807,14.72101,13.70788,24.75283,-89.755,-154.3986,
75,282,518,114,56,104,78,64,8.297944,19.69556,16.50835,20.16194,18.54823,17.23222,13.49159,13.97442,24.85034,-89.7204,-154.6154,
88,271,662,151,58,133,81,122,8.247067,19.74238,16.46398,20.16315,18.27583,17.19913,12.96214,13.9298,24.82027,-89.12741,-154.666,
89,282,715,164,65,206,153,132,8.196649,19.79823,17.19394,20.15765,18.02755,17.22257,10.39252,13.79186,24.8823,-89.03024,-154.8843,
85,320,726,168,72,223,162,132,8.136449,19.90532,18.26954,20.39098,18.64902,17.39175,9.491131,13.89541,24.70465,-88.80396,-155.2411,
102,321,724,171,72,223,164,151,8.096276,19.95199,18.82041,20.31317,18.83263,17.3598,8.61664,13.95081,24.81411,-88.34866,-155.375,
100,332,656,164,71,221,164,152,8.087608,20.01717,19.23486,20.40536,18.95525,17.48561,7.930193,14.16577,24.88703,-88.15567,-155.4512,
123,408,526,133,74,224,175,211,8.259554,20.06554,20.64011,20.62147,19.58715,17.69515,6.507113,14.4984,24.61697,-87.67072,-155.2844,
134,484,576,154,81,188,146,216,8.295543,20.06809,20.72907,20.65512,19.34071,17.84525,5.898041,14.84707,24.10425,-87.67303,-155.4271,
133,449,570,153,76,172,141,220,8.481992,20.16768,21.10419,20.60793,18.79576,17.97596,4.518056,15.40892,23.88976,-87.57703,-155.2679,
121,465,529,144,76,167,132,215,8.44925,20.19024,20.98594,20.62568,18.71985,18.15337,4.460918,15.72236,23.77456,-87.60217,-155.3382,
124,460,528,143,75,175,138,240,8.370358,20.26677,20.70508,20.66497,18.47084,18.65707,4.15173,16.65471,23.08215,-87.53882,-155.4883,
98,390,531,135,69,149,129,185,8.398913,20.25778,20.69252,20.731,18.33903,18.69233,4.07401,16.65603,22.57449,-87.30215,-155.239,
87,287,548,106,55,153,133,238,8.45346,20.23929,20.62342,20.65902,18.16684,18.67455,3.952198,16.70763,22.57449,-87.30215,-155.239,
88,300,556,105,55,148,127,242,8.370072,20.13226,20.18456,20.29966,17.25146,18.75076,2.772307,17.16003,22.07004,-87.19025,-155.6323,
90,275,567,118,57,145,125,249,8.479264,20.07305,20.24196,20.1475,16.89436,18.80572,2.126302,17.53939,22.22779,-87.43118,-156.1524,
86,212,547,110,56,140,131,241,8.57621,20.00056,20.41765,19.88787,16.78371,18.71316,1.552356,17.78267,22.37053,-87.90591,-156.7544,
76,192,517,109,51,143,137,242,8.607873,19.97778,20.474,19.79286,16.74881,18.67606,1.356459,17.85862,22.44769,-88.12219,-156.7294,
75,195,423,118,54,99,103,207,8.843491,19.95743,20.52185,19.64584,16.4359,18.75474,0.9300572,18.27857,22.49072,-89.14798,-157.0435,
95,257,420,127,62,97,106,330,8.99208,19.9014,20.52293,19.57212,16.23065,18.83317,0.6237378,18.48623,22.82099,-89.72369,-156.9406,
92,261,439,120,60,96,111,354,9.045575,19.76298,20.67,19.46815,16.03038,18.7482,-0.0305481,18.36123,23.35956,-90.56891,-157.0356,
91,268,459,128,59,86,97,355,9.305783,19.85472,20.55106,19.50755,15.89287,18.83247,0.05364645,18.41781,24.52726,-91.18515,-157.2006,
95,272,476,130,58,51,65,368,9.676991,19.98671,20.38419,19.55828,15.69457,18.95153,0.1316823,18.50708,25.42541,-91.50916,-157.215,
88,285,410,109,51,44,63,354,9.911213,19.99014,20.4536,19.37795,15.71537,18.81849,0.1802447,18.38462,31.28762,-91.15381,-157.6908,
70,218,399,96,39,35,55,237,9.952741,19.69652,20.57567,18.92902,15.72203,18.39679,0.2667403,18.1683,33.78903,-91.86734,-158.4076,
68,234,340,87,37,35,46,187,9.880483,19.57158,20.24609,18.14675,15.46887,17.62433,0.3935405,17.58947,33.78903,-91.86734,-158.4076,
70,235,319,72,35,60,56,169,10.41733,19.63017,19.73194,17.70038,15.10417,17.21853,0.5418506,17.27533,40.77754,-93.75763,-163.7094,
67,220,287,64,37,62,55,166,10.70749,19.39077,20.09516,17.49909,15.45081,16.78226,0.8534201,16.74445,42.38524,-94.79291,-166.3132,
70,188,286,63,39,91,67,170,10.859,19.32159,20.17547,17.48118,15.47484,16.65838,0.9005997,16.55852,43.71427,-95.58554,-168.7097,
63,177,263,57,38,113,96,227,10.74283,19.12444,20.28499,17.41958,15.55691,16.46166,1.111174,16.33965,44.1954,-96.29077,-169.7308,
55,134,259,52,35,116,100,224,10.74285,18.88921,20.61804,17.46226,15.89344,16.32461,1.662359,16.21504,44.62053,-99.29315,-175.3491,
51,138,250,49,34,106,94,226,11.20875,18.978,20.80145,17.37649,16.29886,16.36297,2.427525,16.40538,44.29367,-102.3512,178.6339,
70,158,341,75,43,110,101,198,11.02797,18.9893,21.25653,17.5751,16.89523,16.46728,2.953466,16.65045,44.28185,-103.5007,176.8367,
69,155,335,76,44,186,177,197,11.06422,19.01231,21.37472,17.50471,17.20196,16.43366,3.393186,16.766,44.26353,-105.8162,173.1666,
79,154,355,79,45,184,172,137,11.66747,19.34353,21.40605,17.29708,17.52974,16.40198,4.063432,16.95352,44.4185,-107.3971,170.4291,
79,151,355,80,46,185,172,145,12.46828,19.96549,21.66352,17.49118,17.78731,16.64331,4.303301,17.21426,45.91798,-108.3796,169.9056,
81,124,353,79,46,197,175,167,12.46829,19.9655,21.66353,17.49116,17.7873,16.64331,4.303308,17.21426,46.64701,-109.4242,167.6098,
73,107,413,79,43,236,178,237,17.24257,21.97687,22.62975,17.85682,17.96043,17.08353,4.950532,17.3623,46.64701,-109.4242,167.6098,
76,139,592,120,47,190,98,259,16.26994,21.81286,22.7067,17.83138,18.23766,17.09029,5.124547,17.52029,46.98801,-109.9775,166.4597,
81,196,655,179,61,186,85,260,17.37295,22.63166,23.45382,18.4803,18.85859,17.41572,5.478079,17.59538,46.93732,-111.3405,158.711,
85,197,669,182,60,196,84,258,19.44486,24.06405,23.82611,19.21527,18.96666,18.09203,5.189389,17.66464,47.80498,-112.2653,155.6367,
85,212,667,183,62,187,78,269,18.74061,24.10413,23.12308,19.55923,18.46096,18.4134,4.968979,17.72582,47.80723,-112.2675,155.632,
90,207,612,174,57,133,66,257,18.89626,24.40966,22.71915,19.74909,18.14673,18.64658,4.327812,17.87499,51.29586,-117.5345,146.1701,
86,198,513,162,55,105,65,259,19.58884,24.63872,22.68249,20.21923,17.83249,19.24828,3.145562,18.43309,54.52444,-123.2869,139.2404,
75,182,463,108,51,103,60,283,20.44353,24.66823,23.22337,20.69207,18.32917,19.65985,3.115458,18.80371,58.92204,-135.9819,124.3271,
76,233,456,114,60,86,56,282,21.0634,24.95647,23.83704,21.19749,18.60462,20.1282,3.217699,19.01514,59.60689,-140.3676,119.0964,
77,230,453,114,60,94,52,254,20.58853,24.4488,23.51541,20.75906,18.41467,20.03217,3.184477,19.11738,62.19019,-151.5653,106.8849,
78,240,429,112,61,197,44,220,19.86172,24.04386,22.989,20.53609,17.86461,19.89448,2.783861,19.15281,61.90813,-158.1673,100.1566,
90,243,417,101,60,202,40,185,19.38751,23.79928,22.63585,20.42969,17.45705,19.80425,2.445335,19.14731,61.90813,-158.1673,100.1566,
89,218,415,82,49,197,39,156,18.92294,23.56917,22.27942,20.34604,17.02312,19.71497,2.064933,19.12622,59.67897,-163.6151,94.48398,
114,168,419,75,44,194,62,201,18.7643,23.4278,22.14257,20.2956,17.10859,19.66243,2.589535,19.28698,57.68382,-167.933,90.21581,
115,198,511,88,46,194,63,203,18.27594,23.21728,22.01609,20.34409,17.22993,19.59698,3.034253,19.53903,57.02422,-169.2202,88.92574,
108,193,572,94,46,94,68,209,17.7176,22.89137,21.90987,20.32512,17.18762,19.54226,3.00742,19.65916,57.3987,-168.8977,89.48536,
98,197,571,99,47,94,68,207,16.87067,22.37547,21.71211,20.27341,17.06498,19.45167,2.926146,19.81395,56.85583,-167.3867,90.78067,
102,198,552,101,47,99,68,209,15.91016,21.85305,21.21473,20.02089,16.74673,19.13267,2.667697,19.60244,56.49292,-166.8836,91.28632,
91,210,567,98,47,99,53,244,15.29226,21.41106,20.77627,19.80747,16.48231,18.94695,2.614251,19.46332,56.22285,-166.4486,91.12774,
126,169,512,89,42,85,54,275,14.86633,21.10843,20.48327,19.6648,16.3017,18.82238,2.572104,19.37553,55.60839,-166.5268,90.82132,
131,171,421,81,42,79,50,309,14.69843,20.82331,20.10525,19.57945,15.88322,18.63305,2.300459,19.33475,53.30446,-167.1491,89.36192,
146,179,355,65,38,60,51,338,13.56707,20.03946,19.39949,19.34033,15.55857,18.43413,2.54699,19.28232,51.07436,-169.0268,87.06479,
161,189,368,69,40,51,54,357,13.34641,19.79602,19.05343,19.23732,15.31789,18.32091,2.539754,19.21353,50.16288,-170.4689,86.4384,
152,193,383,72,37,58,50,328,12.39997,18.95511,17.91994,18.90667,14.49922,17.99973,2.524448,18.94384,49.66108,-172.4662,84.77718,
125,197,411,71,38,61,49,303,11.80568,18.51691,17.46861,19.19442,14.30598,17.87156,2.803557,19.00103,49.12712,-174.3371,83.22242,
126,202,438,79,40,69,45,249,11.62307,18.13539,17.10213,19.21531,14.06398,17.74524,2.901677,18.92062,47.63402,-176.3081,81.34483,
119,195,437,79,46,76,47,221,11.60754,17.65193,16.65672,19.3251,13.94258,17.77151,3.188022,18.80093,46.85112,-177.6822,80.20422,
98,181,404,71,47,78,48,200,11.80139,17.87137,16.76608,19.37646,13.96304,17.82198,3.124124,18.81534,46.85112,-177.6822,80.20422,
101,154,356,63,46,69,51,230,11.85301,17.85074,16.88957,19.50496,14.05053,17.87589,3.218152,18.86561,45.68306,-179.6498,78.62813,
106,174,302,69,55,72,56,245,11.98984,17.91566,17.02487,19.67395,14.15343,17.92379,3.361844,18.92063,45.28698,179.6338,78.42953,
99,159,288,63,54,63,55,245,12.1605,18.07423,17.02375,19.87552,14.0419,17.96594,3.35864,18.95417,43.82325,177.104,77.49859,
90,136,271,61,49,54,49,255,12.22127,18.11791,16.99287,20.02338,13.9108,18.00561,3.30866,18.97805,43.64684,176.17,76.99398,
91,139,254,59,46,50,46,254,12.53816,18.36615,16.94722,20.29469,13.78017,18.0721,3.222612,18.93099,42.27538,174.9553,76.15889,
99,150,258,63,49,52,53,279,12.55067,18.39718,16.86985,20.37376,13.69266,18.07607,3.20855,18.8918,42.27315,173.8878,75.68081,
104,148,464,90,48,46,51,267,12.43521,18.50813,16.74035,20.58961,13.47608,18.01891,3.108147,18.7717,42.33058,173.6234,75.47839,
108,152,506,96,49,47,52,276,12.40602,18.54024,16.45491,20.75126,13.17614,18.0183,3.018772,18.66219,42.55472,173.5528,75.1874,
105,145,509,96,48,45,52,274,12.49564,18.64338,16.33101,20.71765,12.93241,17.83867,2.767654,18.46214,42.69455,173.5705,75.18893,
99,141,529,97,47,43,51,255,12.59329,18.63461,16.36485,20.74655,12.74524,17.81907,2.431848,18.36222,43.02563,173.0831,74.73383,
85,136,563,102,46,41,40,175,12.4185,18.56703,16.12112,20.53823,12.4708,17.61442,2.209501,18.1,42.88108,172.1834,74.10513,
74,108,388,67,39,40,80,210,12.36186,18.55566,15.81344,20.39603,12.07903,17.43058,1.835223,17.8648,42.80523,171.7512,73.80109,
68,95,304,55,34,34,81,201,12.56401,18.62268,15.78348,20.46998,11.86214,17.40897,1.453692,17.8283,42.90446,169.7281,73.19646,
79,109,297,55,35,35,83,180,12.76218,18.68999,15.91048,20.4889,11.92702,17.44625,1.347512,17.88248,42.90446,169.7281,73.19646,
113,106,261,57,38,38,84,180,13.48592,18.93988,16.32699,20.53146,12.11942,17.5674,0.9478475,18.05876,42.22163,168.3432,71.6031,
185,104,119,41,33,40,86,163,13.96771,19.07729,16.80256,20.91018,12.55931,17.83484,1.221345,18.41178,39.8103,165.4709,69.79648,
228,125,123,45,34,49,60,133,14.20616,19.17822,17.00047,21.00029,12.70763,17.92213,1.269127,18.48639,39.13633,162.8892,67.85152,
479,196,128,52,43,72,84,213,14.43715,19.29988,17.27439,21.09905,12.97852,18.13063,1.513768,18.86693,38.95071,162.5508,67.08579,
602,223,134,57,49,82,95,250,15.82716,20.31505,18.71663,21.99325,14.08595,18.87645,1.932423,19.18113,38.42508,162.1066,66.76079,
734,228,142,63,51,89,109,291,20.06019,23.17577,21.22519,23.80745,16.41854,20.54397,3.392074,20.13066,37.47378,161.0047,65.58446,
854,251,148,73,59,94,118,331,24.60692,25.65089,23.87709,25.40381,19.33644,22.36042,6.508753,21.19133,37.43026,160.2751,64.28947,
963,275,152,84,65,104,152,459,34.65686,31.42405,29.5596,29.02017,26.00431,26.62727,14.96651,23.8283,37.78376,159.5365,63.2321,
979,306,153,91,71,120,286,554,39.43116,38.58862,33.0295,33.97335,32.08348,30.93423,26.51893,27.25672,37.8976,159.3819,62.81032,
1072,317,152,99,73,129,371,606,36.32717,43.98616,33.97458,53.16063,35.66148,53.70781,35.31501,47.16372,38.09089,158.5796,60.06762,
1135,395,167,181,116,180,433,722,36.54431,48.48718,35.18173,62.61853,37.47584,64.35989,38.4523,56.94432,37.5096,157.2192,58.2362,
1193,412,155,185,117,189,483,766,39.68274,68.08952,42.02446,89.34888,43.8511,88.3982,41.5775,82.37737,37.5096,157.2192,58.2362,
1178,411,145,184,115,188,526,721,48.21299,100.4262,54.87434,102.2411,57.26407,104.0548,50.71368,99.33353,38.18025,159.5931,58.86132,
1160,404,134,182,111,181,473,678,49.01487,97.44627,57.46057,100.3504,61.23027,99.95903,54.66098,97.93556,39.23946,162.056,60.22514,
1094,390,144,220,123,174,417,632,49.08866,96.82436,57.7129,99.79411,61.73076,99.65191,54.91838,97.78042,40.87698,159.8929,56.53714,
1005,338,113,165,85,125,361,499,49.47015,97.21831,57.91013,99.83664,61.76069,99.86253,55.22587,98.3436,41.30944,159.3713,55.35585,
869,303,114,160,82,110,297,419,49.57462,97.42564,57.95119,99.9314,61.73625,99.98779,55.29684,98.55395,41.3535,157.6421,53.30585,
783,275,111,157,79,101,219,408,49.95929,97.93209,58.52963,100.1699,62.4945,101.0143,55.8663,99.5685,40.41747,152.5188,46.25027,
681,238,133,153,75,83,213,345,49.97022,98.39725,58.62148,100.3624,62.73362,101.5193,56.08797,100.2012,40.80804,151.6391,45.17034,
550,231,132,79,47,81,213,377,49.80652,98.87348,58.45753,100.5772,62.55097,102.1445,56.05978,101.0342,40.71973,150.9533,44.35794,
421,193,184,65,46,134,368,382,49.83068,99.38503,58.44124,100.6234,62.6109,102.3116,56.1959,101.1443,40.41238,150.3111,43.60084,
296,207,450,84,44,141,374,389,49.36491,99.3467,58.17968,100.5218,62.31441,102.1898,55.95499,101.1379,40.41158,149.9076,43.24326,
258,264,643,212,89,166,364,348,49.14106,99.34695,58.05506,100.4815,62.17595,102.1495,55.84486,101.1531,39.69131,149.3266,43.24905,
253,279,844,293,111,170,355,343,49.48223,100.0086,58.17055,100.2952,62.76375,102.0731,56.26663,101.0129,39.33088,148.61,42.36237,
243,337,1063,345,124,175,355,324,49.5639,100.0332,58.24523,100.3195,62.85487,102.0355,56.36943,101.0484,37.81645,148.1991,42.80472,
235,366,1126,351,125,133,170,279,49.41405,100.0335,57.95402,99.80056,62.34449,101.5182,55.86729,100.8045,37.38461,148.1633,43.06718,
245,367,1072,350,124,123,177,241,42.99928,95.3711,47.11781,93.4996,47.42104,94.70695,42.89448,93.71822,36.75491,147.4909,45.15664,
212,334,993,298,99,85,205,251,14.82757,36.94238,18.6496,28.53269,19.47207,29.47053,22.01315,27.58396,36.40568,147.1789,46.28468,
173,319,947,237,83,79,214,280,2.404257,7.706498,7.808101,7.834998,8.722247,14.98451,7.527104,19.23591,35.63351,145.8371,45.25682,
143,253,698,156,63,66,199,227,10.57178,17.76588,12.98182,18.54863,11.59932,19.96261,7.620774,26.51633,29.38677,146.1966,49.08426,
136,203,585,140,57,59,196,231,15.4414,18.85993,15.66197,20.44158,12.44754,20.01789,3.999739,26.83837,29.06314,148.2076,51.94219,
95,210,645,130,54,60,181,256,15.68134,20.06476,15.57186,21.37033,12.16228,20.49882,3.854746,27.13279,29.33948,148.8312,52.77756,
133,230,711,129,55,62,133,245,15.69501,20.76062,15.57254,22.25875,12.30173,21.05104,4.46209,27.56395,30.88273,151.4847,54.48497,
221,207,581,106,44,56,119,188,15.37746,20.43691,15.80752,22.64428,13.06426,21.46739,5.803148,28.01151,30.30502,150.7889,54.69469,
435,216,583,119,56,64,114,186,15.23094,19.9172,15.86503,22.00544,12.81673,21.09494,5.132896,27.75457,29.8939,149.8564,54.42792,
526,217,578,122,58,66,112,188,15.14881,19.25768,16.05519,21.06021,12.77561,20.24091,4.838443,27.07313,29.65965,149.773,54.61317,
592,223,462,124,61,71,123,169,15.1995,18.56949,16.08844,21.04997,12.72255,20.6029,4.940739,27.31161,29.54603,149.3602,54.46067,
725,227,290,107,57,71,145,190,15.40604,18.29721,16.10328,20.97554,12.61329,20.44444,4.798657,27.12691,29.44793,147.1971,53.95051,
814,303,208,95,57,87,164,250,15.74311,18.58105,16.48167,21.14274,13.16044,20.60656,5.386788,26.82127,29.47863,146.7522,53.8745,
894,324,222,104,56,96,174,383,16.31548,19.19892,21.10684,22.9723,18.39771,23.10225,9.297397,27.28541,28.37538,145.1708,53.22049,
1004,367,319,112,72,126,212,487,16.72411,19.60246,25.856,24.34115,23.71991,24.94459,12.62317,27.7021,25.1371,142.2894,53.47924,
1086,376,339,111,76,138,274,572,17.213,19.9981,27.36781,25.26471,26.1853,25.73434,15.78944,28.12984,23.00899,140.0459,52.65915,
1193,443,332,109,78,150,283,686,24.27894,32.48616,30.99424,40.93622,29.02494,38.86729,19.7168,36.40734,21.9812,138.585,52.02012,
1232,434,332,108,79,162,443,750,56.08269,97.72897,69.18462,98.63905,73.53737,98.55056,56.69956,94.15179,21.97821,138.5342,51.11759,
1234,454,303,93,78,171,538,797,62.34747,102.7642,76.84757,102.9426,82.3774,103.3804,64.28046,99.97941,21.7076,137.2463,44.95594,
1317,515,240,95,79,178,574,911,56.04079,97.56168,68.62227,100.298,73.14108,100.2217,58.73825,99.17963,21.7076,137.2463,44.95594,
1349,528,226,101,81,187,630,907,53.83439,96.09707,65.66113,99.50414,69.96066,99.60376,57.17693,99.45277,23.11182,135.8116,40.71072,
1229,467,225,102,79,182,687,825,53.06802,95.87815,64.67216,99.55775,68.99949,100.1165,57.36017,100.7512,22.00606,136.1,40.0063,
1162,463,228,108,80,170,671,757,53.11403,95.98537,64.78067,99.73338,68.93945,100.5787,57.85034,101.6183,20.38898,135.319,38.75552,
1053,433,230,93,75,170,700,677,53.40208,96.38337,65.24656,100.0605,69.25192,101.1179,58.4189,102.0343,18.58788,133.6881,36.82853,
808,366,234,85,57,151,735,480,53.74935,96.74568,65.78909,100.0445,69.8087,101.2985,58.89574,101.9409,16.86533,132.2109,35.0609,
577,320,218,73,52,136,710,465,53.97885,96.82141,66.16358,100.0073,70.2378,101.3321,59.45308,102.1625,16.45423,131.6869,34.78457,
470,308,242,70,50,134,677,507,54.44343,96.98758,66.98486,100.0274,71.08582,101.5463,60.43486,102.6468,15.92289,131.157,34.24175,
353,261,363,87,54,133,618,503,54.66211,97.35156,67.76796,99.9164,71.66103,101.6397,61.15067,102.8995,15.58725,130.5057,32.90536,
296,267,654,173,73,123,540,495,54.72248,97.44572,67.9663,99.88745,71.8083,101.6611,61.33576,102.9642,15.58725,130.5057,32.90536,
205,233,835,214,86,111,504,439,54.85062,97.55441,68.31475,100.0243,72.31393,101.774,61.78037,103.1741,14.67572,131.1947,34.19411,
202,269,1018,247,91,97,458,352,55.54485,98.97376,68.59236,100.0198,72.63843,101.7204,62.36739,103.142,14.87977,131.503,35.17729,
198,289,1090,264,97,92,424,292,55.88531,99.76853,69.03808,99.66096,72.81799,101.3619,62.8601,103.2259,15.97439,131.5104,37.59006,
187,322,1091,262,93,81,447,330,49.28411,91.3219,56.07335,80.201,56.67776,79.96598,49.32907,79.07565,16.43776,131.4285,38.92714,
177,310,1038,232,83,61,428,280,39.88771,79.63223,37.87354,50.45706,34.72092,48.5553,30.98194,44.81858,16.58489,132.1602,40.29145,
158,286,967,202,70,59,386,308,32.70433,61.94636,29.32991,32.49246,27.57707,29.30297,24.76046,26.14397,16.37385,133.3568,42.37672,
154,294,811,163,59,58,363,342,23.14179,33.45211,26.50249,33.36514,27.8256,31.00983,25.19945,31.27829,16.06081,135.5899,46.15184,
144,270,724,135,47,54,358,331,17.29952,16.97462,24.50539,32.48312,27.38516,30.52294,25.21842,32.56802,15.90661,135.9077,48.1087,
144,244,677,126,45,57,384,283,11.40638,6.574689,21.82912,24.2792,24.86824,22.89941,22.70267,28.89198,13.96311,133.2949,49.23719,
142,255,565,97,42,63,358,299,8.293343,9.737009,20.88869,21.04804,23.78981,19.78182,20.7056,26.88603,12.29391,131.009,50.37742,
262,266,456,84,40,60,315,267,8.917202,15.65267,21.31467,22.43461,24.34085,20.80516,20.19798,27.54112,12.32451,131.8172,51.12188,
311,216,387,74,38,55,316,212,10.16317,18.29976,21.96157,23.81853,24.65237,21.94605,20.05025,27.94279,13.36957,133.6575,50.72532,
411,217,357,78,39,55,357,207,10.77171,18.73645,22.06429,23.70992,23.71044,21.49166,17.56811,27.45828,13.90884,134.299,50.45309,
531,216,342,103,48,51,268,216,10.87854,18.24833,21.88702,23.17325,22.78627,20.79787,15.56115,26.95054,14.39789,135.6091,50.70279,
636,232,274,106,50,50,277,215,10.47085,15.988,21.88195,22.30953,23.09943,20.55901,16.60739,26.86917,14.41521,135.7089,50.60734,
759,290,235,99,53,62,343,263,11.16766,15.76135,22.37454,22.78689,23.14276,21.17103,15.96507,27.03814,14.63752,135.6355,50.23879,
916,348,228,102,55,74,348,411,11.71252,15.54195,22.75679,23.12234,23.23595,21.69543,15.67186,27.33257,14.66165,135.4729,50.09428,
1020,412,226,116,76,113,393,561,11.94646,15.38723,22.92668,23.24638,23.27226,21.91065,15.53121,27.45637,14.49913,135.7508,50.45591,
1182,434,230,96,73,121,442,589,15.5961,17.61568,29.32363,28.69576,28.78094,26.73091,19.49313,29.44728,14.06137,136.4952,51.43784,
1209,431,240,83,69,122,463,592,19.25086,19.78259,33.56088,32.10919,31.90327,29.48952,21.42404,31.14938,13.83259,136.6835,51.60883,
1248,407,197,85,78,144,461,697,28.75727,27.62189,45.65266,65.7354,44.31085,61.35132,31.58097,53.84929,14.16219,137.0098,51.46384,
1245,478,207,104,80,158,520,771,51.74504,82.54533,61.63079,95.71339,62.92085,95.18162,49.19094,90.65952,16.208,140.5909,51.28634,
1250,469,197,92,65,149,573,765,67.10635,100.7768,71.08046,104.2539,74.08563,104.8592,60.59292,101.9967,16.208,140.5909,51.28634,
1197,506,204,121,81,165,583,843,62.37256,107.1165,67.79562,102.8194,71.79807,102.6797,60.75722,105.3691,23.75872,148.3001,50.38142,
1157,500,184,127,83,169,667,850,53.81902,102.1884,62.59764,101.1971,67.16529,100.2907,57.84608,100.8773,23.75872,148.3001,50.38142,
1055,505,185,128,78,149,715,773,51.46898,98.8142,61.40728,98.70483,66.1327,98.51029,57.20593,99.10299,22.76446,141.272,46.99616,
994,424,160,112,76,138,738,700,50.11955,97.51964,60.9614,98.0951,65.73455,98.11955,56.95001,98.20724,22.76446,141.272,46.99616,
868,382,153,107,72,131,829,627,49.651,96.76769,60.76446,97.63235,65.3914,97.55038,56.53307,97.76871,22.46424,139.9936,45.83475,
669,321,125,67,51,121,935,578,49.3633,96.68066,60.79138,97.53357,65.47968,97.69151,56.73201,97.98746,22.28347,139.2754,44.86835,
604,314,110,62,52,125,922,606,48.74101,96.68289,60.65862,97.50298,65.40388,97.67814,57.05804,98.15093,22.40274,139.1148,44.70891,
536,300,114,53,46,125,889,645,48.35987,96.73857,60.58702,97.52206,65.38999,97.7257,57.33561,98.30363,23.2046,139.2328,44.51998,
367,259,136,57,47,120,873,587,48.51674,97.08868,60.94269,97.36927,65.92621,97.75956,57.99577,98.17451,23.15386,137.5585,43.60916,
289,255,141,54,48,110,759,561,48.54831,97.25671,61.09149,97.39899,66.04308,97.87086,58.13617,98.12093,23.44269,137.6361,43.828,
231,223,276,78,49,90,610,471,48.77514,97.80207,61.47006,97.62678,66.36228,98.28308,58.40017,98.41045,23.71881,138.3272,45.13266,
207,224,428,76,43,76,563,428,48.96883,97.78075,61.74982,97.43956,66.73946,98.1989,58.69592,98.52383,23.54141,139.5984,47.30216,
199,295,602,102,57,119,677,388,48.42051,97.09493,62.03062,96.27886,66.82283,97.27238,58.83889,97.87127,23.45505,140.1722,48.29499,
170,326,755,154,68,122,662,404,46.55053,95.4033,61.21705,94.99864,65.70834,95.74992,57.43339,96.65991,22.19546,144.2011,56.19712,
188,336,792,162,72,130,639,430,25.19015,47.98936,40.32126,41.83389,44.58359,45.95013,38.39873,43.65956,21.3775,145.7023,58.50638,
182,333,797,154,74,130,607,484,23.39034,33.14444,37.2663,33.74245,40.88484,35.08615,34.79606,33.59922,20.77223,145.396,59.71637,
184,339,756,155,76,127,561,523,19.88169,5.215538,30.81283,12.46363,33.2038,9.262536,27.69694,8.586333,19.03442,141.9231,63.38276,
197,266,651,145,69,105,538,512,20.8861,15.09997,32.10176,18.426,34.02558,16.21616,30.30137,18.3001,18.46411,148.4564,69.95515,
227,279,505,89,56,94,489,492,21.03368,18.85282,31.62273,21.29175,32.90669,18.97337,28.92715,21.5707,18.46411,148.4564,69.95515,
223,268,451,79,50,99,601,511,21.86793,21.69702,30.30439,21.87754,30.93411,19.7877,27.20852,23.47404,18.09437,148.5701,70.66277,
230,267,392,77,47,99,639,460,20.70654,22.6372,30.01955,23.19098,30.74735,21.29395,26.5944,25.49778,17.88278,149.336,69.99625,
220,250,337,74,47,98,641,393,19.31376,21.88021,28.84593,22.6112,29.71918,20.4833,25.16793,25.41943,18.06137,150.8705,70.0695,
203,251,293,65,41,76,504,384,16.78933,20.39768,25.66379,20.86024,24.68396,19.05594,17.71144,24.78973,18.45084,150.899,69.8279,
171,279,314,70,43,80,512,368,16.79164,20.49184,25.98319,21.30153,25.72983,19.61996,19.28994,24.98097,18.45084,150.899,69.8279,
152,287,313,64,41,60,307,297,16.61239,20.33873,26.01585,21.42096,26.18023,19.84102,20.01512,25.00364,19.14966,152.7475,69.35264,
144,289,297,64,41,59,205,269,15.65687,18.58876,25.37309,20.3736,25.37798,18.98166,19.00685,24.4046,19.8413,153.2324,70.01604,
141,295,292,62,39,58,182,258,15.1787,17.51259,24.92264,19.81217,24.81744,18.54475,18.31147,23.9833,19.95242,153.6573,70.94738,
110,314,287,61,41,59,166,220,14.2535,15.10725,24.21972,18.96416,23.83458,17.93196,16.9066,23.19641,21.10233,154.7964,73.1244,
307,309,182,54,45,59,132,240,15.81215,16.1054,24.4178,19.28811,23.59322,18.09739,16.57552,22.92198,21.10233,154.7964,73.1244,
417,309,165,58,46,56,102,239,17.32623,17.17187,24.77089,19.88925,23.18917,18.48649,16.10537,22.63151,22.40758,156.5791,77.10635,
441,309,143,55,46,53,156,247,18.56241,18.00066,25.07713,20.4068,22.83397,18.82863,15.71068,22.38087,22.39053,156.9107,79.20061,
470,314,137,54,44,53,162,252,17.57061,17.2736,24.83311,19.94799,22.6068,18.1829,15.19788,22.04639,22.39053,156.9107,79.20061,
526,299,157,59,51,71,165,244,19.96757,18.93381,25.68491,20.94609,23.09114,18.88728,15.26677,22.02121,22.84442,158.6577,82.08566,
598,230,127,56,48,67,203,247,20.16864,19.13964,25.96821,21.20542,23.51108,19.06968,15.74461,22.14584,22.84442,158.6577,82.08566,
632,236,126,54,50,83,363,319,23.35467,20.55158,27.59624,22.37893,25.13263,20.10524,17.67275,22.51779,23.18852,159.0504,82.51255,
674,243,151,64,59,96,381,348,28.8521,23.6418,32.71879,25.64203,30.26175,22.23878,22.9135,23.08255,23.38374,159.6236,82.97678,
777,255,160,86,72,108,397,410,29.04276,24.20022,32.54768,25.77497,29.96001,22.39862,22.50019,23.11883,23.99201,159.9866,83.76643,
915,268,143,92,73,117,411,492,30.27028,26.47973,32.13855,26.37806,28.92723,23.07217,20.89858,23.24729,24.73692,160.4093,83.46643,
939,297,157,95,79,136,498,581,30.18259,26.13928,33.85754,26.79353,30.93931,23.71552,23.21503,23.32759,25.39422,160.4385,83.11513,
938,309,166,97,80,133,424,562,36.10756,60.82803,42.94833,69.06271,41.32807,68.36954,32.18978,64.96639,31.0441,161.3766,80.03973,
1006,307,153,93,77,132,424,588,45.37891,96.92738,55.17267,98.5508,53.12281,99.38495,40.89853,96.78651,31.0441,161.3766,80.03973,
1047,316,142,75,66,130,411,604,47.74741,102.8836,54.87888,101.9056,53.46828,102.987,42.02256,97.50259,34.00269,165.5004,81.55968,
996,302,153,79,64,115,406,582,52.65648,99.75814,64.54804,99.69587,69.12943,98.64637,60.90035,94.91535,36.96191,169.1859,82.79624,
1011,301,142,75,53,97,273,537,52.39101,98.33804,64.82862,98.82198,70.1147,97.3087,62.97924,93.2805,36.96191,169.1859,82.79624,
1043,286,138,72,52,101,285,592,52.49517,97.63627,65.88448,98.08173,71.88152,95.96882,66.3652,91.91475,37.84752,169.571,81.7063,
1165,330,147,83,63,119,281,652,51.79722,97.92535,68.04495,97.5823,75.66222,94.86767,72.78641,90.00587,37.91399,168.7122,81.38084,
1170,330,158,100,67,117,283,630,51.66896,98.20597,67.83648,97.49829,75.71859,94.99246,73.25779,89.62289,39.68243,164.7281,81.34109,
1119,325,140,90,64,114,274,591,51.59638,98.40214,67.59772,97.39622,75.29259,95.14412,72.45081,89.8395,39.75804,164.3111,80.50034,
1139,338,147,99,73,119,332,601,51.55765,98.57729,67.5281,97.36835,75.24893,95.20807,72.43814,89.89925,39.64048,162.9366,79.21586,
1117,331,141,101,75,117,352,557,51.50027,98.57144,67.47527,97.17673,75.16512,95.08827,72.55542,89.79794,39.60464,162.5214,78.1908,
908,291,131,92,67,97,374,485,51.31371,98.68489,67.51713,96.94003,75.26334,94.91054,72.93251,89.68734,39.7055,161.7029,77.52986,
765,272,138,75,66,143,623,515,51.06068,98.63728,67.56003,96.6753,75.34703,94.71415,73.1238,89.49121,39.1242,159.767,75.81779,
732,262,139,72,65,150,667,556,50.76569,98.43082,67.64178,96.15009,75.38702,94.42205,73.34536,89.08143,39.54635,159.002,74.78274,
506,200,133,56,54,143,642,517,50.17947,98.55077,67.54346,95.98204,75.45901,94.17437,73.56303,88.9128,39.27894,158.7459,74.03609,
349,188,129,52,51,137,619,500,50.09666,98.62604,67.49142,95.92116,75.49303,94.07659,73.75266,88.82538,38.44238,157.9026,71.87386,
263,159,139,48,47,138,640,457,50.10412,98.65446,67.50159,95.84114,75.55701,93.96211,73.94429,88.71284,38.25993,157.5702,71.86331,
204,127,171,49,43,85,408,403,50.02253,98.6432,67.5496,95.77926,75.58495,93.84357,73.95387,88.57581,38.4845,156.657,71.72926,
144,133,496,62,43,74,360,342,50.00143,98.65176,67.53749,95.74824,75.59184,93.77158,73.93802,88.56702,38.67153,155.7852,71.52785,
140,182,801,115,53,83,352,295,50.00423,98.69063,67.46322,95.62916,75.65765,93.56619,74.08702,88.56779,38.40907,155.0707,70.78658,
135,200,849,116,51,79,338,357,48.96877,97.87241,67.07062,95.12947,75.43239,93.17612,73.70637,88.47586,38.66166,154.3413,71.01176,
153,228,927,124,52,68,218,356,31.75446,76.49732,52.64217,89.28268,59.13398,88.061,57.88459,86.23447,37.31745,155.1318,73.80141,
167,239,932,123,50,64,237,331,24.51109,44.18408,31.86442,55.8755,34.40149,60.06765,33.40722,60.52328,37.31745,155.1318,73.80141,
201,252,820,118,52,68,208,361,25.96167,24.77427,27.5759,20.43843,31.3456,13.04057,27.20441,6.047504,35.5487,153.2936,74.93365,
216,252,647,83,47,60,203,404,31.19769,26.98821,35.385,19.30673,39.19479,9.515295,36.80608,7.815018,34.77233,154.5191,76.73711,
213,247,628,88,49,63,200,337,30.57599,28.16811,34.61848,21.24644,37.70625,10.98571,36.64013,10.43955,34.77233,154.5191,76.73711,
197,232,506,78,45,62,201,320,28.64589,29.46219,31.21599,23.13994,32.92305,16.92541,30.70945,16.99409,34.45206,155.2532,77.49781,
179,222,486,79,50,64,150,305,28.24477,31.24621,31.00884,26.3631,32.82036,21.00745,30.58982,20.44587,34.40508,155.7717,78.09246,
136,202,474,77,47,54,107,243,26.97893,30.27726,30.44926,26.58604,32.33943,21.65657,29.48263,21.28638,34.54433,156.663,79.16927,
86,167,296,61,42,48,93,133,25.16096,28.58256,29.68913,26.0354,31.67985,21.43248,27.85231,21.44695,35.27141,157.3437,79.83408,
367,170,191,56,46,55,85,132,19.98245,24.3809,27.37221,24.0748,29.47759,20.03918,25.44594,21.2865,36.09314,158.9401,81.81499,
419,165,178,58,47,56,83,150,15.50174,21.36028,25.83962,22.65956,28.37136,19.16299,24.27417,21.19597,36.09314,158.9401,81.81499,
492,172,172,53,41,53,79,163,14.87975,21.56169,25.39189,22.69179,27.95545,19.33084,23.79261,21.214,36.00861,159.4181,82.11333,
521,170,139,53,41,57,96,192,18.45317,23.97437,26.55289,23.94175,28.57401,20.32132,24.29872,21.26769,35.77585,160.7606,83.0022,
678,185,126,59,44,66,125,247,21.22934,25.53546,27.56653,24.78799,29.1582,21.15746,24.58681,21.35267,36.31811,158.627,81.5874,
680,169,121,63,43,60,135,253,22.37584,26.31982,28.03135,25.29903,29.44684,21.68456,24.93364,21.45592,36.91062,156.6279,79.3892,
783,179,128,74,49,64,142,261,23.54609,27.35979,28.56666,26.20325,29.79973,22.58637,25.63169,21.69957,37.03737,156.1915,78.89938,
811,188,144,91,56,79,152,302,24.60244,28.7075,28.96683,27.11358,30.25863,23.41106,26.53361,21.95444,37.88345,156.304,75.9133,
926,225,170,129,67,95,167,387,25.57899,29.8746,29.30422,27.94517,30.6691,24.16691,27.35906,22.19697,37.88345,156.304,75.9133,
922,248,166,136,72,103,161,398,32.23003,66.09646,33.19102,53.24569,33.85984,46.9115,31.16605,36.02449,40.47107,159.9954,70.85416,
978,266,196,141,80,120,174,482,43.70444,103.0792,49.29199,99.95692,47.98663,99.1077,39.95228,92.80585,44.91391,162.5877,66.96165,
988,265,222,144,83,123,179,503,48.90494,106.5312,63.57314,105.1048,67.04949,105.568,53.33614,102.2872,46.78444,165.392,69.29443,
1007,286,245,176,102,131,181,524,48.49602,105.7495,61.54111,103.9323,65.70612,104.1495,55.13021,103.1371,46.78444,165.392,69.29443,
959,276,243,162,100,125,167,471,49.28662,105.9263,62.49083,103.8149,67.27503,103.7829,58.35862,102.9409,51.82876,172.4387,73.26368,
987,286,248,165,100,124,163,467,50.82131,106.8269,65.10766,104.4292,70.48384,104.3304,62.36845,103.2572,54.38477,172.7862,72.40365,
988,297,232,169,95,108,137,377,49.75846,105.2545,63.26522,102.9328,68.14291,103.3781,60.05313,100.3333,57.14444,171.0483,71.15388,
911,293,206,168,96,109,120,340,49.15142,104.7245,62.88335,102.583,67.86068,103.0175,60.03299,99.46896,57.14444,171.0483,71.15388,
852,277,161,143,81,110,118,268,49.13906,104.55,62.84855,102.4305,67.75867,102.8253,59.95381,99.22597,58.95815,171.8413,71.25584,
771,271,141,131,76,125,132,231,49.53809,104.473,63.50565,102.2955,68.40594,102.8245,60.7934,98.97889,60.74923,175.4523,72.67301,
612,237,128,118,77,168,209,220,49.609,104.4795,63.59729,102.394,68.48959,102.9135,61.22952,98.78191,64.05184,-178.0664,76.72419,
367,386,118,105,80,188,302,204,49.47941,104.4623,63.62376,102.2677,68.44903,102.8091,61.52497,98.55496,64.30521,-175.781,78.50053,
286,438,125,95,72,199,358,231,49.54531,104.5114,63.75516,102.2645,68.63672,102.7438,61.84982,98.46887,64.30521,-175.781,78.50053,
201,620,145,66,63,211,377,280,49.93204,104.7327,64.42628,102.2746,69.57504,102.5389,63.32661,98.16935,66.35005,-164.6832,87.43742,
199,744,512,97,66,220,388,298,50.05972,104.7454,64.66224,102.0889,69.79266,102.2777,63.73826,97.98874,67.96255,-142.8141,107.6587,
214,820,728,206,86,234,368,274,49.81569,104.5119,64.98518,101.7,70.06064,101.8871,64.20516,97.55447,68.77203,-134.6841,115.4216,
246,780,1002,317,111,253,301,286,41.23066,97.62318,58.90405,98.57211,63.38621,99.02901,58.16278,95.23166,68.17277,-128.1432,121.8663,
226,776,1082,337,119,243,234,258,35.1401,92.3581,52.98626,96.78704,56.49795,97.28497,51.7955,93.76788,68.17277,-128.1432,121.8663,
218,648,1095,343,119,229,196,193,28.05372,73.61548,40.21328,77.75294,44.45996,84.69209,41.48274,83.8643,65.76617,-114.5945,136.0774,
222,507,1041,340,120,212,163,172,21.55063,56.19461,27.35796,50.82295,33.56433,66.19076,33.17553,69.51476,65.76617,-114.5945,136.0774,
171,396,1011,294,107,178,145,181,19.68365,49.04624,25.44277,44.44242,31.29825,56.47162,29.72807,60.51576,64.27869,-112.3835,140.3561,
120,343,756,167,74,128,136,157,16.86252,40.12499,23.05783,36.76063,28.44353,43.29202,24.75923,47.15387,62.03533,-109.627,146.0756,
107,291,742,126,62,125,127,155,14.67476,32.54835,20.40496,27.56027,23.19208,27.47632,19.01008,33.72483,60.27388,-108.0859,147.9768,
108,282,747,109,58,118,123,153,12.31124,27.41355,18.63276,21.76674,19.8102,19.38383,14.91995,25.67235,53.00752,-103.5063,153.8767,
101,260,667,95,57,118,111,146,12.01944,27.20672,17.92489,21.20852,18.86071,19.51927,13.59021,23.61665,45.69972,-99.98126,157.7965,
214,244,497,115,56,112,75,129,9.659018,22.50898,17.93973,17.02675,18.8056,15.02181,12.80599,18.99067,45.69972,-99.98126,157.7965,
340,240,482,118,59,124,69,154,7.270498,18.0613,17.87534,12.9803,18.57453,10.56042,11.86354,14.37649,46.76423,-99.58392,157.5782,
442,283,299,117,59,143,87,192,9.161629,21.47767,18.19575,17.17489,18.57469,15.58715,11.92175,18.46722,46.55309,-99.37585,157.1742,
686,283,230,117,58,147,268,246,11.04317,22.9468,19.3822,18.17549,19.7558,16.2887,13.0323,18.75322,46.1087,-99.3533,156.8844,
730,284,209,116,55,155,295,283,11.74202,23.51225,19.81646,18.55868,20.17745,16.55841,13.41269,18.87039,46.35955,-99.17877,157.2331,
749,303,189,80,51,143,301,282,14.06316,25.53968,21.25541,19.93061,21.55548,17.53628,14.6009,19.31964,47.22065,-97.50189,158.7468,
788,415,185,87,59,148,319,296,30.11849,47.06293,35.13771,53.68159,38.598,58.45394,27.96507,46.51235,48.30793,-95.20587,160.0572,
880,538,184,94,61,142,320,402,34.84893,74.40623,35.47492,80.90214,38.00245,83.53861,29.75581,67.88854,48.80968,-92.04492,161.5226,
883,807,185,101,72,161,228,457,35.07613,84.95586,34.71616,87.88926,35.94223,86.68385,27.86916,74.0873,48.80968,-92.04492,161.5226,
949,1060,239,109,82,166,228,495,38.20856,105.4855,33.33041,105.3795,30.87846,104.0968,23.07353,96.62229,48.60471,-88.00085,162.5063,
976,1248,561,153,92,166,226,544,40.12328,104.3954,42.2554,103.3456,40.01883,103.7054,26.95283,97.90548,47.87873,-84.51508,160.3984,
978,1313,659,172,94,160,219,564,45.3029,103.6566,52.46993,102.2853,53.15153,102.2925,38.94585,96.77559,47.18434,-84.01379,160.7239,
944,1301,686,185,100,168,235,517,48.94742,103.8795,57.52479,102.353,59.55036,102.3661,45.58532,97.3234,45.89178,-84.6456,161.9788,
918,1174,697,198,98,169,216,461,52.15536,104.2212,60.45918,102.5073,63.00636,102.6941,49.61334,98.19835,45.89178,-84.6456,161.9788,
891,972,689,194,90,162,184,426,52.89339,104.6435,61.48656,102.8293,64.35854,102.8987,51.55977,98.44753,44.55611,-83.26233,164.3459,
882,710,475,190,80,152,171,366,54.84853,105.54,63.40376,103.4155,66.78227,103.7141,55.16515,99.67224,43.20122,-81.74509,166.7659,
828,568,333,214,83,166,157,317,55.45652,105.7099,63.99709,103.482,67.56894,104.0196,56.34134,100.246,43.20122,-81.74509,166.7659,
753,469,265,197,79,370,249,254,56.13372,105.9865,64.74398,103.6429,68.56852,104.4132,57.78447,101.0182,41.83223,-79.93488,170.0428,
600,408,219,185,99,472,335,283,56.13384,105.9862,64.74422,103.6425,68.56877,104.4132,57.78484,101.018,41.83223,-79.93488,170.0428,
502,402,190,187,100,477,342,283,56.33274,105.8301,65.24702,103.4459,69.28545,104.5033,59.1163,101.3237,40.50831,-78.71188,172.8002,
399,387,223,152,98,496,350,271,56.36017,105.9095,65.49578,103.3979,69.45443,104.5391,59.29544,101.3849,39.22857,-77.53351,174.8292,
363,319,619,196,101,506,357,335,56.14005,105.9671,65.87413,103.3278,69.9017,104.5645,59.90498,101.5419,39.31362,-77.1846,175.5202,
299,373,859,308,137,491,333,384,55.79025,105.9726,66.11539,103.1333,70.23202,104.4881,60.3203,101.4028,39.72546,-76.48633,176.4581,
259,394,989,352,125,458,274,404,55.56082,105.8674,66.04343,103.0168,70.25806,104.3872,60.53649,101.4078,39.72546,-76.48633,176.4581,
220,400,1099,402,141,464,277,383,53.0979,104.3807,63.65397,102.2086,67.81525,103.9312,58.56256,100.4294,39.6756,-76.2677,176.3258,
198,401,1144,415,144,453,283,385,33.32454,92.52438,50.64995,93.88818,54.70158,98.44785,48.0002,95.65756,39.86552,-76.11957,175.7836,
158,400,1053,401,143,445,274,330,14.75649,56.75252,23.56693,65.55589,23.88492,67.32143,25.4327,75.92362,41.1579,-76.6485,175.5155,
147,361,979,360,120,337,228,273,11.85454,38.49099,14.55613,28.82823,14.5783,35.74078,15.47937,49.13248,42.32123,-77.11816,175.2944,
134,362,977,339,124,317,252,174,14.69651,30.98756,15.12968,20.06346,14.45898,21.5204,11.1707,33.38298,44.91923,-80.7984,171.8359,
112,313,941,292,107,309,247,144,16.2629,27.74255,16.06156,18.86303,10.80978,16.93171,1.273007,22.25383,44.91923,-80.7984,171.8359,
98,298,943,280,103,306,237,116,17.3451,23.61113,15.52769,12.07101,4.566136,7.845356,-11.79062,6.146904,47.81412,-82.64999,172.8,
95,265,895,260,102,293,230,93,15.7506,25.6664,15.58339,18.49591,9.54939,16.8329,-0.5465393,16.38252,45.35043,-83.66437,173.4253,
231,236,910,274,99,264,217,85,15.90921,26.56611,16.04018,19.92676,11.00479,18.30863,2.065354,18.43218,45.35043,-83.66437,173.4253,
386,198,804,303,102,149,124,101,16.24128,26.81624,16.61474,20.99446,12.28034,19.32045,3.942856,19.33925,56.4485,-85.19528,169.6738,
441,187,712,318,106,122,101,121,17.223,27.4858,18.02811,23.12763,14.30211,21.5945,5.946873,20.81493,62.17635,-86.23892,167.8696,
710,215,648,319,107,117,108,268,19.64006,29.48589,19.83682,24.96891,16.12144,23.20537,7.568973,21.59146,66.39527,-85.88318,168.6108,
796,229,624,326,102,114,111,319,21.7173,31.68332,21.3765,26.77368,18.53502,24.81843,11.00419,22.54267,70.25427,-84.63489,169.956,
977,306,519,349,102,131,123,424,26.67363,37.54032,23.7493,31.93221,22.63385,30.043,17.03619,26.11734,72.48459,-83.5806,171.1982,
1090,344,508,334,100,186,208,525,29.4549,41.6575,24.84586,35.08202,23.97815,33.09332,18.09814,28.18377,72.48459,-83.5806,171.1982,
1270,372,542,315,98,210,247,616,36.03957,73.55347,28.38957,74.24431,27.08117,69.65283,20.03434,46.30717,75.15924,-82.53949,172.0215,
1276,442,528,341,113,219,279,658,41.76097,103.7964,36.52485,103.2357,33.10568,102.3678,22.08387,90.40292,78.51871,-73.26025,179.4633,
1309,438,563,371,127,218,283,653,42.99681,105.076,39.67125,103.3742,37.33525,103.1969,25.10046,93.88651,78.51871,-73.26025,179.4633,
1209,416,556,405,142,214,277,593,46.09867,107.3253,45.4153,105.5877,45.64042,106.7961,33.21632,101.4263,81.06413,-56.39758,-166.6272,
1166,401,572,395,136,166,230,560,53.40765,108.081,54.30746,107.1746,60.33052,107.4193,55.98003,102.5817,84.14128,41.14183,-77.04446,
1081,381,528,402,132,137,203,524,57.37364,108.191,56.80808,107.1411,63.72351,107.1398,61.45592,102.6466,82.81755,47.60294,-71.91223,
996,338,668,463,129,107,160,469,56.55908,108.2331,55.76656,106.7398,60.65618,106.4179,55.34407,102.1095,82.49335,43.44615,-76.95319,
908,350,683,435,115,106,151,452,56.47401,108.2358,56.09773,106.6656,60.75764,106.1463,55.24537,101.9592,81.50643,37.46831,-82.72421,
859,311,699,385,102,116,166,450,56.75378,108.0552,56.64425,106.4982,61.03392,105.8871,55.3416,101.5405,77.36926,70.94471,-50.80585,
727,285,720,373,100,150,169,378,58.49388,107.9965,58.00395,106.1025,62.26785,105.7287,56.2243,101.5999,74.98605,76.03493,-46.03653,
502,311,792,383,106,172,164,311,59.47328,107.8337,58.73038,105.8947,63.30851,105.4252,57.59743,101.3187,74.98605,76.03493,-46.03653,
358,382,850,419,138,223,152,293,59.79005,107.8394,59.7706,105.7108,64.62142,105.0135,59.02404,101.55,69.55576,76.26163,-45.07547,
325,495,1059,595,185,255,217,329,60.57574,107.9268,60.58745,105.9064,65.2066,104.7225,59.47805,101.5246,59.33388,81.41832,-40.47537,
294,565,1144,670,192,286,285,426,61.04945,107.96,61.14002,106.0105,65.63943,104.5402,59.8517,101.5396,59.33388,81.41832,-40.47537,
308,661,1269,733,220,301,309,436,61.106,107.5806,61.50928,105.6825,65.8171,104.2186,60.19022,101.3234,42.86354,90.07323,-35.62408,
386,754,1336,842,283,342,321,436,59.38078,107.9512,61.00272,105.271,66.75172,103.4037,63.63683,100.3194,40.9785,85.82045,-39.54355,
367,762,1311,827,270,321,323,401,54.34027,106.6543,55.40606,104.0309,60.6252,102.5418,58.32441,99.15854,41.71627,83.59294,-41.73035,
384,738,1220,762,261,386,327,427,39.33283,93.5323,41.07961,94.70932,43.85039,91.06387,44.16955,87.37575,41.71627,83.59294,-41.73035,
395,708,1199,705,265,473,287,334,26.26973,68.77961,30.51143,74.1205,28.64042,69.32793,23.13147,65.31178,24.26517,89.3108,-39.89886,
387,721,1179,688,254,531,318,335,7.227909,28.85421,12.71446,34.77859,4.160483,33.00098,-9.329193,30.16071,18.91558,91.65655,-36.58734,
369,729,1132,629,249,571,379,335,9.712926,29.7828,7.889139,28.74995,2.630015,31.63222,-7.097412,33.50282,14.20654,94.07954,-30.37708,
382,700,1114,618,265,692,458,324,11.76104,27.69722,7.215145,23.32792,1.908189,24.51605,-8.46402,29.7517,9.804883,92.73537,-27.84756,
357,684,1103,563,249,719,462,240,11.96618,26.20061,8.668369,20.72636,2.691786,21.21549,-10.60452,25.70636,8.193151,91.84563,-27.55417,
394,775,1153,591,253,686,462,234,11.43915,25.19557,8.622153,18.45963,3.487677,17.57784,-9.852509,20.72263,5.777418,92.1188,-26.41425,
385,719,1064,548,248,659,458,227,11.48894,26.05941,7.959187,19.1555,3.227506,17.99582,-9.804108,20.8376,4.533393,92.23948,-25.85129,
436,716,1058,479,191,640,427,210,11.2779,25.62815,7.501135,18.98704,3.453884,17.58622,-8.494843,20.23752,3.556499,92.44782,-25.75079,
541,762,1001,433,177,636,364,258,11.33837,25.58125,7.651673,19.36432,3.684874,17.69767,-7.944427,20.28975,2.166671,92.35097,-25.47482,
667,854,931,431,185,625,392,272,11.33847,25.58118,7.651916,19.36492,3.685243,17.69784,-7.943542,20.28982,0.817183,92.4178,-25.41495,
868,882,757,370,177,661,419,494,12.6061,26.78035,8.237518,20.6716,4.490472,18.66569,-6.452118,20.81525,-1.474579,92.24382,-25.35898,
983,958,728,359,173,704,424,557,15.69148,30.06212,10.31892,26.46035,7.178576,24.64624,-3.052338,25.45345,-3.415192,92.07614,-25.16809,
1114,944,693,390,169,743,441,632,18.53273,38.19551,12.91222,42.09116,10.19275,44.95532,0.3912123,41.58264,-4.736328,91.85212,-24.96689,
1233,915,680,488,191,660,438,751,22.12332,77.05592,18.39201,79.80356,13.44913,81.34819,3.120002,76.14218,-6.579285,91.37316,-26.17908,
1342,994,663,612,214,612,410,913,25.56699,96.81215,23.4068,97.75771,16.3012,99.10535,3.931293,93.63031,-7.236206,91.0117,-27.23138,
1288,1072,677,601,205,618,393,847,29.23114,101.6449,26.85554,98.25738,18.23797,100.0054,4.24343,96.44578,-11.15451,88.66148,-31.30573,
1265,1040,637,639,211,573,399,881,50.01994,104.9061,45.35933,101.8109,35.44742,106.1948,11.90517,103.0617,-12.1369,88.15427,-32.20947,
1151,1000,556,622,206,520,368,854,64.78474,107.175,64.44328,105.7896,56.74846,107.8748,29.75086,105.6183,-14.1015,89.71626,-31.27112,
1079,1030,597,555,182,602,369,798,65.50266,107.8885,70.22727,105.0974,77.24983,104.4512,71.23286,106.4059,-13.36176,88.23624,-31.54245,
912,899,582,451,148,616,389,644,62.89891,108.122,66.81448,103.3797,75.11811,101.5491,74.61105,102.5424,-13.55896,87.54478,-33.76544,
856,789,584,451,152,608,373,620,62.66772,108.2139,66.53421,102.5368,74.93064,100.0158,74.94591,100.3852,-13.97171,87.34091,-33.78922,
807,731,610,406,139,595,333,521,62.12185,108.2324,66.20431,102.118,73.19051,100.2375,70.77795,100.4477,-14.41525,87.13474,-33.8591,
811,719,649,385,135,581,354,477,61.88459,108.2407,66.05993,101.9875,72.51794,100.2463,69.53033,100.3304,-14.33929,85.42433,-32.34891,
660,635,600,366,119,515,345,360,61.85434,108.2433,66.12113,101.9276,72.51701,100.2071,69.53033,100.2119,-14.33929,85.42433,-32.34891,
569,566,631,289,102,498,303,272,61.96288,108.2468,66.43919,101.7217,72.21159,99.99252,68.58015,100.3756,-14.42746,84.50497,-31.58829,
466,442,666,265,80,470,305,251,61.87328,108.2476,66.19769,101.8223,71.66537,100.0995,67.7812,100.5345,-16.41443,82.74296,-30.75143,
380,403,655,230,82,510,392,294,61.89805,108.248,66.26993,101.6737,71.56258,99.85827,67.79471,100.4387,-16.37079,82.94508,-30.71783,
250,390,769,219,102,498,408,303,61.98537,108.248,66.48243,101.5679,71.78442,99.72976,68.0676,100.3324,-16.98026,83.40711,-31.01984,
224,469,856,316,128,476,420,307,62.05288,108.2258,66.5966,101.4943,71.9127,99.5996,68.22342,100.2125,-17.28931,83.50283,-30.88327,
271,584,1025,474,164,575,438,322,62.00165,108.1887,66.55524,101.3107,71.79682,99.44302,68.11907,100.1711,-17.28931,83.50283,-30.88327,
288,601,1076,501,172,545,438,334,61.32648,107.8969,65.62482,101.0226,70.59403,99.12935,66.83178,100.0643,-17.59225,83.39339,-30.84644,
346,679,1251,660,207,505,394,320,58.24029,106.2608,61.87061,99.88393,65.12857,98.4559,59.02301,100.0231,-17.02435,85.08314,-32.29959,
346,688,1314,693,220,584,407,343,48.24843,101.8064,50.09495,96.96145,44.61892,97.18133,28.23523,100.2398,-16.31277,85.8961,-33.0759,
361,667,1364,667,206,577,447,358,41.59334,98.38492,45.94602,94.4463,40.54525,96.18508,22.99868,98.73244,-15.5574,86.60271,-33.08289,
341,586,1256,611,190,467,418,351,5.298321,62.44696,20.869,76.50686,18.23833,80.83539,4.478707,83.45326,-12.35165,89.33006,-32.41937,
314,526,1198,604,188,442,412,324,-2.31366,53.46361,14.78149,71.73664,12.77128,76.32895,-0.1546326,78.96339,-10.09,91.13202,-27.92117,
258,478,997,479,172,435,377,274,3.324167,41.09795,12.36286,43.41102,9.338349,48.39484,-0.2908936,62.16776,-10.09,91.13202,-27.92117,
272,537,822,446,158,359,323,226,12.15249,31.56506,10.52882,22.85484,7.114228,23.97974,-3.83371,36.62575,-9.199554,91.85607,-26.11911,
249,544,741,418,157,357,226,187,12.41806,31.62343,10.26738,24.79569,7.33218,25.83068,-2.934021,37.68785,-7.96582,94.44214,-21.50781,
238,524,761,386,152,416,238,183,12.09095,29.90083,10.70691,25.27559,7.858936,25.59282,-3.115173,35.23083,-8.601715,94.50667,-21.56967,
238,523,733,372,148,458,239,179,11.61586,28.43164,10.36625,23.89588,6.989015,24.4542,-3.965027,35.84542,-8.432831,94.08668,-21.56055,
408,482,785,310,123,443,231,248,10.87751,28.03919,10.15297,23.60758,6.976247,24.38161,-3.64093,36.00192,-7.760468,93.14267,-21.27148,
517,387,745,250,101,392,199,264,10.38468,28.05395,10.20568,23.78284,7.271159,24.84846,-3.23877,36.03094,-9.591125,93.34515,-20.02518,
662,381,670,260,114,374,214,339,9.430519,28.18046,10.2347,24.69171,7.536368,25.66307,-3.126312,36.28833,-10.19431,93.26385,-19.84891,
821,493,647,349,130,300,223,432,8.694518,28.78186,11.96673,26.99697,9.214318,27.48237,-2.329865,36.75112,-10.68735,93.40134,-19.8595,
897,575,634,360,132,244,234,478,7.893143,29.14137,13.53734,28.91476,10.74226,28.97711,-1.607758,37.04751,-10.67703,93.45512,-19.84793,
967,630,545,357,136,252,252,555,12.61522,46.20769,17.45464,50.75114,14.19434,51.81919,3.084804,57.20917,-10.02319,92.3371,-19.67996,
1057,677,587,383,146,262,286,668,13.66231,53.96184,18.77549,60.73345,15.04037,60.9643,3.943499,64.35235,-10.02319,92.3371,-19.67996,
1131,704,559,391,137,274,274,690,13.75993,77.97385,19.64862,82.0256,16.21441,82.56605,6.804923,82.48528,-10.58075,91.84899,-22.10062,
1125,629,526,355,135,276,260,686,15.33416,88.52708,26.93242,89.00775,23.73158,91.79742,11.56517,90.50262,-10.97452,90.80577,-21.9061,
1169,560,483,343,140,262,265,800,27.75159,99.18382,41.36746,96.78548,43.63707,98.64256,33.45392,97.48792,-11.37698,90.30222,-22.06412,
1265,510,485,340,135,297,250,814,50.30249,105.7016,58.40521,103.2059,66.19327,103.2711,61.23954,101.4636,-11.7077,89.46655,-23.11578,
1176,457,459,341,125,295,214,729,57.69496,107.449,65.75098,102.4148,74.56937,99.77702,70.87571,98.8914,-12.11252,88.25298,-24.27786,
1074,388,448,322,121,323,230,711,63.30385,107.912,71.07642,102.5577,80.99827,98.33303,78.47856,97.82646,-12.54602,88.08089,-24.56601,
1043,405,345,222,95,313,223,699,62.52867,107.5268,70.81673,101.9583,80.60133,97.77084,77.91883,97.44868,-13.32269,86.11909,-25.04141,
955,438,355,219,85,337,189,532,60.5763,107.6005,68.78539,101.6521,78.00247,98.18168,74.92782,97.56639,-13.32269,86.11909,-25.04141,
661,412,360,218,73,313,187,390,57.73228,107.1933,66.40736,101.2261,75.12092,98.53243,71.64221,97.72826,-14.18091,85.92892,-24.45401,
608,398,503,175,73,319,196,360,57.49541,107.0785,66.43837,101.1227,75.19049,98.46942,71.58772,97.64799,-14.17352,86.30414,-24.33856,
517,363,564,164,76,272,222,337,57.39489,106.8834,66.74485,100.8899,75.66306,98.27267,72.03354,97.30869,-15.44324,86.50671,-23.53732,
333,356,616,168,77,286,254,282,57.39301,106.7815,66.95155,100.7001,75.94604,98.18462,72.2959,97.04022,-16.74469,87.15709,-22.85205,
238,317,774,192,79,288,285,361,57.62614,106.5347,67.08712,100.5028,76.01702,97.93121,72.51984,96.90621,-16.957,87.32819,-22.40829,
226,379,932,282,100,303,322,377,57.46471,106.5148,67.12216,100.3303,76.14198,97.8447,72.69527,96.77402,-16.9585,87.28371,-22.27997,
222,394,1029,373,180,323,336,450,57.33417,106.551,67.07057,100.2577,76.1002,97.69965,72.76862,96.6727,-17.38522,87.45161,-22.4007,
231,450,1077,518,215,342,332,434,57.12663,106.6559,66.9185,100.1934,75.926,97.41082,72.80291,96.56679,-17.57764,87.5528,-22.51431,
239,521,1260,633,237,347,303,425,56.08447,106.0655,64.9714,99.98817,73.3753,97.03975,70.57521,96.30325,-16.91873,88.02497,-24.85803,
242,529,1208,659,245,350,282,352,52.38462,103.8861,58.43073,98.59963,63.00698,95.80172,58.5808,95.83467,-16.63397,88.07415,-27.28848,
261,521,1332,696,267,335,249,360,30.28137,90.05354,32.29088,89.71281,26.9898,88.69622,15.35612,90.9091,-15.84064,88.35545,-28.3663,
262,524,1338,672,233,307,256,281,19.92219,81.64758,24.86849,84.09467,19.46096,84.32573,6.487485,86.69389,-14.18396,89.00737,-28.34274,
252,504,1334,603,215,281,287,252,9.53186,25.37591,14.84494,25.795,10.22745,29.77737,-3.633331,42.3296,-13.28046,89.12809,-27.20926,
237,414,1230,507,207,277,302,251,13.73313,26.44914,9.430786,18.294,5.12151,22.01944,-5.383636,33.49814,-7.107819,89.76811,-23.53372,
257,437,1293,525,224,246,320,263,13.69186,29.44206,9.531667,21.5843,6.41052,23.62189,-3.521027,34.23964,-7.107819,89.76811,-23.53372,
251,458,1204,483,198,233,307,223,12.77445,30.62133,8.541377,22.59371,6.440154,23.11576,-2.99231,33.13315,-6.574799,90.59326,-22.43558,
227,466,1194,463,186,228,278,197,11.53913,29.61077,7.105812,21.1639,5.351809,21.04342,-3.862762,30.95356,-6.990479,91.63551,-22.24939,
261,469,1140,433,173,222,212,190,9.993842,27.76051,6.340918,19.42892,4.571401,19.14214,-4.719635,29.23413,-7.008301,92.25999,-22.17758,
408,509,1069,417,162,199,196,209,8.785231,25.26051,6.539671,18.52237,4.380365,17.93066,-5.525604,27.90402,-6.720917,92.58673,-21.78195,
514,500,988,344,116,176,152,250,8.298244,24.3274,6.55102,18.24762,4.499909,17.56971,-5.506073,27.32947,-6.675385,92.61966,-21.5632,
726,551,854,297,107,154,160,371,7.911363,23.60229,6.504249,17.91897,4.536591,17.1923,-5.509521,26.86382,-6.675385,92.61966,-21.5632,
828,558,651,305,115,181,157,414,9.415095,25.33847,9.897032,20.54183,8.352529,19.63531,-2.797668,27.59493,-7.469238,91.7664,-22.02176,
1012,558,621,300,114,190,171,530,15.3775,33.8868,17.19508,41.03123,16.70234,46.00529,8.018258,47.25301,-7.849426,91.31915,-22.2709,
1205,587,635,304,119,229,192,759,16.88578,44.79302,18.52968,55.47283,17.74779,59.21096,9.723974,60.48077,-7.849426,91.31915,-22.2709,
1275,570,579,388,132,224,193,800,18.29594,58.52866,19.93293,71.01504,18.82151,73.3466,11.55488,75.10513,-7.723816,90.58969,-24.2984,
1238,484,536,389,144,242,192,815,17.48787,89.50443,21.4838,92.58545,20.18515,90.12023,14.44127,85.65098,-8.472595,90.09328,-26.15689,
1297,465,555,405,143,263,213,917,18.4244,98.61141,24.8431,90.01043,24.27845,87.87218,20.11073,86.71419,-8.498962,89.37695,-27.06918,
1246,453,560,400,139,265,217,901,25.56613,104.8222,33.4277,98.13641,34.76427,98.00452,29.10814,94.22133,-8.498962,89.37695,-27.06918,
1038,378,480,382,125,230,204,726,47.75574,107.2722,55.95545,104.87,64.82094,105.4889,62.5867,101.8955,-9.006409,87.80522,-28.40137,
936,363,453,317,118,256,204,682,56.8523,108.0332,62.72142,103.0786,71.42076,100.6891,68.68127,98.67059,-9.703552,84.77412,-30.44565,
852,406,363,282,96,274,197,619,59.39223,108.1902,65.25133,102.7713,73.10571,98.91178,69.71329,98.1564,-9.801605,83.82394,-30.30746,
668,403,295,232,88,247,186,426,58.69387,108.2132,64.43178,102.3234,72.70855,98.86348,70.42379,97.48418,-10.07816,83.58356,-30.35699,
481,379,235,217,86,234,160,338,58.39838,108.2268,64.19188,102.1848,72.54465,98.86008,70.44559,97.24042,-10.07816,83.58356,-30.35699,
452,364,216,216,83,245,147,297,58.32466,108.242,64.47634,101.9804,73.00803,98.81538,71.11375,97.06834,-10.68802,82.68034,-29.75378,
365,357,233,165,84,278,209,325,57.94994,108.2463,64.64449,101.911,73.26974,98.82581,71.54349,96.9582,-10.1535,82.45563,-28.78732,
356,258,226,157,85,337,256,313,57.37674,108.2474,64.85294,101.9385,73.57619,98.63588,71.902,96.78452,-10.26578,82.44141,-28.37891,
399,226,203,148,83,357,298,352,57.03534,108.2478,65.02277,101.962,73.80799,98.50043,72.18152,96.67192,-10.19577,82.34113,-28.02731,
398,213,204,142,85,368,302,375,44.48127,103.2924,63.2659,101.5912,74.54214,98.19711,73.17059,96.03653,-10.21841,82.40415,-27.59042,
417,235,215,130,86,363,312,373,6.520773,82.66029,62.42916,101.2964,78.48972,96.31742,75.90862,93.55124,-10.24869,82.4284,-27.33151,
401,278,178,112,143,337,295,317,-0.6917725,75.86228,62.27978,101.2332,79.52369,95.83881,76.60207,92.93064,-9.151001,83.21645,-26.82928,
388,286,166,98,152,279,261,300,-1.995758,13.76592,62.79765,101.8783,80.84347,95.1102,77.87344,91.56306,-7.169281,86.07133,-24.15112,
360,272,147,91,152,252,235,265,0.1397117,16.48511,62.93681,102.0169,80.72784,95.23178,78.32541,91.48802,-6.347778,86.76331,-23.70398,
374,370,146,81,153,272,241,225,2.471581,14.13301,63.03925,101.9662,80.61333,95.23488,79.45773,91.05353,-5.742004,87.36842,-22.99081,
330,412,129,81,157,277,249,230,3.403134,13.3774,63.11273,101.0683,80.7599,94.9634,80.51238,90.56252,-5.313629,87.90602,-22.07034,
333,395,117,93,131,301,282,250,2.964398,12.85499,63.17204,100.6442,80.94019,94.7981,80.87307,90.28147,-4.884552,88.07317,-22.12476,
370,388,106,105,134,280,490,278,2.477296,11.62393,63.15329,100.3156,81.1316,94.63014,81.39071,89.99746,-4.884552,88.07317,-22.12476,
347,498,129,110,138,261,532,317,1.695135,10.15837,63.21178,99.83594,81.33911,94.27943,82.15479,89.4849,-3.817139,88.26485,-22.4411,
315,492,122,112,137,231,551,339,1.264357,9.127471,63.25238,99.60782,81.45406,94.10248,82.54451,89.22779,-3.76123,88.24019,-22.89868,
301,459,113,115,134,247,558,343,1.817149,9.455123,63.31458,99.4323,81.56218,93.9958,82.86845,89.12801,-3.487732,88.22606,-23.14136,
313,449,111,103,106,200,631,326,1.253806,8.483827,63.24308,99.25191,81.62442,93.93775,83.23863,88.84344,-3.454132,87.39262,-24.18964,
275,470,114,84,82,196,511,304,1.41261,8.818682,63.22589,99.22257,81.63043,93.91437,83.26817,88.82249,-3.086609,87.53265,-24.16531,
233,407,124,90,78,220,479,253,1.673571,8.427193,63.19128,99.07642,81.74329,93.7427,83.56212,88.70493,-2.416962,87.78094,-24.12729,
241,327,120,86,74,228,462,194,2.015282,7.920149,63.20879,98.96663,81.83266,93.58506,83.81361,88.548,-2.63089,87.70665,-24.22662,
235,295,116,80,71,234,506,195,1.774024,7.310734,63.18699,98.67393,81.97122,93.33628,83.95032,88.39837,-2.764526,86.87134,-25.21326,
323,294,120,93,88,259,446,196,1.88142,7.096024,63.23405,98.56246,82.06537,93.23684,84.1124,88.36129,-2.42511,86.66131,-25.24957,
324,271,125,130,122,305,447,191,2.27338,6.935877,63.24845,98.54523,82.0613,93.16874,84.21017,88.30951,-3.123505,86.75196,-25.90915,
359,318,113,126,123,315,453,171,2.817013,6.804866,63.22287,98.52468,82.03854,93.08432,84.22051,88.24924,-2.915527,86.71598,-25.67398,
386,454,130,125,122,321,490,184,3.132551,6.674891,63.20925,98.49888,82.03828,93.02421,84.24445,88.2118,-2.950317,86.38746,-25.68939,
390,484,130,127,129,308,448,193,3.210402,6.535493,63.23035,98.43999,82.08033,92.95908,84.32455,88.23418,-2.847473,86.34983,-25.40466,
339,495,125,118,124,318,431,184,3.55144,6.373436,63.26308,98.54057,82.20815,92.84372,84.6379,88.3223,-2.943176,86.29183,-24.9256,
323,488,122,73,91,269,407,181,3.591741,6.334095,63.26654,98.51215,82.2711,92.83074,84.65776,88.29761,-2.906708,86.2667,-24.34439,
303,466,105,75,90,249,373,181,3.767187,6.153749,63.27621,98.39488,82.51123,92.77916,84.73933,88.19324,-2.926758,84.88004,-24.51877,
349,345,82,99,106,274,361,182,4.05643,5.946309,63.34005,98.23334,82.47272,92.6079,84.73881,88.24268,-2.808777,84.80939,-24.26859,
365,336,98,132,129,291,443,163,4.055721,5.762429,63.37795,98.13032,82.60607,92.50024,84.75694,88.17107,-2.331543,83.56614,-23.43402,
354,395,129,148,142,308,540,215,4.162084,5.53254,63.45796,98.07663,82.77124,92.40374,84.79733,88.04906,-2.003296,81.80484,-23.34396,
380,440,125,148,143,341,558,221,3.931991,5.532131,63.35119,98.03873,82.77726,92.42249,84.76734,88.09573,-2.02771,81.11584,-23.33554,
405,393,125,144,141,342,578,236,4.046668,5.531569,63.28469,97.9936,82.67117,92.4415,84.73621,88.11102,-2.370056,80.03247,-23.27127,
397,411,128,134,135,317,569,230,4.041553,5.493673,63.16142,97.92051,82.52285,92.36894,84.66232,88.13404,-2.370056,80.03247,-23.27127,
382,402,118,100,106,301,546,229,4.524083,5.419302,63.11202,97.83871,82.42234,92.3246,84.59196,88.14925,-2.692078,78.4377,-22.88141,
372,413,110,73,85,291,460,181,5.255228,5.300099,63.07936,97.73191,82.32742,92.26034,84.50817,88.16081,-2.711761,76.33736,-24.28592,
341,382,114,79,89,250,453,182,5.601731,5.111062,62.89669,97.61151,82.215,92.2418,84.41866,88.29503,-2.67511,73.60229,-24.42691,
318,364,105,78,87,277,440,156,5.989919,4.955136,62.81142,97.45473,82.19467,92.18939,84.35899,88.37913,-2.844574,69.78598,-25.14417,
245,369,106,74,83,268,422,174,6.112615,4.905089,62.76846,97.33341,82.20788,92.15856,84.18824,88.31345,-3.420868,68.62807,-26.50574,
256,369,108,71,80,269,391,165,6.006427,4.864168,62.74989,97.32981,82.21693,92.19374,84.18106,88.41667,-4.75592,67.19565,-25.01376,
257,309,90,67,76,229,331,188,6.061089,4.602761,62.55122,97.31057,82.05977,92.32681,84.01503,88.50344,-5.247772,66.24983,-25.21048,
284,293,80,65,70,250,375,212,6.030223,4.593142,62.52975,97.31472,82.05952,92.29261,83.96288,88.64335,-4.888885,64.74125,-25.03223,
320,315,87,68,72,211,412,244,6.012594,4.571993,62.49984,97.31893,82.05341,92.25266,83.89927,88.80592,-3.946686,60.55463,-24.63568,
372,321,90,73,67,239,434,227,5.967715,4.509363,62.51845,97.24845,82.08584,92.27635,83.89868,88.86895,-5.109161,60.25283,-24.02966,
371,314,88,75,68,260,400,239,5.909719,4.29025,62.42376,96.96313,82.02772,92.37212,83.82141,89.00117,-6.573914,59.46295,-23.21832,
370,275,84,73,67,262,389,228,5.87702,4.132768,62.38124,96.81622,81.95438,92.39952,83.69474,89.07295,-6.295319,57.69339,-23.75891,
350,266,87,75,71,257,389,217,5.725912,3.917615,62.39426,96.68378,81.8508,92.3505,83.43111,89.24925,-5.913605,56.35074,-23.90302,
335,270,93,72,67,254,398,188,5.712966,3.876817,62.42576,96.67641,81.84145,92.34682,83.35308,89.3603,-7.147552,55.79292,-23.04474,
268,252,98,68,72,232,373,188,5.690593,3.712032,62.50582,96.6932,81.75917,92.35616,83.0663,89.62613,-7.720245,55.62752,-22.96826,
284,241,102,80,79,208,372,176,5.896112,3.548661,62.68776,96.74467,81.64864,92.42015,82.72678,89.86441,-7.870697,55.19756,-23.14804,
290,262,102,85,88,255,447,184,6.318779,3.445032,62.94988,96.73676,81.61735,92.49482,82.37659,90.28921,-7.863983,54.61815,-23.76492,
292,264,99,85,85,244,426,182,6.506321,3.413323,63.05679,96.72981,81.61298,92.52534,82.24618,90.46055,-7.863983,54.61815,-23.76492,
260,274,96,82,83,296,382,171,6.398005,3.028273,63.40622,96.94681,81.46612,92.78545,81.85781,90.75276,-9.272217,51.62857,-25.8475,
271,277,81,76,76,294,386,188,6.389847,2.966851,63.52682,96.98345,81.54375,92.84811,81.83707,90.73134,-8.949188,50.1029,-26.40598,
264,324,76,62,68,308,418,227,6.322269,2.940181,63.54279,97.06497,81.4381,92.90085,81.80531,90.86609,-8.831085,49.86491,-26.33249,
306,329,72,61,65,297,363,204,6.133355,2.874958,63.77866,96.93495,81.6011,92.90633,81.88397,91.01286,-8.127045,47.17121,-27.05029,
319,336,85,60,63,305,320,188,5.843274,2.690012,63.9291,96.9099,81.72005,92.91636,82.03422,90.97334,-7.981506,47.04838,-26.75061,
326,391,102,63,66,262,309,190,5.702011,2.59987,64.00195,96.8992,81.77643,92.92232,82.10487,90.95615,-8.674957,46.63493,-26.10852,
339,364,103,64,70,264,298,182,6.073023,2.567813,64.23613,96.93613,81.79013,93.06603,82.19853,91.17723,-8.330627,46.03108,-25.42178,
350,340,105,64,70,246,310,150,5.365577,2.512062,64.11773,97.00938,81.85104,92.96248,82.20704,91.07191,-8.358765,44.94078,-25.83401,
319,340,105,60,60,194,282,165,5.220756,2.439529,64.15516,96.928,81.95986,92.90504,82.2112,91.09794,-8.47644,44.51473,-25.78183,
302,374,102,66,64,172,282,163,5.087446,2.369772,64.19633,96.85942,82.05798,92.85856,82.21938,91.12717,-8.867767,43.71775,-24.60956,
283,298,89,83,88,170,271,166,4.843494,2.334209,64.0995,96.8406,82.03201,92.8688,82.34943,91.01563,-9.134705,43.181,-23.86819,
298,299,86,88,96,173,270,163,4.652102,2.283494,64.21671,96.90158,82.0462,92.91473,82.50504,91.01431,-8.755524,42.96627,-23.71085,
262,292,83,85,93,158,196,150,4.701404,2.230382,64.27724,96.94608,82.04549,92.92896,82.59286,90.831,-8.503082,42.87196,-23.77695,
247,313,88,85,94,152,259,186,4.816626,2.127588,64.4667,97.03534,82.04696,92.94523,82.8021,90.52473,-8.046234,43.50943,-23.56256,
244,278,96,80,97,167,269,190,4.846206,2.102012,64.51758,97.0577,82.04746,92.94872,82.85625,90.45049,-8.046234,43.50943,-23.56256,
233,282,93,70,83,169,325,244,4.917516,2.116646,64.50188,97.10375,81.99762,93.01527,82.97305,90.35407,-5.488434,44.47031,-23.80853,
177,286,96,64,74,173,389,266,5.219352,2.1594,64.4967,97.15376,81.85159,93.08474,82.97248,90.20251,-5.351563,44.6176,-23.754,
178,337,98,70,80,175,439,269,5.338711,2.170764,64.50178,97.17503,81.78895,93.09726,82.94366,90.13552,-5.238586,45.46427,-23.90704,
291,312,102,71,80,184,434,232,5.47894,2.082743,64.77856,97.23796,81.6936,93.12045,82.72539,90.2134,-5.005798,46.1401,-24.2804,
292,300,90,67,75,174,425,228,5.283217,2.050102,64.87141,97.33987,81.71684,93.17817,82.70747,90.2176,-5.078125,46.55487,-24.99701,
300,327,96,61,76,164,420,173,5.034636,1.989848,64.9698,97.42735,81.8204,93.23405,82.75697,90.25064,-4.985352,46.68793,-25.22098,
326,318,94,58,73,138,380,128,4.419246,1.87007,65.11129,97.60925,82.04202,93.3284,82.88188,90.20302,-4.787292,46.95202,-25.64526,
340,250,91,52,68,128,394,110,4.435558,1.764828,65.12689,97.65585,82.00744,93.35086,82.97108,90.06675,-4.283661,48.32381,-26.23077,
245,229,90,48,66,116,360,121,4.341323,1.743451,65.19332,97.75027,82.04633,93.32565,83.01812,89.97934,-3.331696,50.79423,-27.22409,
271,252,97,52,63,104,363,146,4.219341,1.668148,65.19096,97.97401,82.11045,93.25974,83.15003,89.82741,-1.900757,52.09974,-28.19006,
292,203,85,47,50,85,479,136,4.623854,1.696379,65.17879,98.14445,82.0934,93.42252,83.34698,89.61777,-0.5915222,53.31733,-28.94937,
254,197,84,49,51,94,518,134,4.929716,1.610381,65.30978,98.20908,82.36423,93.36252,83.58147,89.69619,0.3307717,55.02017,-29.48752,
304,194,83,48,49,99,468,131,5.446075,1.383877,65.52455,98.34006,82.64846,93.26321,83.79691,89.35045,0.8202279,55.89504,-29.76001,
304,195,95,51,53,93,479,138,5.9412,1.187909,65.44926,98.39288,82.72417,93.22655,84.10439,89.1881,2.249782,59.0642,-29.0993,
311,317,111,55,55,104,499,139,5.941557,1.187764,65.4492,98.39291,82.72419,93.22655,84.10459,89.18798,2.249782,59.0642,-29.0993,
341,311,110,53,56,116,367,141,6.362743,0.9678234,65.29868,98.35195,82.75934,93.10689,84.56106,88.81554,3.943577,63.43789,-27.33081,
339,314,115,54,59,111,389,164,6.751814,0.817147,65.2549,98.33627,82.77754,93.07877,84.71164,88.55738,3.943577,63.43789,-27.33081,
290,323,118,56,63,118,401,163,6.615734,0.6536221,65.07003,98.23724,82.75816,92.95413,84.92905,88.41219,4.606535,65.08591,-27.81491,
306,332,108,62,69,129,415,158,6.680509,0.6164911,64.93821,98.19181,82.71239,92.932,84.97836,88.36163,4.651226,66.80051,-27.70132,
294,227,79,57,69,119,390,134,7.046939,0.5048473,64.60257,98.12085,82.55014,92.8427,85.2055,88.15255,4.49063,67.92934,-27.47235,
241,269,79,57,68,135,503,146,7.434785,0.497324,64.47947,98.15219,82.46973,92.83928,85.29501,88.03053,3.562745,70.80862,-26.65222,
264,315,81,59,71,137,439,122,7.434324,0.5043309,64.11505,98.13151,82.32813,92.72179,85.61197,87.76951,3.936535,72.24723,-26.41309,
263,322,80,62,73,139,426,124,7.566275,0.5413463,63.89919,98.2045,82.258,92.75409,85.7703,87.59918,4.296048,73.67528,-26.18478,
279,345,79,54,65,137,424,128,7.566277,0.5924142,63.80291,98.24384,82.23698,92.78426,85.82281,87.50213,3.752519,73.70993,-26.73538,
261,331,91,63,70,142,433,134,7.269457,0.6527413,63.77703,98.15453,82.23697,92.68972,85.83626,87.44113,3.010222,75.62707,-27.46191,
279,324,109,75,76,123,285,153,7.019985,0.537674,63.59744,97.98599,82.06814,92.64516,85.83358,87.56006,2.463068,77.49927,-27.88541,
290,314,110,78,74,139,353,183,6.968437,0.5644323,63.52633,98.004,82.11839,92.64176,85.8792,87.54376,2.584248,79.07716,-27.11746,
297,300,105,77,69,128,365,189,6.922292,0.5968311,63.45367,98.02081,82.16717,92.63666,85.9276,87.527,2.584248,79.07716,-27.11746,
306,274,110,80,75,124,338,184,6.465356,0.6605777,63.29795,98.03426,82.2113,92.62299,86.14278,87.39047,1.999522,80.82833,-25.72589,
312,294,124,74,68,126,324,190,6.179066,0.8082098,63.14449,98.05328,82.20942,92.61831,86.27701,87.24526,2.599538,81.54827,-25.93878,
280,264,133,67,64,125,322,162,6.218956,0.8560552,63.15503,98.01917,82.26816,92.63637,86.32982,87.21156,2.599538,81.54827,-25.93878,
257,230,142,66,71,119,318,143,5.985052,0.866518,63.1273,97.96307,82.2713,92.60802,86.41867,87.30018,2.351201,85.27653,-25.21561,
240,227,143,65,74,117,333,152,5.733924,0.8763534,63.09779,97.90371,82.26965,92.57639,86.50951,87.39618,2.351201,85.27653,-25.21561,
251,232,140,70,70,125,474,162,5.5643,0.8501724,63.02994,97.86384,82.32267,92.52738,86.54479,87.45997,2.430698,86.24473,-24.84622,
246,249,149,78,75,118,486,170,5.3268,0.8571787,62.83488,97.84484,82.3239,92.41967,86.48756,87.45543,2.420855,88.58566,-24.06577,
251,256,153,76,73,127,488,179,5.002004,0.8587324,62.75714,97.75352,82.3471,92.37597,86.64174,87.47046,2.326841,89.44756,-23.81015,
232,259,148,75,66,112,430,197,4.762199,1.06027,62.49909,97.80009,82.22125,92.34427,86.59102,87.35474,1.293231,89.97878,-23.74728,
260,253,147,76,64,126,447,200,4.412425,1.199741,62.2253,97.76349,82.18172,92.24025,86.58106,87.29337,0.5551033,90.29808,-23.68881,
223,262,143,77,77,140,416,200,4.352713,1.299713,62.14513,97.78882,82.18597,92.26315,86.68992,87.18813,0.37696,90.52576,-23.68228,
246,215,113,81,91,159,435,204,4.508576,1.341342,62.16562,97.79646,82.16645,92.22437,86.65368,87.15195,-0.1936646,91.49679,-23.63037,
271,239,76,78,90,152,439,198,4.610612,1.39529,62.19221,97.79636,82.17516,92.2217,86.64831,87.07417,-0.1456299,91.49617,-23.6712,
344,236,69,78,93,153,483,178,4.696339,1.456758,62.13358,97.79733,82.19044,92.18661,86.68203,87.00507,0.05111031,91.40135,-23.82303,
343,242,89,96,105,158,549,213,4.712315,1.462922,62.0932,97.77642,82.16838,92.16968,86.67068,87.02412,0.05111031,91.40135,-23.82303,
337,240,95,95,104,143,501,213,4.671875,1.458567,62.07485,97.74426,82.14915,92.17222,86.6563,87.07506,0.1747447,91.16695,-23.97339,
384,261,104,84,88,123,480,201,4.74431,1.510404,62.03158,97.73539,82.0995,92.16222,86.65637,87.00958,0.2471708,90.92968,-24.0816,
406,231,110,87,85,125,517,205,4.756046,1.588627,61.9044,97.7878,82.05374,92.1693,86.65033,86.96697,0.3059871,90.7347,-24.17859,
416,221,145,85,83,141,509,211,4.845269,1.625591,61.76524,97.76493,82.03287,92.11394,86.67654,86.89285,0.460154,90.09425,-24.34128,
431,238,182,63,66,138,423,173,4.821165,1.722808,61.59147,97.72691,81.99084,92.00815,86.71169,86.79515,1.046963,88.3471,-24.66629,
423,247,184,56,55,147,375,167,4.745839,1.691898,61.62397,97.71432,82.04484,91.96825,86.74601,86.79701,1.046963,88.3471,-24.66629,
450,224,180,56,55,161,398,171,4.517363,1.702476,61.64169,97.74446,82.07846,91.96833,86.78548,86.72738,1.36799,87.36347,-24.79102,
425,222,180,53,55,167,438,174,4.453164,1.708716,61.57935,97.72677,82.08327,91.95101,86.84896,86.66978,1.325868,86.73321,-24.97836,
371,230,151,49,46,177,468,170,4.405599,1.741444,61.46452,97.69506,82.07092,91.9102,86.85986,86.59954,1.410376,85.56184,-24.94406,
362,319,184,61,57,175,448,175,4.470162,1.759249,61.35858,97.65793,82.00434,91.95863,86.75679,86.45657,0.7709596,82.68397,-25.60013,
362,298,191,70,60,193,448,171,4.535303,1.790254,61.30868,97.65538,81.97565,91.98776,86.69672,86.40188,1.834709,81.36202,-24.63684,
321,310,194,85,79,200,426,160,4.577339,1.814768,61.29348,97.66448,81.96882,92.00043,86.6702,86.39374,1.834709,81.36202,-24.63684,
318,329,195,87,84,200,373,173,4.808064,1.767612,61.40474,97.71696,81.98198,92.0286,86.58939,86.54914,2.256139,80.64639,-24.04434,
310,341,195,89,85,180,335,166,5.186876,1.694879,61.63615,97.80422,82.16402,92.04751,86.62989,86.6122,2.801571,78.29633,-24.37463,
281,297,126,80,77,176,332,155,5.136658,1.739059,61.65716,97.80836,82.14108,92.0453,86.46867,86.63953,2.801571,78.29633,-24.37463,
321,321,120,72,72,144,329,157,5.080105,1.841432,61.68483,97.77039,82.17534,92.05087,86.28725,86.56615,2.683326,77.13951,-24.21613,
343,311,115,80,76,134,340,185,5.496681,1.871692,61.67984,97.61352,82.10939,92.08626,86.14204,86.61517,2.506901,76.38901,-24.30457,
358,298,118,85,83,135,374,208,5.930731,1.777918,61.65021,97.38913,81.99977,92.04914,85.98997,86.70528,2.741859,74.76038,-22.42136,
367,306,118,82,82,133,353,200,5.855815,1.858069,61.59595,97.47019,81.96379,92.02399,85.95693,86.68407,2.741859,74.76038,-22.42136,
367,279,105,82,83,155,342,191,5.819251,1.872118,61.52364,97.49156,81.95233,91.97994,85.88482,86.66072,0.9933044,70.60548,-23.12933,
381,241,93,88,88,159,366,190,6.000766,1.81096,61.61169,97.43153,82.00272,91.99944,85.81583,86.66752,1.326523,69.56231,-22.9397,
376,270,90,73,76,147,369,158,6.221591,1.850626,61.75768,97.40211,82.02827,92.04802,85.7058,86.7539,0.687726,68.49043,-24.20566,
394,258,80,68,69,137,452,104,6.259928,1.870175,61.77684,97.38547,82.02764,92.05294,85.66181,86.79754,1.168467,67.59616,-23.52655,
396,296,91,70,70,143,452,110,6.335388,1.809355,61.87634,97.30363,82.05016,92.02975,85.60089,86.87302,1.5049,67.13605,-22.94437,
395,282,87,74,69,113,455,115,6.366357,1.726106,62.03469,97.26512,82.1422,92.00433,85.46269,86.98017,1.826965,66.67258,-22.38702,
399,277,84,68,62,109,434,111,6.613803,1.739391,62.16727,97.20785,82.20797,92.0488,85.37737,87.04732,1.533702,66.2319,-22.41174,
364,245,88,62,63,124,418,131,7.060953,1.786739,62.38302,97.12336,82.3214,92.14201,85.24006,87.14789,0.9280533,64.81867,-23.32098,
348,245,83,61,56,127,220,118,7.107162,1.712436,62.40357,97.17503,82.35387,92.21133,85.40051,87.33558,0.8578774,65.03271,-22.08176,
351,282,79,67,62,123,181,124,7.36376,1.623906,62.613,97.17988,82.44516,92.23706,85.35952,87.43383,0.4912802,64.78736,-20.53522,
360,304,83,66,64,125,178,120,7.523871,1.607937,62.75504,97.17191,82.55071,92.23077,85.45049,87.49174,0.2911569,63.90565,-21.11786,
356,310,80,64,65,128,221,135,7.691991,1.593743,62.89544,97.13617,82.67315,92.18475,85.59016,87.52237,0.01075755,63.00643,-21.37759,
338,309,74,58,52,109,232,124,8.017379,1.528257,63.08823,97.11658,82.79225,92.12802,85.53187,87.49123,-0.2160339,62.35017,-21.69299,
345,318,73,58,56,123,227,128,8.086126,1.534344,63.19633,97.12454,82.86137,92.12561,85.567,87.50911,-0.0401001,60.64848,-22.22452,
332,234,65,58,64,137,260,120,8.331722,1.478173,63.38446,97.10831,82.98962,92.04852,85.7495,87.45361,-0.0401001,60.64848,-22.22452,
339,214,75,62,63,143,257,119,8.781359,1.423221,63.68354,97.12942,83.08047,91.9798,85.96994,87.35617,0.5855222,59.17875,-22.54385,
310,215,78,64,62,147,255,112,9.211975,1.531963,63.89949,97.27612,82.8939,92.06718,85.87759,87.29814,1.801821,54.68778,-24.45367,
312,214,80,66,59,150,332,140,9.183902,1.50922,63.90195,97.34757,82.92259,92.11406,85.84829,87.33836,1.801821,54.68778,-24.45367,
312,206,82,65,61,143,324,151,9.12205,1.498476,63.9144,97.30183,82.97005,92.08298,85.853,87.36454,2.080835,51.71169,-24.5036,
359,191,79,64,57,136,299,150,9.233276,1.452057,63.93005,97.36439,82.95324,92.07936,85.83468,87.44348,1.792832,52.25311,-24.52182,
396,312,98,62,59,139,307,155,9.471897,1.37136,63.9678,97.48778,82.90391,92.08262,85.80212,87.57431,1.890206,52.89155,-24.54684,
417,379,105,66,63,142,313,147,9.661036,1.371173,64.02512,97.5427,82.88347,92.08778,85.77866,87.60921,1.205563,52.71558,-25.85083,
421,386,105,67,70,153,253,122,9.976513,1.435239,64.14803,97.59179,82.86795,92.09898,85.74153,87.59896,0.9271063,52.5654,-26.43423,
417,397,110,68,71,167,279,106,10.04956,1.489446,64.31078,97.55699,82.94379,92.07256,85.72658,87.50656,1.014947,52.66532,-26.2666,
378,423,115,84,76,175,418,105,10.2201,1.500021,64.51314,97.60506,83.07474,92.04946,85.80732,87.56538,1.736036,53.41946,-25.54102,
354,352,88,93,83,173,424,95,10.31825,1.503484,64.59122,97.64591,83.11116,92.03455,85.7936,87.52002,1.736036,53.41946,-25.54102,
418,279,79,92,84,172,402,89,10.39844,1.500203,64.71849,97.72134,83.18294,92.0131,85.82829,87.54197,2.110182,53.44746,-25.66669,
399,269,76,95,81,162,386,76,10.33488,1.455203,64.7354,97.71195,83.28091,91.92175,85.95343,87.55228,2.242057,53.3649,-25.88834,
381,264,68,97,79,141,421,87,10.30406,1.436415,64.83834,97.71872,83.3203,91.91008,85.94978,87.54532,1.933908,53.12447,-25.45398,
383,205,56,79,68,126,364,97,10.13028,1.398747,64.98081,97.77185,83.41794,91.88899,86.02113,87.48964,1.732482,52.95441,-25.29214,
372,205,60,68,62,113,358,103,9.901593,1.353654,65.14095,97.84453,83.53706,91.86626,86.11777,87.40518,1.658193,52.80089,-25.1358,
238,344,83,66,71,116,419,108,9.715928,1.343691,65.17896,97.86021,83.6143,91.85458,86.17311,87.45033,1.84455,51.96922,-25.58783,
247,373,88,59,70,126,418,111,9.974182,1.417013,65.34142,97.92146,83.70604,91.85482,86.25674,87.4614,1.84455,51.96922,-25.58783,
257,367,88,66,86,135,379,115,10.13001,1.405371,65.49816,97.93116,83.84554,91.83671,86.32502,87.52232,1.228062,50.73481,-25.09689,
248,367,88,70,88,132,388,113,9.969158,1.434551,65.46999,97.87733,83.90992,91.83279,86.49966,87.49507,1.228062,50.73481,-25.09689,
221,390,93,65,82,130,416,110,9.836276,1.358984,65.4761,97.82217,84.01553,91.78181,86.57323,87.52197,0.9345949,50.406,-24.81757,
228,284,80,63,70,133,360,107,9.672491,1.298968,65.5097,97.75604,84.10191,91.70448,86.61038,87.50157,0.9989197,50.46319,-24.48669,
275,310,81,68,70,124,358,108,9.574391,1.275531,65.53822,97.71748,84.13634,91.65362,86.61214,87.4701,0.6763368,49.99898,-24.36096,
255,308,84,72,84,111,348,98,9.151567,1.36295,65.45707,97.73505,84.13979,91.75516,86.54508,87.63288,0.64148,50.13989,-24.16052,
283,313,85,74,88,120,262,93,8.625802,1.316401,65.42757,97.72102,84.21011,91.8215,86.6778,87.64697,0.8029552,50.12251,-24.43451,
296,284,77,81,91,177,205,94,8.507168,1.320611,65.46696,97.7129,84.19664,91.77364,86.60447,87.59549,0.8029552,50.12251,-24.43451,
304,284,73,91,98,195,202,92,8.446267,1.326125,65.58089,97.63979,84.22632,91.73385,86.52613,87.54508,0.8495623,50.08266,-24.57147,
253,250,68,91,102,203,210,88,8.493449,1.318649,65.61047,97.73055,84.15414,91.71091,86.58083,87.57685,0.8020441,50.3948,-24.06436,
265,325,94,87,84,265,194,83,8.567437,1.368037,65.70494,97.88965,84.24175,91.73497,86.6705,87.55007,0.7528076,51.21327,-24.60577,
281,418,103,84,78,268,173,85,8.606879,1.368978,65.72466,97.89935,84.24875,91.73985,86.62942,87.51668,0.7528076,51.21327,-24.60577,
280,480,112,80,75,279,184,83,8.647759,1.374434,65.74343,97.93389,84.26134,91.73862,86.60742,87.46943,1.012378,51.76595,-24.96533,
262,495,111,66,64,267,172,83,8.770708,1.415286,65.82794,98.1646,84.2905,91.71684,86.44719,87.27759,1.51591,52.57847,-25.45419,
254,492,116,67,57,264,151,76,8.712499,1.234313,65.76059,98.11907,84.24829,91.64597,86.53342,87.23206,1.51591,52.57847,-25.45419,
273,464,111,70,48,213,147,79,8.628108,1.097741,65.77132,98.12626,84.2205,91.62321,86.54935,87.10865,2.372377,55.55468,-27.16388,
250,424,112,69,48,212,135,75,8.46087,0.9541277,65.84503,98.12828,84.25648,91.63007,86.57217,87.03211,2.061442,56.55941,-28.62143,
240,420,113,71,50,154,113,82,8.287814,0.8132663,65.92365,98.13316,84.29733,91.63892,86.59272,86.96143,1.865386,56.72047,-29.59561,
276,430,114,80,53,155,121,82,7.793676,0.8489053,65.737,98.1065,84.30602,91.54089,86.90218,86.83746,1.549285,57.08141,-31.35913,
273,496,140,80,53,157,138,90,7.952827,0.9024986,65.31127,98.26749,83.92545,91.68075,86.54076,86.67307,1.782407,57.35535,-35.60172,
238,502,135,72,51,145,140,83,8.226257,0.9229169,65.02939,98.40472,83.57277,91.82656,86.20712,86.52953,1.90426,57.38636,-37.08929,
210,492,133,87,55,131,143,82,8.436014,0.9247952,64.89092,98.49119,83.3551,91.92837,85.99551,86.43781,2.242673,57.43212,-38.37115,
216,517,134,84,55,134,146,70,7.891322,1.018312,64.1981,98.48315,82.98305,91.97076,85.79666,86.60001,3.941458,58.48772,-44.60492,
163,516,138,87,57,124,129,69,7.677639,1.006258,63.8568,98.48363,82.6784,92.1242,85.67473,86.73841,3.941458,58.48772,-44.60492,
161,496,124,96,59,164,134,71,7.581742,0.9955236,63.42134,98.51394,82.25191,92.35653,85.51864,86.92435,5.253143,60.14281,-46.79019,
158,489,135,97,65,171,131,73,7.617955,0.942947,63.04586,98.48089,81.87762,92.56581,85.30469,87.11891,5.88493,60.89519,-48.31345,
172,483,132,86,66,175,128,71,7.578353,0.9487708,62.9638,98.50737,81.68741,92.6787,85.16271,87.30746,5.88493,60.89519,-48.31345,
138,387,121,97,74,170,112,68,7.567449,0.9935567,62.91371,98.51411,81.56151,92.72683,85.05782,87.42715,6.399117,61.83464,-49.40121,
145,398,122,101,80,164,112,71,7.456375,0.9240394,62.9262,98.51624,81.44646,92.89675,85.02287,87.68266,6.830619,62.73695,-49.64145,
147,395,116,100,87,150,92,64,7.338015,0.83614,62.95216,98.52026,81.35564,93.06712,85.01842,87.92461,7.010395,62.74588,-49.93436,
150,397,98,126,114,141,87,64,7.354164,0.7884423,62.89231,98.5069,81.20524,93.17629,84.90401,87.97603,7.66974,62.49484,-52.16779,
153,390,96,169,142,145,80,64,7.383899,0.8110766,62.87163,98.50131,81.16308,93.22782,84.88638,88.02968,7.66974,62.49484,-52.16779,
153,382,99,171,150,143,83,72,7.52133,0.8208191,62.79212,98.47324,81.04417,93.23297,84.87063,87.96314,7.656329,62.87257,-51.9111,
155,327,89,164,154,143,78,69,8.033914,0.8279692,62.52538,98.34949,80.59573,93.25015,84.77535,87.80402,7.627135,62.86592,-51.58755,
154,241,81,161,155,104,74,88,8.258554,0.8406766,62.31837,98.36631,80.34615,93.34045,84.7555,87.79138,8.229436,64.22596,-51.63962,
151,202,79,138,139,102,191,83,8.26383,0.8566296,62.47705,98.55367,80.49031,93.27955,84.73604,87.72367,8.133767,64.96749,-52.08228,
156,162,78,104,134,96,377,105,8.307082,0.8776252,62.56728,98.6794,80.56015,93.23444,84.7066,87.67896,8.132863,64.96651,-52.08301,
168,150,81,118,134,97,435,120,8.007813,0.794168,62.49727,98.65409,80.48135,93.22463,84.68603,87.59306,9.936184,66.13999,-51.94534,
156,144,87,172,143,97,467,119,7.859549,0.6888984,62.34089,98.61607,80.29218,93.24142,84.6495,87.51727,9.936184,66.13999,-51.94534,
166,113,84,186,145,98,486,138,8.207652,0.6352049,62.36383,98.83997,80.23083,93.26768,84.69427,87.31807,13.00589,66.7005,-50.53229,
184,106,78,186,139,87,462,156,8.378439,0.6297792,62.53706,99.11655,80.33536,93.25062,84.90079,87.11829,13.00589,66.7005,-50.53229,
154,85,76,173,114,76,348,160,8.772785,0.6499518,62.78499,99.63712,80.33871,93.2234,84.97849,86.81739,16.01563,66.58575,-49.80267,
138,78,67,155,101,114,306,157,8.837011,0.767073,63.10619,100.1849,80.41894,93.25697,84.96463,86.66182,16.01563,66.58575,-49.80267,
147,88,77,126,87,244,333,163,8.921063,0.9277768,63.57138,100.9432,80.55157,93.29755,84.9873,86.43739,18.08654,66.01669,-49.19519,
130,86,76,119,74,263,353,139,8.671435,0.7679299,63.82679,101.1431,80.89165,93.24539,85.32407,86.25748,22.99441,61.88765,-47.80411,
192,84,79,121,75,270,349,141,8.450077,0.6325943,64.08297,101.3601,81.21706,93.19822,85.64832,86.08234,22.99441,61.88765,-47.80411,
230,90,97,132,74,273,356,147,9.36703,0.993914,64.26055,101.8825,81.28579,93.20769,85.61053,85.89059,25.98124,59.84047,-47.16376,
244,97,103,135,70,263,338,159,9.773546,1.21531,64.29939,102.3187,81.42966,93.11349,85.81955,85.8157,28.9928,58.10225,-45.4068,
286,106,114,114,49,153,276,161,9.375111,1.301355,64.433,102.5405,81.51665,93.14026,85.89535,86.17459,36.04425,54.67065,-42.16388,
292,113,120,101,59,121,213,164,8.946352,1.584057,64.65186,102.9584,81.48147,93.24114,85.75944,86.29172,41.38586,52.60346,-39.59241,
303,142,125,99,65,113,203,167,8.404913,2.140318,64.97663,103.596,81.25601,93.45159,85.29884,86.1001,43.87,51.41586,-38.74124,
300,147,116,85,65,120,268,156,8.405682,2.141209,64.97633,103.5964,81.25549,93.45181,85.29842,86.09998,46.46787,49.19909,-38.87799,
305,167,136,90,72,127,337,153,8.619969,2.489133,64.90446,103.6821,81.11805,93.53014,85.20367,86.12737,46.46787,49.19909,-38.87799,
308,185,131,87,77,130,370,154,8.786681,3.503911,64.81621,104.0409,80.85899,93.96479,85.03493,86.19322,57.83628,37.92514,-42.18677,
337,202,133,81,69,128,373,154,8.687745,3.685556,64.82703,104.1354,80.8493,94.10884,85.03355,86.19307,57.83628,37.92514,-42.18677,
311,212,143,93,67,122,375,140,8.292789,3.967503,64.9395,104.2816,80.826,94.33229,84.94402,86.28144,67.20605,23.7419,-52.77005,
377,255,179,104,70,120,317,144,8.48704,4.331579,65.10629,104.4429,80.84618,94.51544,84.89264,86.36476,71.49921,12.07946,-62.78308,
429,279,177,99,64,113,286,158,8.403911,4.689346,65.50427,104.568,81.19967,94.70834,85.02718,86.4752,71.9528,8.184048,-66.13525,
426,313,175,91,60,233,303,185,8.427261,4.79915,65.76768,104.6116,81.3626,94.75104,84.99365,86.46913,73.43067,1.346992,-70.31345,
425,329,186,89,59,241,312,192,8.388793,4.943161,66.31655,104.6695,81.74229,94.8075,84.94558,86.43201,75.13235,-28.11227,-95.1842,
460,498,193,81,57,250,314,205,8.309567,4.95157,66.40298,104.7181,81.77472,94.84399,84.99061,86.42827,72.60703,-57.25491,-121.4531,
492,598,186,70,58,247,339,225,8.210502,4.918913,66.78709,104.8018,81.88918,94.92171,84.92686,86.41928,72.60703,-57.25491,-121.4531,
447,673,176,65,55,251,333,245,8.160862,4.803281,67.27205,104.9731,82.00176,95.2141,84.84882,86.32624,64.61021,-72.39111,-132.6834,
427,674,198,74,63,171,321,234,8.377933,4.68134,67.72991,105.1079,82.12437,95.41643,84.84685,86.38683,62.57194,-74.50644,-134.0134,
447,663,186,81,74,162,318,240,8.569498,4.593463,68.04216,105.1947,82.21104,95.53961,84.84496,86.45954,60.67085,-77.68597,-136.2942,
398,604,184,86,80,153,319,226,9.003816,4.484288,68.70701,105.3284,82.41206,95.72068,84.95061,86.4798,52.51948,-84.99319,-140.284,
319,596,160,79,80,182,319,200,9.243994,4.374124,69.1899,105.4332,82.64835,95.95329,85.13712,86.57047,51.67093,-86.1123,-140.6967,
342,499,171,81,89,217,335,155,9.399683,4.303761,69.50549,105.502,82.79998,96.10504,85.26251,86.64273,51.0163,-87.1452,-141.2106,
421,479,137,82,93,197,292,152,9.243914,4.183993,69.63,105.4042,82.94122,96.21339,85.45089,86.67417,48.66945,-91.17102,-144.6164,
399,491,139,78,96,207,285,131,9.361273,4.074775,69.74287,105.3813,82.99966,96.36254,85.4458,86.86157,47.65522,-92.07153,-145.0326,
418,431,150,72,93,203,278,135,9.483188,3.966161,69.86282,105.3618,83.05765,96.51158,85.44021,87.05501,47.65522,-92.07153,-145.0326,
400,269,151,71,96,176,233,174,9.327109,3.821212,69.72079,105.2568,82.96596,96.64133,85.45631,87.10072,46.08324,-92.03796,-144.1484,
425,269,141,74,92,113,191,182,9.252487,3.851717,69.62129,105.1124,82.73768,96.78799,85.4056,87.26156,44.3202,-94.15268,-145.6438,
347,255,147,68,83,132,192,218,9.232892,3.828899,69.59375,105.0479,82.71878,96.79395,85.37617,87.29064,43.87209,-94.31143,-145.5936,
332,249,152,70,75,109,190,227,9.218674,3.777887,69.52311,104.8801,82.6511,96.84264,85.26768,87.38569,43.87234,-94.3096,-145.5917,
319,235,124,66,71,109,191,225,9.25798,3.741937,69.39278,104.7911,82.52505,96.94719,85.13435,87.42869,43.61003,-93.40497,-144.3886,
361,240,132,69,67,106,191,206,9.377398,3.770908,69.31841,104.8027,82.42109,97.01149,85.13467,87.42426,43.12577,-93.33612,-144.1264,
313,233,124,62,59,115,171,196,9.558483,3.83757,69.32215,104.8196,82.3685,97.04065,85.15656,87.44598,42.83207,-93.72549,-144.5573,
329,237,121,59,55,131,209,207,9.86862,3.930991,69.43022,104.8676,82.35105,97.0702,85.14164,87.43581,42.51045,-94.1507,-144.8814,
406,232,125,53,51,134,273,220,10.07188,3.99093,69.50442,104.896,82.3404,97.09026,85.13222,87.42998,42.42623,-94.18018,-144.874,
404,226,135,61,53,134,277,228,9.871927,3.996776,69.2905,104.7629,82.31452,97.10773,85.16376,87.53168,42.42623,-94.18018,-144.874,
366,229,121,61,54,137,278,224,9.858356,3.98295,69.31059,104.7214,82.34307,97.13898,85.19331,87.49832,41.77678,-94.38675,-144.9379,
368,232,129,65,62,140,286,242,9.874825,3.990971,69.28555,104.6806,82.34529,97.18241,85.13744,87.52131,41.48939,-94.47128,-145.0132,
354,232,124,65,65,111,261,198,10.05952,4.033725,69.33081,104.6817,82.31956,97.24297,85.1556,87.4753,42.30762,-94.54669,-145.0434,
256,216,106,60,61,131,194,172,10.23712,4.075418,69.31797,104.691,82.26236,97.23362,85.19843,87.52873,42.23172,-94.78357,-145.0174,
277,201,92,53,60,133,184,157,10.27112,4.109162,69.23538,104.6689,82.26509,97.22817,85.1964,87.49691,42.04614,-94.8252,-145.0378,
268,175,91,54,58,128,180,141,10.38914,4.115034,69.25106,104.677,82.29787,97.21825,85.21428,87.46258,42.12027,-94.96045,-145.298,
286,166,95,119,80,117,131,104,10.59723,4.177175,69.19061,104.6581,82.26509,97.23892,85.21961,87.44569,42.23532,-94.93546,-145.2581,
298,165,128,146,83,101,105,78,10.67408,4.232439,69.10883,104.6297,82.20119,97.26746,85.20609,87.46244,42.45867,-95.26337,-145.641,
340,166,130,153,84,65,76,70,10.62324,4.248706,69.0929,104.5955,82.21091,97.282,85.16015,87.51376,42.45867,-95.26337,-145.641,
305,182,141,170,90,53,77,71,10.3507,4.144344,68.95536,104.4966,82.22231,97.27976,85.05865,87.70488,42.8938,-95.77164,-146.2018,
329,212,152,192,93,50,75,77,10.3847,4.073624,68.84382,104.4449,82.17363,97.27341,84.9693,87.76031,44.22458,-96.42523,-147.8166,
341,241,185,188,75,43,65,74,10.61407,4.009159,68.77135,104.4589,82.06974,97.15562,84.71004,87.80471,47.009,-95.63092,-148.4901,
333,248,171,179,68,43,54,83,10.96307,4.075721,68.68995,105.0002,81.60951,97.12759,84.25019,88.21207,61.03199,-75.00211,-134.5328,
278,247,169,176,70,35,75,87,11.36822,4.172881,68.74268,105.4178,81.28387,97.27928,84.16543,88.47547,67.14381,-51.71094,-114.7377,
282,263,158,162,67,38,118,83,11.57045,4.22048,68.76984,105.6252,81.12254,97.35624,84.1261,88.60581,68.65742,-12.20795,-78.35425,
232,292,151,135,64,105,123,84,10.50585,3.977006,66.71945,105.679,80.2579,96.95372,83.74473,88.74434,58.00052,27.31731,-43.24368,
194,272,96,91,56,116,127,83,10.34863,3.796648,64.82571,106.0158,79.27765,96.43517,83.05882,89.06265,50.27029,41.53488,-32.42932,
173,285,81,72,64,119,129,69,10.1839,3.635773,64.78008,105.8017,79.43087,96.29374,83.22289,88.76911,46.09767,45.96065,-29.45026,
269,316,94,80,81,137,131,76,10.19105,3.50491,64.86858,105.7449,79.71326,96.1711,83.26961,88.56291,31.28285,55.56696,-25.21649,
269,347,127,77,78,164,116,80,10.3304,3.277672,65.02065,105.6025,80.06435,96.0432,83.22137,88.31035,31.28285,55.56696,-25.21649,
276,327,145,87,87,251,120,81,10.46543,2.959006,65.03455,105.3768,80.39474,95.94715,83.37718,88.16529,33.08885,55.31472,-27.05798,
259,360,196,89,92,280,120,80,10.91232,2.540066,64.8203,104.9039,80.68023,95.74508,83.73764,87.96285,33.70681,55.78883,-28.70029,
265,383,210,93,96,300,124,81,11.37578,2.257301,64.66591,104.6297,80.65692,95.62537,83.83405,87.87329,30.32705,57.83879,-29.53955,
270,434,232,87,82,415,118,110,11.86147,2.089122,64.41157,104.4171,80.64782,95.60622,83.93655,87.81301,27.53114,58.8899,-29.56189,
